(1001)
(T2  D=1.587 CR=0.381 - ZMIN=0 - bullnose end mill)
G90 G94
G17
G21
G28 G91 Z0
G90

(2D Pocket4)
T2 M6
S10000 M3
G54
M8
G0 X44.165 Y-18.478
Z15
Z5
G1 Z2.5 F381
Z0 F762
X44.272 F381
G3 X43.381 Y-18.478 I-0.446 J0
X45.057 Y-18.478 I0.838 J0
X42.597 Y-18.478 I-1.23 J0
X45.841 Y-18.478 I1.622 J0
X41.813 Y-18.478 I-2.014 J0
X45.841 Y-18.478 I2.014 J0
G2 X46.123 Y-18.015 I0.521 J0
G3 X46.313 Y-17.507 I-0.186 J0.359
X43.766 Y-15.76 I-2.564 J-1.007
X42.142 Y-16.304 I-0.016 J-2.646
X41.171 Y-17.716 I1.678 J-2.194
X41.085 Y-18.634 I2.297 J-0.678
X41.964 Y-20.44 I2.894 J0.292
X43.827 Y-21.19 I1.863 J1.938
X46.503 Y-18.445 I0 J2.677
X46.313 Y-17.507 I-2.754 J-0.07
G2 X46.425 Y-16.905 I0.539 J0.212
G3 X46.44 Y-16.292 I-0.343 J0.315
X40.903 Y-16.714 I-2.618 J-2.181
X40.573 Y-17.388 I3.599 J-2.179
X40.4 Y-18.118 I2.648 J-1.014
X40.409 Y-18.654 I2.282 J-0.23
X40.498 Y-19.183 I7.954 J1.072
X44.531 Y-21.807 I3.308 J0.673
X47.155 Y-17.773 I-0.737 J3.35
X46.961 Y-17.148 I-3.203 J-0.652
X46.44 Y-16.292 I-3.14 J-1.324
G2 X46.364 Y-15.709 I0.422 J0.352
G3 X46.214 Y-15.141 I-0.418 J0.194
X44.848 Y-14.504 I-2.373 J-3.306
X40.722 Y-15.799 I-1.016 J-3.982
X40.305 Y-20.552 I3.084 J-2.665
X44.669 Y-22.48 I3.541 J2.111
X47.252 Y-20.713 I-0.803 J3.945
X47.829 Y-17.636 I-3.496 J2.248
X46.214 Y-15.141 I-3.988 J-0.811
G2 X45.999 Y-14.604 I0.314 J0.437
G3 X45.729 Y-14.093 I-0.456 J0.086
X40.781 Y-14.785 I-1.91 J-4.385
X39.594 Y-16.211 I3.192 J-3.864
X39.038 Y-17.981 I4.004 J-2.229
X39.039 Y-18.723 I3.663 J-0.369
X39.15 Y-19.457 I7.449 J0.759
X44.319 Y-23.241 I4.665 J0.949
X48.602 Y-18.478 I-0.507 J4.763
X45.729 Y-14.093 I-4.783 J0
G2 X45.403 Y-13.606 I0.216 J0.497
G3 X45.034 Y-13.151 I-0.476 J-0.008
X38.731 Y-16.474 I-1.227 J-5.313
X44.943 Y-23.828 I5.095 J-1.996
X49.177 Y-19.594 I-1.082 J5.316
X45.385 Y-13.244 I-5.38 J1.095
X45.034 Y-13.151 I-1.577 J-5.219
G2 X44.618 Y-12.724 I0.124 J0.538
G3 X44.166 Y-12.334 I-0.479 J-0.099
X38.553 Y-15.292 I-0.345 J-6.149
X37.948 Y-16.593 I5.623 J-3.404
X37.663 Y-17.999 I5.447 J-1.839
X37.673 Y-18.87 I5.004 J-0.378
X37.803 Y-19.731 I8.476 J0.837
X40.453 Y-23.624 I5.967 J1.214
X45.08 Y-24.502 I3.387 J5.216
X49.495 Y-20.877 I-1.218 J5.984
X44.166 Y-12.334 I-5.675 J2.394
G2 X43.682 Y-11.981 I0.031 J0.551
G3 X43.172 Y-11.664 I-0.463 J-0.178
X42.602 Y-11.741 I0.639 J-6.87
X36.969 Y-18.122 I1.199 J-6.735
X36.986 Y-18.882 I5.249 J-0.263
X37.06 Y-19.638 I126.55 J11.996
X37.156 Y-20.107 I2.383 J0.24
X38.234 Y-22.373 I8.383 J2.602
X40.003 Y-24.152 I5.395 J3.595
X50.525 Y-17.088 I3.825 J5.67
X47.652 Y-12.802 I-6.651 J-1.353
X43.172 Y-11.664 I-3.84 J-5.732
G2 X42.641 Y-11.386 I-0.051 J0.549
G3 X42.092 Y-11.145 I-0.435 J-0.246
X36.298 Y-17.896 I1.708 J-7.328
X36.301 Y-18.837 I5.995 J-0.452
X36.386 Y-19.775 I49.12 J4.007
X36.482 Y-20.244 I2.383 J0.24
X37.668 Y-22.751 I9.414 J2.923
X39.619 Y-24.722 I5.913 J3.901
X51.199 Y-16.951 I4.21 J6.24
X48.038 Y-12.234 I-7.323 J-1.49
X42.482 Y-11.065 I-4.227 J-6.302
X42.092 Y-11.145 I1.318 J-7.408
G2 X41.553 Y-10.952 I-0.12 J0.515
G3 X41.004 Y-10.787 I-0.389 J-0.298
G1 X40.94 Y-10.809
G3 X38.594 Y-12.138 I2.58 J-7.291
X36.571 Y-14.596 I5.324 J-6.444
X35.634 Y-17.638 I7.098 J-3.852
X35.616 Y-18.777 I6.698 J-0.675
X35.713 Y-19.912 I36.094 J2.494
X35.808 Y-20.382 I2.383 J0.24
G1 X36.146 Y-21.47
G3 X36.329 Y-21.903 I2.287 J0.71
X37.576 Y-23.773 I10.867 J5.898
X39.233 Y-25.294 I5.895 J4.761
X39.809 Y-25.649 I4.634 J6.868
X40.402 Y-25.976 I22.785 J40.559
X40.834 Y-26.159 I1.143 J2.105
G1 X41.923 Y-26.497
G3 X42.393 Y-26.592 I0.71 J2.287
G1 X43.586 Y-26.713
G3 X44.067 Y-26.713 I0.24 J2.383
G1 X45.261 Y-26.592
G3 X45.73 Y-26.497 I-0.24 J2.383
G1 X46.819 Y-26.159
G3 X47.252 Y-25.976 I-0.71 J2.287
X49.122 Y-24.728 I-5.898 J10.866
X50.642 Y-23.072 I-4.761 J5.895
X50.998 Y-22.496 I-6.869 J4.635
X51.325 Y-21.903 I-40.559 J22.785
X51.507 Y-21.47 I-2.105 J1.143
G1 X51.845 Y-20.382
G3 X51.941 Y-19.912 I-2.287 J0.71
G1 X52.061 Y-18.718
G3 X52.061 Y-18.238 I-2.383 J0.24
G1 X51.941 Y-17.044
G3 X51.845 Y-16.574 I-2.383 J-0.24
G1 X51.507 Y-15.486
G3 X51.325 Y-15.053 I-2.287 J-0.71
X50.077 Y-13.183 I-10.867 J-5.898
X48.421 Y-11.662 I-5.894 J-4.761
X47.844 Y-11.307 I-4.635 J-6.869
X47.252 Y-10.98 I-22.784 J-40.558
X46.819 Y-10.797 I-1.143 J-2.105
G1 X45.73 Y-10.459
G3 X45.261 Y-10.364 I-0.71 J-2.287
G1 X44.026 Y-10.239
G3 X43.575 Y-10.237 I-0.24 J-2.383
X41.004 Y-10.787 I0.944 J-10.687
G2 X40.424 Y-10.642 I-0.179 J0.516
G3 X39.836 Y-10.531 I-0.369 J-0.341
X38.157 Y-11.609 I3.628 J-7.502
X36.69 Y-13.178 I5.324 J-6.445
X35.584 Y-15.019 I10.719 J-7.695
X35.433 Y-15.404 I2.146 J-1.063
X35.079 Y-16.809 I17.364 J-5.129
X34.911 Y-18.248 I7.809 J-1.641
X34.942 Y-19.094 I6.736 J-0.17
G1 X35.039 Y-20.049
G3 X35.134 Y-20.519 I2.383 J0.24
G1 X35.513 Y-21.738
G3 X35.695 Y-22.17 I2.287 J0.71
G1 X36.296 Y-23.277
G3 X36.553 Y-23.659 I2.105 J1.143
G1 X37.353 Y-24.628
G3 X37.677 Y-24.951 I1.847 J1.524
G1 X38.646 Y-25.751
G3 X39.028 Y-26.009 I1.524 J1.847
G1 X40.135 Y-26.61
G3 X40.567 Y-26.792 I1.143 J2.105
G1 X41.786 Y-27.17
G3 X42.256 Y-27.266 I0.71 J2.287
G1 X43.586 Y-27.4
G3 X44.067 Y-27.4 I0.24 J2.383
G1 X45.398 Y-27.266
G3 X45.867 Y-27.17 I-0.24 J2.383
G1 X47.086 Y-26.792
G3 X47.519 Y-26.61 I-0.71 J2.287
G1 X48.626 Y-26.009
G3 X49.007 Y-25.751 I-1.143 J2.105
G1 X49.977 Y-24.951
G3 X50.3 Y-24.628 I-1.524 J1.847
G1 X51.1 Y-23.659
G3 X51.358 Y-23.277 I-1.847 J1.524
G1 X51.958 Y-22.17
G3 X52.141 Y-21.738 I-2.105 J1.143
G1 X52.519 Y-20.519
G3 X52.615 Y-20.049 I-2.287 J0.71
G1 X52.749 Y-18.718
G3 X52.749 Y-18.238 I-2.383 J0.24
G1 X52.615 Y-16.907
G3 X52.519 Y-16.437 I-2.383 J-0.24
G1 X52.141 Y-15.218
G3 X51.958 Y-14.786 I-2.287 J-0.71
G1 X51.358 Y-13.679
G3 X51.1 Y-13.297 I-2.105 J-1.143
G1 X50.3 Y-12.328
G3 X49.977 Y-12.005 I-1.847 J-1.524
G1 X49.007 Y-11.205
G3 X48.626 Y-10.947 I-1.524 J-1.847
G1 X47.519 Y-10.346
G3 X47.086 Y-10.164 I-1.143 J-2.105
G1 X45.867 Y-9.786
G3 X45.398 Y-9.69 I-0.71 J-2.287
G1 X44.03 Y-9.552
G3 X43.579 Y-9.549 I-0.24 J-2.383
X40.712 Y-10.168 I1.041 J-11.787
X39.836 Y-10.531 I2.753 J-7.865
G2 X39.217 Y-10.45 I-0.248 J0.513
G3 X38.593 Y-10.418 I-0.333 J-0.388
G1 X37.856 Y-10.93
G3 X37.547 Y-11.185 I1.365 J-1.968
G1 X36.676 Y-12.037
G3 X36.414 Y-12.34 I1.675 J-1.712
G1 X35.697 Y-13.326
G3 X35.487 Y-13.673 I1.937 J-1.409
G1 X34.944 Y-14.769
G3 X34.794 Y-15.153 I2.146 J-1.063
X34.409 Y-16.673 I19.053 J-5.628
X34.227 Y-18.231 I8.397 J-1.774
X34.262 Y-19.162 I7.413 J-0.187
G1 X34.365 Y-20.186
G3 X34.46 Y-20.656 I2.383 J0.24
G1 X34.879 Y-22.005
G3 X35.062 Y-22.437 I2.287 J0.71
G1 X35.726 Y-23.661
G3 X35.983 Y-24.043 I2.105 J1.143
G1 X36.867 Y-25.114
G3 X37.19 Y-25.437 I1.847 J1.524
G1 X38.262 Y-26.321
G3 X38.643 Y-26.579 I1.524 J1.847
G1 X39.867 Y-27.243
G3 X40.3 Y-27.426 I1.143 J2.105
G1 X41.649 Y-27.844
G3 X42.119 Y-27.94 I0.71 J2.287
G1 X43.586 Y-28.088
G3 X44.067 Y-28.088 I0.24 J2.383
G1 X45.535 Y-27.94
G3 X46.005 Y-27.844 I-0.24 J2.383
G1 X47.354 Y-27.426
G3 X47.786 Y-27.243 I-0.71 J2.287
G1 X49.01 Y-26.579
G3 X49.392 Y-26.321 I-1.143 J2.105
G1 X50.463 Y-25.437
G3 X50.786 Y-25.114 I-1.524 J1.847
G1 X51.67 Y-24.043
G3 X51.928 Y-23.661 I-1.847 J1.524
G1 X52.592 Y-22.437
G3 X52.774 Y-22.005 I-2.105 J1.143
G1 X53.193 Y-20.656
G3 X53.289 Y-20.186 I-2.287 J0.71
G1 X53.437 Y-18.718
G3 X53.437 Y-18.238 I-2.383 J0.24
G1 X53.289 Y-16.77
G3 X53.193 Y-16.3 I-2.383 J-0.24
G1 X52.774 Y-14.951
G3 X52.592 Y-14.519 I-2.287 J-0.71
G1 X51.928 Y-13.295
G3 X51.67 Y-12.913 I-2.105 J-1.143
G1 X50.786 Y-11.842
G3 X50.463 Y-11.519 I-1.847 J-1.524
G1 X49.392 Y-10.635
G3 X49.01 Y-10.377 I-1.524 J-1.847
G1 X47.786 Y-9.713
G3 X47.354 Y-9.53 I-1.143 J-2.105
G1 X46.005 Y-9.112
G3 X45.535 Y-9.016 I-0.71 J-2.287
G1 X44.034 Y-8.865
G3 X43.583 Y-8.862 I-0.24 J-2.383
G1 X42.324 Y-8.973
G3 X41.909 Y-9.047 I0.211 J-2.386
G1 X40.708 Y-9.372
G3 X40.319 Y-9.514 I0.625 J-2.312
G1 X39.21 Y-10.032
G3 X38.858 Y-10.235 I1.014 J-2.17
G1 X38.593 Y-10.418
G2 X37.977 Y-10.426 I-0.314 J0.452
G3 X37.36 Y-10.442 I-0.296 J-0.449
X37.109 Y-10.656 I1.424 J-1.926
G1 X36.156 Y-11.588
G3 X35.894 Y-11.891 I1.675 J-1.712
G1 X35.109 Y-12.971
G3 X34.9 Y-13.317 I1.937 J-1.409
G1 X34.305 Y-14.518
G3 X34.154 Y-14.902 I2.146 J-1.063
X33.74 Y-16.538 I20.748 J-6.128
X33.542 Y-18.214 I8.986 J-1.908
X33.581 Y-19.23 I8.09 J-0.204
G1 X33.691 Y-20.323
G3 X33.787 Y-20.793 I2.383 J0.24
G1 X34.246 Y-22.272
G3 X34.428 Y-22.705 I2.287 J0.71
G1 X35.156 Y-24.046
G3 X35.414 Y-24.428 I2.105 J1.143
G1 X36.381 Y-25.6
G3 X36.704 Y-25.923 I1.847 J1.524
G1 X37.877 Y-26.891
G3 X38.259 Y-27.149 I1.524 J1.847
G1 X39.6 Y-27.877
G3 X40.033 Y-28.059 I1.143 J2.105
G1 X41.512 Y-28.518
G3 X41.982 Y-28.614 I0.71 J2.287
G1 X43.586 Y-28.776
G3 X44.067 Y-28.776 I0.24 J2.383
G1 X45.672 Y-28.614
G3 X46.142 Y-28.518 I-0.24 J2.383
G1 X47.621 Y-28.059
G3 X48.053 Y-27.877 I-0.71 J2.287
G1 X49.395 Y-27.149
G3 X49.776 Y-26.891 I-1.143 J2.105
G1 X50.949 Y-25.923
G3 X51.272 Y-25.6 I-1.524 J1.847
G1 X52.24 Y-24.428
G3 X52.497 Y-24.046 I-1.847 J1.524
G1 X53.225 Y-22.705
G3 X53.408 Y-22.272 I-2.105 J1.143
G1 X53.867 Y-20.793
G3 X53.963 Y-20.323 I-2.287 J0.71
G1 X54.124 Y-18.718
G3 X54.124 Y-18.238 I-2.383 J0.24
G1 X53.963 Y-16.633
G3 X53.867 Y-16.163 I-2.383 J-0.24
G1 X53.408 Y-14.684
G3 X53.225 Y-14.251 I-2.287 J-0.71
G1 X52.497 Y-12.91
G3 X52.24 Y-12.528 I-2.105 J-1.143
G1 X51.272 Y-11.356
G3 X50.949 Y-11.033 I-1.847 J-1.524
G1 X49.776 Y-10.065
G3 X49.395 Y-9.807 I-1.524 J-1.847
G1 X48.053 Y-9.079
G3 X47.621 Y-8.897 I-1.143 J-2.105
G1 X46.142 Y-8.438
G3 X45.672 Y-8.342 I-0.71 J-2.287
G1 X44.039 Y-8.178
G3 X43.588 Y-8.175 I-0.24 J-2.383
G1 X42.203 Y-8.297
G3 X41.789 Y-8.371 I0.211 J-2.386
G1 X40.472 Y-8.727
G3 X40.083 Y-8.869 I0.625 J-2.312
G1 X38.867 Y-9.437
G3 X38.515 Y-9.639 I1.014 J-2.17
G1 X37.419 Y-10.4
X37.36 Y-10.442
G2 X36.777 Y-10.495 I-0.335 J0.454
G3 X36.2 Y-10.589 I-0.223 J-0.456
G1 X35.637 Y-11.139
G3 X35.375 Y-11.442 I1.675 J-1.712
G1 X34.522 Y-12.615
G3 X34.312 Y-12.961 I1.937 J-1.409
G1 X33.665 Y-14.268
G3 X33.515 Y-14.652 I2.146 J-1.063
X33.07 Y-16.403 I22.449 J-6.631
X32.858 Y-18.196 I9.575 J-2.041
X32.9 Y-19.298 I8.768 J-0.221
G1 X33.017 Y-20.46
G3 X33.113 Y-20.93 I2.383 J0.24
G1 X33.612 Y-22.539
G3 X33.795 Y-22.972 I2.287 J0.71
G1 X34.586 Y-24.43
G3 X34.844 Y-24.812 I2.105 J1.143
G1 X35.895 Y-26.086
G3 X36.218 Y-26.409 I1.847 J1.524
G1 X37.493 Y-27.461
G3 X37.875 Y-27.719 I1.524 J1.847
G1 X39.333 Y-28.51
G3 X39.766 Y-28.693 I1.143 J2.105
G1 X41.375 Y-29.192
G3 X41.844 Y-29.288 I0.71 J2.287
G1 X43.586 Y-29.463
G3 X44.067 Y-29.463 I0.24 J2.383
G1 X45.809 Y-29.288
G3 X46.279 Y-29.192 I-0.24 J2.383
G1 X47.888 Y-28.693
G3 X48.321 Y-28.51 I-0.71 J2.287
G1 X49.779 Y-27.719
G3 X50.161 Y-27.461 I-1.143 J2.105
G1 X51.435 Y-26.409
G3 X51.758 Y-26.086 I-1.524 J1.847
G1 X52.81 Y-24.812
G3 X53.067 Y-24.43 I-1.847 J1.524
G1 X53.859 Y-22.972
G3 X54.041 Y-22.539 I-2.105 J1.143
G1 X54.541 Y-20.93
G3 X54.636 Y-20.46 I-2.287 J0.71
G1 X54.812 Y-18.718
G3 X54.812 Y-18.238 I-2.383 J0.24
G1 X54.636 Y-16.496
G3 X54.541 Y-16.026 I-2.383 J-0.24
G1 X54.041 Y-14.417
G3 X53.859 Y-13.984 I-2.287 J-0.71
G1 X53.067 Y-12.526
G3 X52.81 Y-12.144 I-2.105 J-1.143
G1 X51.758 Y-10.87
G3 X51.435 Y-10.546 I-1.847 J-1.524
G1 X50.161 Y-9.495
G3 X49.779 Y-9.237 I-1.524 J-1.847
G1 X48.32 Y-8.446
G3 X47.888 Y-8.263 I-1.143 J-2.105
G1 X46.279 Y-7.764
G3 X45.809 Y-7.668 I-0.71 J-2.287
G1 X44.043 Y-7.49
G3 X43.592 Y-7.487 I-0.24 J-2.383
G1 X42.083 Y-7.621
G3 X41.668 Y-7.695 I0.211 J-2.386
G1 X40.236 Y-8.082
G3 X39.847 Y-8.224 I0.625 J-2.312
G1 X38.525 Y-8.842
G3 X38.173 Y-9.044 I1.014 J-2.17
G1 X36.981 Y-9.871
G3 X36.672 Y-10.127 I1.365 J-1.968
G1 X36.2 Y-10.589
G2 X35.589 Y-10.704 I-0.392 J0.4
G3 X34.979 Y-10.819 I-0.219 J-0.515
G1 X34.97 Y-10.828
X33.81 Y-12.421
X32.929 Y-14.201
X32.349 Y-16.165
X32.301 Y-16.421
X32.253 Y-16.708
X32.213 Y-16.998
X32.18 Y-17.29
X32.154 Y-17.584
X32.136 Y-17.88
X32.124 Y-18.178
X32.121 Y-18.443
X32.362 Y-20.838
X33.044 Y-23.034
X34.123 Y-25.021
X35.552 Y-26.753
X37.284 Y-28.182
X39.271 Y-29.261
X41.467 Y-29.942
X43.827 Y-30.18
X46.187 Y-29.942
X48.382 Y-29.261
X50.37 Y-28.182
X52.102 Y-26.753
X53.531 Y-25.021
X54.61 Y-23.034
X55.291 Y-20.838
X55.529 Y-18.478
X55.291 Y-16.118
X54.61 Y-13.922
X53.531 Y-11.935
X52.102 Y-10.203
X50.37 Y-8.774
X48.382 Y-7.695
X46.187 Y-7.014
X43.822 Y-6.775
X41.751 Y-6.958
X39.798 Y-7.486
X37.996 Y-8.328
X36.376 Y-9.453
X34.979 Y-10.819
G0 Z15

(Trace6)
X31.736 Y-20.978
Z15
Z5
G1 Z0 F381
X13.938
Z5
G0 Y-15.978
G1 Z0 F381
X31.736
Z5
G0 Z15
M9
G28 G91 Z0
G90
G28 G91 X0 Y0
G90
M5
M30
