Gcode : S849

Gcode : S995

Gcode : S1000

Gcode : S1000

Gcode : S1000

Gcode : S1000

Gcode : S1000

Gcode : S1000

Gcode : S1000

Gcode : S1000

Gcode : S1000

Gcode : S1000

Gcode : M9

Gcode : S500
Gcode : M4

Gcode : M5

Gcode : M9

Gcode : M5

Gcode : M8

Gcode : M5

Gcode : M9

Gcode : G91

Gcode : G1 Y1 F300

Gcode : G91

Gcode : G1 Y1 F300

Gcode : G91

Gcode : G1 Y1 F300

Gcode : G91

Gcode : G1 Y1 F300

Gcode : G91

Gcode : G1 Z1 F300

Gcode : G91

Gcode : G1 Z1 F300

Gcode : G91

Gcode : G1 Z1 F300

Gcode : G91

Gcode : G1 Z1 F300

Gcode : G91

Gcode : G1 Z1 F300

Gcode : G91

Gcode : G1 Z1 F300

Gcode : G91

Gcode : G1 Z1 F300

Gcode : G91

Gcode : G1 Z1 F300

(1001)
(T2  D=1.587 CR=0.381 - ZMIN=0 - bullnose end mill)
G90 G94
G17
G21
G28 G91 Z0
G90

(Trace17)
T2 M6
S10000 M3
G54
M8
G0 X1.351 Y-21.568
Z15
Z5
G1 Z0 F381
X13.727 Y-21.575
X14.126 Y-21.629
X14.507 Y-21.734
X14.866 Y-21.885
X15.199 Y-22.081
X15.503 Y-22.316
X15.774 Y-22.587
X16.009 Y-22.891
X16.204 Y-23.224
X16.356 Y-23.583
X16.461 Y-23.964
X16.514 Y-24.363
X16.528 Y-27.274
X16.582 Y-27.673
X16.687 Y-28.054
X16.839 Y-28.412
X17.034 Y-28.746
X17.269 Y-29.05
X17.54 Y-29.321
X17.844 Y-29.556
X18.177 Y-29.751
X18.536 Y-29.903
X18.917 Y-30.007
X19.316 Y-30.061
X19.532 Y-30.068
X20.093 Y-30.141
X20.596 Y-30.345
X21.021 Y-30.662
X21.348 Y-31.073
X21.556 Y-31.556
X21.708 Y-32.627
X21.928 Y-33.105
X22.265 Y-33.507
X22.698 Y-33.815
X23.207 Y-34.008
X23.771 Y-34.068
X24.327 Y-33.982
X24.824 Y-33.767
X25.241 Y-33.44
X25.558 Y-33.023
X25.755 Y-32.534
X25.813 Y-31.993
X25.909 Y-31.463
X26.14 Y-30.992
X26.487 Y-30.597
X26.928 Y-30.299
X27.443 Y-30.117
X28.01 Y-30.071
X28.562 Y-30.169
X29.052 Y-30.395
X29.461 Y-30.731
X29.768 Y-31.156
X29.952 Y-31.65
X30.002 Y-32.194
X30.111 Y-32.719
X30.354 Y-33.184
X30.71 Y-33.571
X31.158 Y-33.859
X31.679 Y-34.029
X32.249 Y-34.063
X32.796 Y-33.952
X33.28 Y-33.715
X33.68 Y-33.371
X33.977 Y-32.939
X34.149 Y-32.438
X34.193 Y-31.893
X34.315 Y-31.373
X34.569 Y-30.914
X34.934 Y-30.535
X35.389 Y-30.257
X35.916 Y-30.098
X36.487 Y-30.078
X37.029 Y-30.201
X37.506 Y-30.449
X37.898 Y-30.802
X38.184 Y-31.241
X38.344 Y-31.746
X38.384 Y-32.293
X38.519 Y-32.808
X38.784 Y-33.261
X39.158 Y-33.631
X39.621 Y-33.899
X40.153 Y-34.046
X40.725 Y-34.053
X41.262 Y-33.918
X41.732 Y-33.66
X42.115 Y-33.298
X42.391 Y-32.852
X42.538 Y-32.342
X42.577 Y-31.795
X42.725 Y-31.284
X43 Y-30.838
X43.383 Y-30.477
X43.854 Y-30.219
X44.39 Y-30.084
X44.963 Y-30.09
X45.494 Y-30.237
X45.958 Y-30.506
X46.332 Y-30.876
X46.596 Y-31.328
X46.731 Y-31.844
X46.771 Y-32.39
X46.931 Y-32.896
X47.217 Y-33.335
X47.609 Y-33.688
X48.086 Y-33.936
X48.628 Y-34.058
X49.2 Y-34.039
X49.726 Y-33.88
X50.182 Y-33.601
X50.547 Y-33.223
X50.801 Y-32.764
X50.923 Y-32.243
X50.967 Y-31.698
X51.139 Y-31.198
X51.436 Y-30.766
X51.836 Y-30.421
X52.32 Y-30.184
X52.867 Y-30.074
X53.437 Y-30.107
X53.957 Y-30.278
X54.406 Y-30.566
X54.762 Y-30.952
X55.004 Y-31.418
X55.113 Y-31.943
X55.163 Y-32.486
X55.348 Y-32.981
X55.654 Y-33.406
X56.063 Y-33.741
X56.554 Y-33.968
X57.105 Y-34.066
X57.673 Y-34.019
X58.188 Y-33.837
X58.629 Y-33.539
X58.975 Y-33.145
X59.207 Y-32.673
X59.302 Y-32.144
X59.361 Y-31.603
X59.557 Y-31.114
X59.874 Y-30.696
X60.291 Y-30.37
X60.788 Y-30.154
X61.344 Y-30.069
X61.909 Y-30.128
X62.418 Y-30.322
X62.851 Y-30.629
X63.188 Y-31.032
X63.408 Y-31.51
X63.56 Y-32.581
X63.768 Y-33.064
X64.095 Y-33.474
X64.52 Y-33.791
X65.023 Y-33.996
X65.584 Y-34.068
X66.95 Y-33.839
X68.127 Y-33.203
X69.035 Y-32.236
X69.599 Y-31.018
X69.741 Y-29.623
X69.398 Y-28.164
X69.002 Y-27.445
X68.469 Y-26.844
X67.826 Y-26.367
X67.095 Y-26.02
X66.301 Y-25.807
X65.493 Y-25.733
X64.946 Y-25.64
X64.458 Y-25.421
X64.049 Y-25.095
X63.738 Y-24.68
X63.546 Y-24.195
X63.489 Y-23.659
X63.393 Y-23.13
X63.162 Y-22.659
X62.815 Y-22.264
X62.375 Y-21.966
X61.859 Y-21.784
X61.292 Y-21.737
X60.74 Y-21.835
X60.25 Y-22.062
X59.841 Y-22.397
X59.534 Y-22.822
X59.35 Y-23.317
X59.3 Y-23.861
X59.191 Y-24.385
X58.948 Y-24.851
X58.592 Y-25.237
X58.144 Y-25.526
X57.623 Y-25.696
X57.053 Y-25.729
X56.506 Y-25.619
X56.022 Y-25.382
X55.622 Y-25.037
X55.326 Y-24.605
X55.153 Y-24.105
X55.11 Y-23.56
X54.987 Y-23.04
X54.734 Y-22.58
X54.369 Y-22.202
X53.913 Y-21.924
X53.386 Y-21.765
X52.815 Y-21.745
X52.273 Y-21.868
X51.796 Y-22.115
X51.404 Y-22.468
X51.118 Y-22.907
X50.958 Y-23.413
X50.918 Y-23.959
X50.783 Y-24.475
X50.518 Y-24.927
X50.144 Y-25.298
X49.681 Y-25.566
X49.149 Y-25.713
X48.577 Y-25.72
X48.04 Y-25.585
X47.57 Y-25.327
X47.187 Y-24.965
X46.911 Y-24.519
X46.764 Y-24.008
X46.725 Y-23.462
X46.577 Y-22.951
X46.302 Y-22.505
X45.919 Y-22.143
X45.449 Y-21.885
X44.912 Y-21.75
X44.34 Y-21.757
X43.808 Y-21.904
X43.345 Y-22.172
X42.971 Y-22.542
X42.706 Y-22.995
X42.571 Y-23.51
X42.531 Y-24.057
X42.371 Y-24.562
X42.085 Y-25.001
X41.693 Y-25.355
X41.216 Y-25.602
X40.674 Y-25.725
X40.102 Y-25.705
X39.576 Y-25.546
X39.12 Y-25.268
X38.755 Y-24.889
X38.501 Y-24.43
X38.379 Y-23.91
X38.335 Y-23.365
X38.163 Y-22.865
X37.867 Y-22.433
X37.466 Y-22.088
X36.982 Y-21.851
X36.436 Y-21.74
X35.866 Y-21.774
X35.345 Y-21.944
X34.896 Y-22.233
X34.541 Y-22.619
X34.298 Y-23.085
X34.189 Y-23.609
X34.139 Y-24.153
X33.955 Y-24.648
X33.648 Y-25.073
X33.239 Y-25.408
X32.748 Y-25.635
X32.197 Y-25.733
X31.629 Y-25.686
X31.114 Y-25.504
X30.673 Y-25.206
X30.327 Y-24.811
X30.096 Y-24.34
X30 Y-23.81
X29.941 Y-23.27
X29.745 Y-22.78
X29.428 Y-22.363
X29.011 Y-22.037
X28.514 Y-21.821
X27.958 Y-21.736
X27.393 Y-21.795
X26.884 Y-21.989
X26.451 Y-22.296
X26.114 Y-22.698
X25.895 Y-23.176
X25.743 Y-24.247
X25.534 Y-24.731
X25.207 Y-25.141
X24.782 Y-25.458
X24.279 Y-25.663
X23.699 Y-25.735
X23.029 Y-25.681
X22.394 Y-25.527
X21.801 Y-25.279
X21.259 Y-24.946
X20.775 Y-24.537
X20.359 Y-24.06
X20.018 Y-23.524
X19.761 Y-22.935
X19.597 Y-22.304
X19.533 Y-21.638
X19.577 Y-20.945
X19.739 Y-20.235
X19.895 Y-19.82
X20.093 Y-19.431
X20.33 Y-19.071
X20.604 Y-18.741
X20.911 Y-18.442
X21.247 Y-18.177
X21.61 Y-17.948
X21.995 Y-17.756
X22.4 Y-17.604
X22.821 Y-17.493
X23.255 Y-17.425
X23.719 Y-17.402
X24.323 Y-17.317
X24.858 Y-17.079
X25.298 Y-16.714
X25.617 Y-16.245
X25.789 Y-15.697
X25.834 Y-15.106
X26.006 Y-14.559
X26.325 Y-14.09
X26.765 Y-13.724
X27.301 Y-13.486
X27.905 Y-13.402
X28.51 Y-13.486
X29.045 Y-13.724
X29.485 Y-14.09
X29.804 Y-14.559
X29.976 Y-15.106
X30.021 Y-15.697
X30.193 Y-16.245
X30.512 Y-16.714
X30.952 Y-17.079
X31.487 Y-17.317
X32.091 Y-17.402
X32.696 Y-17.317
X33.231 Y-17.079
X33.671 Y-16.714
X33.99 Y-16.245
X34.162 Y-15.697
X34.208 Y-15.106
X34.379 Y-14.559
X34.698 Y-14.09
X35.138 Y-13.724
X35.674 Y-13.486
X36.278 Y-13.402
X36.883 Y-13.486
X37.418 Y-13.724
X37.858 Y-14.09
X38.177 Y-14.559
X38.349 Y-15.106
X38.394 Y-15.697
X38.566 Y-16.245
X38.885 Y-16.714
X39.325 Y-17.079
X39.86 Y-17.317
X40.465 Y-17.402
X41.069 Y-17.317
X41.604 Y-17.079
X42.044 Y-16.714
X42.363 Y-16.245
X42.535 Y-15.697
X42.581 Y-15.106
X42.752 Y-14.559
X43.071 Y-14.09
X43.511 Y-13.724
X44.047 Y-13.486
X44.651 Y-13.402
X45.256 Y-13.486
X45.791 Y-13.724
X46.231 Y-14.09
X46.55 Y-14.559
X46.722 Y-15.106
X46.767 Y-15.697
X46.939 Y-16.245
X47.258 Y-16.714
X47.698 Y-17.079
X48.233 Y-17.317
X48.838 Y-17.402
X49.442 Y-17.317
X49.977 Y-17.079
X50.417 Y-16.714
X50.736 Y-16.245
X50.908 Y-15.697
X50.954 Y-15.106
X51.125 Y-14.559
X51.444 Y-14.09
X51.884 Y-13.724
X52.42 Y-13.486
X53.024 Y-13.402
X53.629 Y-13.486
X54.164 Y-13.724
X54.604 Y-14.09
X54.923 Y-14.559
X55.095 Y-15.106
X55.14 Y-15.697
X55.312 Y-16.245
X55.631 Y-16.714
X56.071 Y-17.079
X56.606 Y-17.317
X57.211 Y-17.402
X57.815 Y-17.317
X58.35 Y-17.079
X58.791 Y-16.714
X59.109 Y-16.245
X59.281 Y-15.697
X59.327 Y-15.106
X59.499 Y-14.559
X59.817 Y-14.09
X60.257 Y-13.724
X60.793 Y-13.486
X61.397 Y-13.402
X62.002 Y-13.486
X62.537 Y-13.724
X62.977 Y-14.09
X63.296 Y-14.559
X63.468 Y-15.106
X63.513 Y-15.697
X63.685 Y-16.245
X64.004 Y-16.714
X64.444 Y-17.079
X64.979 Y-17.317
X65.584 Y-17.402
X67.056 Y-17.134
X68.297 Y-16.397
X69.21 Y-15.288
X69.697 Y-13.906
X69.659 Y-12.347
X69.22 Y-11.126
X68.709 Y-10.416
X68.055 Y-9.848
X67.289 Y-9.43
X66.442 Y-9.167
X65.545 Y-9.068
X64.95 Y-8.975
X64.425 Y-8.734
X63.993 Y-8.369
X63.681 Y-7.903
X63.513 Y-7.361
X63.468 Y-6.773
X63.296 Y-6.225
X62.977 Y-5.756
X62.537 Y-5.391
X62.002 Y-5.153
X61.397 Y-5.068
X60.793 Y-5.153
X60.257 Y-5.391
X59.817 Y-5.756
X59.499 Y-6.225
X59.327 Y-6.773
X59.281 Y-7.364
X59.109 Y-7.911
X58.791 Y-8.38
X58.35 Y-8.746
X57.815 Y-8.984
X57.211 Y-9.068
X56.606 Y-8.984
X56.071 Y-8.746
X55.631 Y-8.38
X55.312 Y-7.911
X55.14 Y-7.364
X55.095 Y-6.773
X54.923 Y-6.225
X54.604 Y-5.756
X54.164 Y-5.391
X53.629 Y-5.153
X53.024 Y-5.068
X52.42 Y-5.153
X51.884 Y-5.391
X51.444 Y-5.756
X51.125 Y-6.225
X50.954 Y-6.773
X50.908 Y-7.364
X50.736 Y-7.911
X50.417 Y-8.38
X49.977 Y-8.746
X49.442 Y-8.984
X48.838 Y-9.068
X48.233 Y-8.984
X47.698 Y-8.746
X47.258 Y-8.38
X46.939 Y-7.911
X46.767 Y-7.364
X46.722 Y-6.773
X46.55 Y-6.225
X46.231 Y-5.756
X45.791 Y-5.391
X45.256 Y-5.153
X44.651 Y-5.068
X44.047 Y-5.153
X43.511 Y-5.391
X43.071 Y-5.756
X42.752 Y-6.225
X42.581 Y-6.773
X42.535 Y-7.364
X42.363 Y-7.911
X42.044 Y-8.38
X41.604 Y-8.746
X41.069 Y-8.984
X40.465 Y-9.068
X39.86 Y-8.984
X39.325 Y-8.746
X38.885 Y-8.38
X38.566 Y-7.911
X38.394 Y-7.364
X38.349 Y-6.773
X38.177 Y-6.225
X37.858 Y-5.756
X37.418 Y-5.391
X36.883 Y-5.153
X36.278 Y-5.068
X35.674 Y-5.153
X35.138 Y-5.391
X34.698 Y-5.756
X34.379 Y-6.225
X34.208 Y-6.773
X34.162 Y-7.364
X33.99 Y-7.911
X33.671 Y-8.38
X33.231 Y-8.746
X32.696 Y-8.984
X32.091 Y-9.068
X31.487 Y-8.984
X30.952 Y-8.746
X30.512 Y-8.38
X30.193 Y-7.911
X30.021 Y-7.364
X29.976 Y-6.773
X29.804 Y-6.225
X29.485 Y-5.756
X29.045 Y-5.391
X28.51 Y-5.153
X27.905 Y-5.068
X27.301 Y-5.153
X26.765 Y-5.391
X26.325 Y-5.756
X26.006 Y-6.225
X25.834 Y-6.773
X25.789 Y-7.364
X25.617 Y-7.911
X25.298 Y-8.38
X24.858 Y-8.746
X24.323 Y-8.984
X23.719 Y-9.068
X23.114 Y-8.984
X22.579 Y-8.746
X22.139 Y-8.38
X21.82 Y-7.911
X21.648 Y-7.364
X21.603 Y-6.773
X21.431 Y-6.225
X21.112 Y-5.756
X20.672 Y-5.391
X20.137 Y-5.153
X19.521 Y-5.068
X19.114 Y-5.096
X18.724 Y-5.175
X18.354 Y-5.304
X18.007 Y-5.478
X17.688 Y-5.693
X17.4 Y-5.947
X17.146 Y-6.235
X16.931 Y-6.554
X16.757 Y-6.901
X16.629 Y-7.271
X16.549 Y-7.661
X16.521 Y-8.068
Y-14.398
X16.494 Y-14.805
X16.414 Y-15.196
X16.286 Y-15.566
X16.112 Y-15.912
X15.897 Y-16.231
X15.643 Y-16.52
X15.355 Y-16.773
X15.036 Y-16.989
X14.69 Y-17.162
X14.32 Y-17.291
X13.929 Y-17.371
X13.523 Y-17.398
X1.256 Y-17.407
Z5
G0 Z15
M9
G28 G91 Z0
G90
G28 G91 X0 Y0
G90
M5
M30
Gcode : G91

Gcode : G1 Z1 F300

Gcode : G91

Gcode : G1 Z1 F300

Gcode : G91

Gcode : G1 Z1 F300

Gcode : G91

Gcode : G1 Z1 F300

Gcode : G91

Gcode : G1 Z1 F300

Gcode : G91

Gcode : G1 Z1 F300

Gcode : G91

Gcode : G1 Z1 F300

(1001)
(T2  D=1.587 CR=0.381 - ZMIN=0 - bullnose end mill)
G90 G94
G17
G21
G28 G91 Z0
G90

(Trace17)
T2 M6
S10000 M3
G54
M8
G0 X1.351 Y-21.568
Z15
Z5
G1 Z0 F381
X13.727 Y-21.575
X14.126 Y-21.629
X14.507 Y-21.734
X14.866 Y-21.885
X15.199 Y-22.081
X15.503 Y-22.316
X15.774 Y-22.587
X16.009 Y-22.891
X16.204 Y-23.224
X16.356 Y-23.583
X16.461 Y-23.964
X16.514 Y-24.363
X16.528 Y-27.274
X16.582 Y-27.673
X16.687 Y-28.054
X16.839 Y-28.412
X17.034 Y-28.746
X17.269 Y-29.05
X17.54 Y-29.321
X17.844 Y-29.556
X18.177 Y-29.751
X18.536 Y-29.903
X18.917 Y-30.007
X19.316 Y-30.061
X19.532 Y-30.068
X20.093 Y-30.141
X20.596 Y-30.345
X21.021 Y-30.662
X21.348 Y-31.073
X21.556 Y-31.556
X21.708 Y-32.627
X21.928 Y-33.105
X22.265 Y-33.507
X22.698 Y-33.815
X23.207 Y-34.008
X23.771 Y-34.068
X24.327 Y-33.982
X24.824 Y-33.767
X25.241 Y-33.44
X25.558 Y-33.023
X25.755 Y-32.534
X25.813 Y-31.993
X25.909 Y-31.463
X26.14 Y-30.992
X26.487 Y-30.597
X26.928 Y-30.299
X27.443 Y-30.117
X28.01 Y-30.071
X28.562 Y-30.169
X29.052 Y-30.395
X29.461 Y-30.731
X29.768 Y-31.156
X29.952 Y-31.65
X30.002 Y-32.194
X30.111 Y-32.719
X30.354 Y-33.184
X30.71 Y-33.571
X31.158 Y-33.859
X31.679 Y-34.029
X32.249 Y-34.063
X32.796 Y-33.952
X33.28 Y-33.715
X33.68 Y-33.371
X33.977 Y-32.939
X34.149 Y-32.438
X34.193 Y-31.893
X34.315 Y-31.373
X34.569 Y-30.914
X34.934 Y-30.535
X35.389 Y-30.257
X35.916 Y-30.098
X36.487 Y-30.078
X37.029 Y-30.201
X37.506 Y-30.449
X37.898 Y-30.802
X38.184 Y-31.241
X38.344 Y-31.746
X38.384 Y-32.293
X38.519 Y-32.808
X38.784 Y-33.261
X39.158 Y-33.631
X39.621 Y-33.899
X40.153 Y-34.046
X40.725 Y-34.053
X41.262 Y-33.918
X41.732 Y-33.66
X42.115 Y-33.298
X42.391 Y-32.852
X42.538 Y-32.342
X42.577 Y-31.795
X42.725 Y-31.284
X43 Y-30.838
X43.383 Y-30.477
X43.854 Y-30.219
X44.39 Y-30.084
X44.963 Y-30.09
X45.494 Y-30.237
X45.958 Y-30.506
X46.332 Y-30.876
X46.596 Y-31.328
X46.731 Y-31.844
X46.771 Y-32.39
X46.931 Y-32.896
X47.217 Y-33.335
X47.609 Y-33.688
X48.086 Y-33.936
X48.628 Y-34.058
X49.2 Y-34.039
X49.726 Y-33.88
X50.182 Y-33.601
X50.547 Y-33.223
X50.801 Y-32.764
X50.923 Y-32.243
X50.967 Y-31.698
X51.139 Y-31.198
X51.436 Y-30.766
X51.836 Y-30.421
X52.32 Y-30.184
X52.867 Y-30.074
X53.437 Y-30.107
X53.957 Y-30.278
X54.406 Y-30.566
X54.762 Y-30.952
X55.004 Y-31.418
X55.113 Y-31.943
X55.163 Y-32.486
X55.348 Y-32.981
X55.654 Y-33.406
X56.063 Y-33.741
X56.554 Y-33.968
X57.105 Y-34.066
X57.673 Y-34.019
X58.188 Y-33.837
X58.629 Y-33.539
X58.975 Y-33.145
X59.207 Y-32.673
X59.302 Y-32.144
X59.361 Y-31.603
X59.557 Y-31.114
X59.874 Y-30.696
X60.291 Y-30.37
X60.788 Y-30.154
X61.344 Y-30.069
X61.909 Y-30.128
X62.418 Y-30.322
X62.851 Y-30.629
X63.188 Y-31.032
X63.408 Y-31.51
X63.56 Y-32.581
X63.768 Y-33.064
X64.095 Y-33.474
X64.52 Y-33.791
X65.023 Y-33.996
X65.584 Y-34.068
X66.95 Y-33.839
X68.127 Y-33.203
X69.035 Y-32.236
X69.599 Y-31.018
X69.741 Y-29.623
X69.398 Y-28.164
X69.002 Y-27.445
X68.469 Y-26.844
X67.826 Y-26.367
X67.095 Y-26.02
X66.301 Y-25.807
X65.493 Y-25.733
X64.946 Y-25.64
X64.458 Y-25.421
X64.049 Y-25.095
X63.738 Y-24.68
X63.546 Y-24.195
X63.489 Y-23.659
X63.393 Y-23.13
X63.162 Y-22.659
X62.815 Y-22.264
X62.375 Y-21.966
X61.859 Y-21.784
X61.292 Y-21.737
X60.74 Y-21.835
X60.25 Y-22.062
X59.841 Y-22.397
X59.534 Y-22.822
X59.35 Y-23.317
X59.3 Y-23.861
X59.191 Y-24.385
X58.948 Y-24.851
X58.592 Y-25.237
X58.144 Y-25.526
X57.623 Y-25.696
X57.053 Y-25.729
X56.506 Y-25.619
X56.022 Y-25.382
X55.622 Y-25.037
X55.326 Y-24.605
X55.153 Y-24.105
X55.11 Y-23.56
X54.987 Y-23.04
X54.734 Y-22.58
X54.369 Y-22.202
X53.913 Y-21.924
X53.386 Y-21.765
X52.815 Y-21.745
X52.273 Y-21.868
X51.796 Y-22.115
X51.404 Y-22.468
X51.118 Y-22.907
X50.958 Y-23.413
X50.918 Y-23.959
X50.783 Y-24.475
X50.518 Y-24.927
X50.144 Y-25.298
X49.681 Y-25.566
X49.149 Y-25.713
X48.577 Y-25.72
X48.04 Y-25.585
X47.57 Y-25.327
X47.187 Y-24.965
X46.911 Y-24.519
X46.764 Y-24.008
X46.725 Y-23.462
X46.577 Y-22.951
X46.302 Y-22.505
X45.919 Y-22.143
X45.449 Y-21.885
X44.912 Y-21.75
X44.34 Y-21.757
X43.808 Y-21.904
X43.345 Y-22.172
X42.971 Y-22.542
X42.706 Y-22.995
X42.571 Y-23.51
X42.531 Y-24.057
X42.371 Y-24.562
X42.085 Y-25.001
X41.693 Y-25.355
X41.216 Y-25.602
X40.674 Y-25.725
X40.102 Y-25.705
X39.576 Y-25.546
X39.12 Y-25.268
X38.755 Y-24.889
X38.501 Y-24.43
X38.379 Y-23.91
X38.335 Y-23.365
X38.163 Y-22.865
X37.867 Y-22.433
X37.466 Y-22.088
X36.982 Y-21.851
X36.436 Y-21.74
X35.866 Y-21.774
X35.345 Y-21.944
X34.896 Y-22.233
X34.541 Y-22.619
X34.298 Y-23.085
X34.189 Y-23.609
X34.139 Y-24.153
X33.955 Y-24.648
X33.648 Y-25.073
X33.239 Y-25.408
X32.748 Y-25.635
X32.197 Y-25.733
X31.629 Y-25.686
X31.114 Y-25.504
X30.673 Y-25.206
X30.327 Y-24.811
X30.096 Y-24.34
X30 Y-23.81
X29.941 Y-23.27
X29.745 Y-22.78
X29.428 Y-22.363
X29.011 Y-22.037
X28.514 Y-21.821
X27.958 Y-21.736
X27.393 Y-21.795
X26.884 Y-21.989
X26.451 Y-22.296
X26.114 Y-22.698
X25.895 Y-23.176
X25.743 Y-24.247
X25.534 Y-24.731
X25.207 Y-25.141
X24.782 Y-25.458
X24.279 Y-25.663
X23.699 Y-25.735
X23.029 Y-25.681
X22.394 Y-25.527
X21.801 Y-25.279
X21.259 Y-24.946
X20.775 Y-24.537
X20.359 Y-24.06
X20.018 Y-23.524
X19.761 Y-22.935
X19.597 Y-22.304
X19.533 Y-21.638
X19.577 Y-20.945
X19.739 Y-20.235
X19.895 Y-19.82
X20.093 Y-19.431
X20.33 Y-19.071
X20.604 Y-18.741
X20.911 Y-18.442
X21.247 Y-18.177
X21.61 Y-17.948
X21.995 Y-17.756
X22.4 Y-17.604
X22.821 Y-17.493
X23.255 Y-17.425
X23.719 Y-17.402
X24.323 Y-17.317
X24.858 Y-17.079
X25.298 Y-16.714
X25.617 Y-16.245
X25.789 Y-15.697
X25.834 Y-15.106
X26.006 Y-14.559
X26.325 Y-14.09
X26.765 Y-13.724
X27.301 Y-13.486
X27.905 Y-13.402
X28.51 Y-13.486
X29.045 Y-13.724
X29.485 Y-14.09
X29.804 Y-14.559
X29.976 Y-15.106
X30.021 Y-15.697
X30.193 Y-16.245
X30.512 Y-16.714
X30.952 Y-17.079
X31.487 Y-17.317
X32.091 Y-17.402
X32.696 Y-17.317
X33.231 Y-17.079
X33.671 Y-16.714
X33.99 Y-16.245
X34.162 Y-15.697
X34.208 Y-15.106
X34.379 Y-14.559
X34.698 Y-14.09
X35.138 Y-13.724
X35.674 Y-13.486
X36.278 Y-13.402
X36.883 Y-13.486
X37.418 Y-13.724
X37.858 Y-14.09
X38.177 Y-14.559
X38.349 Y-15.106
X38.394 Y-15.697
X38.566 Y-16.245
X38.885 Y-16.714
X39.325 Y-17.079
X39.86 Y-17.317
X40.465 Y-17.402
X41.069 Y-17.317
X41.604 Y-17.079
X42.044 Y-16.714
X42.363 Y-16.245
X42.535 Y-15.697
X42.581 Y-15.106
X42.752 Y-14.559
X43.071 Y-14.09
X43.511 Y-13.724
X44.047 Y-13.486
X44.651 Y-13.402
X45.256 Y-13.486
X45.791 Y-13.724
X46.231 Y-14.09
X46.55 Y-14.559
X46.722 Y-15.106
X46.767 Y-15.697
X46.939 Y-16.245
X47.258 Y-16.714
X47.698 Y-17.079
X48.233 Y-17.317
X48.838 Y-17.402
X49.442 Y-17.317
X49.977 Y-17.079
X50.417 Y-16.714
X50.736 Y-16.245
X50.908 Y-15.697
X50.954 Y-15.106
X51.125 Y-14.559
X51.444 Y-14.09
X51.884 Y-13.724
X52.42 Y-13.486
X53.024 Y-13.402
X53.629 Y-13.486
X54.164 Y-13.724
X54.604 Y-14.09
X54.923 Y-14.559
X55.095 Y-15.106
X55.14 Y-15.697
X55.312 Y-16.245
X55.631 Y-16.714
X56.071 Y-17.079
X56.606 Y-17.317
X57.211 Y-17.402
X57.815 Y-17.317
X58.35 Y-17.079
X58.791 Y-16.714
X59.109 Y-16.245
X59.281 Y-15.697
X59.327 Y-15.106
X59.499 Y-14.559
X59.817 Y-14.09
X60.257 Y-13.724
X60.793 Y-13.486
X61.397 Y-13.402
X62.002 Y-13.486
X62.537 Y-13.724
X62.977 Y-14.09
X63.296 Y-14.559
X63.468 Y-15.106
X63.513 Y-15.697
X63.685 Y-16.245
X64.004 Y-16.714
X64.444 Y-17.079
X64.979 Y-17.317
X65.584 Y-17.402
X67.056 Y-17.134
X68.297 Y-16.397
X69.21 Y-15.288
X69.697 Y-13.906
X69.659 Y-12.347
X69.22 Y-11.126
X68.709 Y-10.416
X68.055 Y-9.848
X67.289 Y-9.43
X66.442 Y-9.167
X65.545 Y-9.068
X64.95 Y-8.975
X64.425 Y-8.734
X63.993 Y-8.369
X63.681 Y-7.903
X63.513 Y-7.361
X63.468 Y-6.773
X63.296 Y-6.225
X62.977 Y-5.756
X62.537 Y-5.391
X62.002 Y-5.153
X61.397 Y-5.068
X60.793 Y-5.153
X60.257 Y-5.391
X59.817 Y-5.756
X59.499 Y-6.225
X59.327 Y-6.773
X59.281 Y-7.364
X59.109 Y-7.911
X58.791 Y-8.38
X58.35 Y-8.746
X57.815 Y-8.984
X57.211 Y-9.068
X56.606 Y-8.984
X56.071 Y-8.746
X55.631 Y-8.38
X55.312 Y-7.911
X55.14 Y-7.364
X55.095 Y-6.773
X54.923 Y-6.225
X54.604 Y-5.756
X54.164 Y-5.391
X53.629 Y-5.153
X53.024 Y-5.068
X52.42 Y-5.153
X51.884 Y-5.391
X51.444 Y-5.756
X51.125 Y-6.225
X50.954 Y-6.773
X50.908 Y-7.364
X50.736 Y-7.911
X50.417 Y-8.38
X49.977 Y-8.746
X49.442 Y-8.984
X48.838 Y-9.068
X48.233 Y-8.984
X47.698 Y-8.746
X47.258 Y-8.38
X46.939 Y-7.911
X46.767 Y-7.364
X46.722 Y-6.773
X46.55 Y-6.225
X46.231 Y-5.756
X45.791 Y-5.391
X45.256 Y-5.153
X44.651 Y-5.068
X44.047 Y-5.153
X43.511 Y-5.391
X43.071 Y-5.756
X42.752 Y-6.225
X42.581 Y-6.773
X42.535 Y-7.364
X42.363 Y-7.911
X42.044 Y-8.38
X41.604 Y-8.746
X41.069 Y-8.984
X40.465 Y-9.068
X39.86 Y-8.984
X39.325 Y-8.746
X38.885 Y-8.38
X38.566 Y-7.911
X38.394 Y-7.364
X38.349 Y-6.773
X38.177 Y-6.225
X37.858 Y-5.756
X37.418 Y-5.391
X36.883 Y-5.153
X36.278 Y-5.068
X35.674 Y-5.153
X35.138 Y-5.391
X34.698 Y-5.756
X34.379 Y-6.225
X34.208 Y-6.773
X34.162 Y-7.364
X33.99 Y-7.911
X33.671 Y-8.38
X33.231 Y-8.746
X32.696 Y-8.984
X32.091 Y-9.068
X31.487 Y-8.984
X30.952 Y-8.746
X30.512 Y-8.38
X30.193 Y-7.911
X30.021 Y-7.364
X29.976 Y-6.773
X29.804 Y-6.225
X29.485 Y-5.756
X29.045 Y-5.391
X28.51 Y-5.153
X27.905 Y-5.068
X27.301 Y-5.153
X26.765 Y-5.391
X26.325 Y-5.756
X26.006 Y-6.225
X25.834 Y-6.773
X25.789 Y-7.364
X25.617 Y-7.911
X25.298 Y-8.38
X24.858 Y-8.746
X24.323 Y-8.984
X23.719 Y-9.068
X23.114 Y-8.984
X22.579 Y-8.746
X22.139 Y-8.38
X21.82 Y-7.911
X21.648 Y-7.364
X21.603 Y-6.773
X21.431 Y-6.225
X21.112 Y-5.756
X20.672 Y-5.391
X20.137 Y-5.153
X19.521 Y-5.068
X19.114 Y-5.096
X18.724 Y-5.175
X18.354 Y-5.304
X18.007 Y-5.478
X17.688 Y-5.693
X17.4 Y-5.947
X17.146 Y-6.235
X16.931 Y-6.554
X16.757 Y-6.901
X16.629 Y-7.271
X16.549 Y-7.661
X16.521 Y-8.068
Y-14.398
X16.494 Y-14.805
X16.414 Y-15.196
X16.286 Y-15.566
X16.112 Y-15.912
X15.897 Y-16.231
X15.643 Y-16.52
X15.355 Y-16.773
X15.036 Y-16.989
X14.69 Y-17.162
X14.32 Y-17.291
X13.929 Y-17.371
X13.523 Y-17.398
X1.256 Y-17.407
Z5
G0 Z15
M9
G28 G91 Z0
G90
G28 G91 X0 Y0
G90
M5
M30
Gcode : G90

Gcode : G1 Z0 F1500

Gcode : X61.666668 Y-13.0 F2000

Gcode : G90

Gcode : G1 Z0 F1500

Gcode : X74.0 Y-13.0 F2000

Gcode : G90

Gcode : G1 Z0 F1500

Gcode : X74.0 Y-13.0 F2000

Gcode : G90

Gcode : G1 Z0 F1500

Gcode : X61.666668 Y-13.0 F2000

Gcode : G90

Gcode : G1 Z0 F1500

Gcode : X74.0 Y-0.0 F2000

Gcode : G91

Gcode : G1 Z-0.5 F300

Gcode : G91

Gcode : G1 Z-0.5 F300

Gcode : G91

Gcode : G1 Z-0.5 F300

Gcode : G91

Gcode : G1 Z-0.5 F300

Gcode : G91

Gcode : G1 Z-0.5 F300

Gcode : G91

Gcode : G1 Z-0.5 F300

Gcode : G91

Gcode : G1 Z-0.5 F300

Gcode : G91

Gcode : G1 Z-0.5 F300

Gcode : G91

Gcode : G1 Z-0.5 F300

Gcode : G91

Gcode : G1 Z-0.5 F300

Gcode : G91

Gcode : G1 Z-0.5 F300

Gcode : G90

Gcode : G1 Z0 F1500

Gcode : X74.0 Y-9.75 F2000

Gcode : G91

Gcode : G1 Z-0.5 F300

Gcode : G91

Gcode : G1 Z-0.5 F300

Gcode : G91

Gcode : G1 Z-0.5 F300

Gcode : G91

Gcode : G1 Z-0.5 F300

Gcode : G91

Gcode : G1 Z-0.5 F300

Gcode : G91

Gcode : G1 Z-0.5 F300

Gcode : G91

Gcode : G1 Z-0.5 F300

Gcode : G91

Gcode : G1 Z-0.5 F300

Gcode : G90

Gcode : G1 Z0 F1500

Gcode : X74.0 Y-19.5 F2000

Gcode : G91

Gcode : G1 Z-0.5 F300

Gcode : G91

Gcode : G1 Z-0.5 F300

Gcode : G91

Gcode : G1 Z-0.5 F300

Gcode : G91

Gcode : G1 Z-0.5 F300

Gcode : G91

Gcode : G1 Z-0.5 F300

Gcode : G91

Gcode : G1 Z-0.5 F300

Gcode : G91

Gcode : G1 Z-0.5 F300

Gcode : G91

Gcode : G1 Z-0.5 F300

Gcode : G91

Gcode : G1 Z-0.5 F300

Gcode : G91

Gcode : G1 Z-0.5 F300

Gcode : G91

Gcode : G1 Z-0.5 F300

Gcode : G90

Gcode : G1 Z0 F1500

Gcode : X74.0 Y-29.25 F2000

Gcode : G91

Gcode : G1 Z-0.5 F300

Gcode : G91

Gcode : G1 Z-0.5 F300

Gcode : G91

Gcode : G1 Z-0.5 F300

Gcode : G91

Gcode : G1 Z-0.5 F300

Gcode : G91

Gcode : G1 Z-0.5 F300

Gcode : G91

Gcode : G1 Z-0.5 F300

Gcode : G91

Gcode : G1 Z-0.5 F300

Gcode : G91

Gcode : G1 Z-0.5 F300

Gcode : G91

Gcode : G1 Z-0.5 F300

Gcode : G91

Gcode : G1 Z-0.5 F300

Gcode : G91

Gcode : G1 Z-0.5 F300

Gcode : G91

Gcode : G1 Z-0.5 F300

Gcode : G91

Gcode : G1 Z-0.5 F300

Gcode : G91

Gcode : G1 Z-0.5 F300

Gcode : G90

Gcode : G1 Z0 F1500

Gcode : X74.0 Y-39.0 F2000

Gcode : G91

Gcode : G1 Z-0.5 F300

Gcode : G91

Gcode : G1 Z-0.5 F300

Gcode : G91

Gcode : G1 Z-0.5 F300

Gcode : G91

Gcode : G1 Z-0.5 F300

Gcode : G91

Gcode : G1 Z-0.5 F300

Gcode : G91

Gcode : G1 Z-0.5 F300

Gcode : G91

Gcode : G1 Z-0.5 F300

Gcode : G91

Gcode : G1 Z-0.5 F300

Gcode : G91

Gcode : G1 Z-0.5 F300

Gcode : G91

Gcode : G1 Z-0.5 F300

Gcode : G91

Gcode : G1 Z-0.5 F300

Gcode : G91

Gcode : G1 Z-0.5 F300

Gcode : G91

Gcode : G1 Z-0.5 F300

Gcode : G90

Gcode : G1 Z0 F1500

Gcode : X61.666668 Y-39.0 F2000

Gcode : G91

Gcode : G1 Z-0.5 F300

Gcode : G91

Gcode : G1 Z-0.5 F300

Gcode : G91

Gcode : G1 Z-0.5 F300

Gcode : G91

Gcode : G1 Z-0.5 F300

Gcode : G91

Gcode : G1 Z-0.5 F300

Gcode : G91

Gcode : G1 Z-0.5 F300

Gcode : G90

Gcode : G1 Z0 F1500

Gcode : X74.0 Y-29.25 F2000

Gcode : G90

Gcode : G1 Z0 F1500

Gcode : X61.666668 Y-29.25 F2000

Gcode : G91

Gcode : G1 Z-0.5 F300

Gcode : G91

Gcode : G1 Z-0.5 F300

Gcode : G91

Gcode : G1 Z-0.5 F300

Gcode : G91

Gcode : G1 Z-0.5 F300

Gcode : G91

Gcode : G1 Z-0.5 F300

Gcode : G91

Gcode : G1 Z-0.5 F300

Gcode : G90

Gcode : G1 Z0 F1500

Gcode : X61.666668 Y-19.5 F2000

Gcode : G91

Gcode : G1 Z-0.5 F300

Gcode : G91

Gcode : G1 Z-0.5 F300

Gcode : G91

Gcode : G1 Z-0.5 F300

Gcode : G91

Gcode : G1 Z-0.5 F300

Gcode : G91

Gcode : G1 Z-0.5 F300

Gcode : G90

Gcode : G1 Z0 F1500

Gcode : X61.666668 Y-9.75 F2000

Gcode : G91

Gcode : G1 Z-0.5 F300

Gcode : G91

Gcode : G1 Z-0.5 F300

Gcode : G91

Gcode : G1 Z-0.5 F300

Gcode : G91

Gcode : G1 Z-0.5 F300

Gcode : G91

Gcode : G1 Z-0.5 F300

Gcode : G91

Gcode : G1 Z-0.5 F300

Gcode : G90

Gcode : G1 Z0 F1500

Gcode : X61.666668 Y-0.0 F2000

Gcode : G91

Gcode : G1 Z-0.5 F300

Gcode : G91

Gcode : G1 Z-0.5 F300

Gcode : G91

Gcode : G1 Z-0.5 F300

Gcode : G91

Gcode : G1 Z-0.5 F300

Gcode : G91

Gcode : G1 Z-0.5 F300

Gcode : G91

Gcode : G1 Z-0.5 F300

Gcode : G91

Gcode : G1 Z-0.5 F300

Gcode : G91

Gcode : G1 Z-0.5 F300

Gcode : G91

Gcode : G1 Z-0.5 F300

Gcode : G91

Gcode : G1 Z-0.5 F300

Gcode : G91

Gcode : G1 Z-0.5 F300

Gcode : G91

Gcode : G1 Z-0.5 F300

Gcode : G90

Gcode : G1 Z0 F1500

Gcode : X49.333336 Y-0.0 F2000

Gcode : G91

Gcode : G1 Z-0.5 F300

Gcode : G91

Gcode : G1 Z-0.5 F300

Gcode : G91

Gcode : G1 Z-0.5 F300

Gcode : G91

Gcode : G1 Z-0.5 F300

Gcode : G91

Gcode : G1 Z-0.5 F300

Gcode : G91

Gcode : G1 Z-0.5 F300

Gcode : G91

Gcode : G1 Z-0.5 F300

Gcode : G91

Gcode : G1 Z-0.5 F300

Gcode : G91

Gcode : G1 Z-0.5 F300

Gcode : G91

Gcode : G1 Z-0.5 F300

Gcode : G91

Gcode : G1 Z-0.5 F300

Gcode : G91

Gcode : G1 Z-0.5 F300

Gcode : G91

Gcode : G1 Z-0.5 F300

Gcode : G91

Gcode : G1 Z-0.5 F300

Gcode : G91

Gcode : G1 Z-0.5 F300

Gcode : G91

Gcode : G1 Z-0.5 F300

Gcode : G91

Gcode : G1 Z-0.5 F300

Gcode : G91

Gcode : G1 Z-0.5 F300

Gcode : G91

Gcode : G1 Z-0.5 F300

Gcode : G91

Gcode : G1 Z-0.5 F300

Gcode : G91

Gcode : G1 Z-0.5 F300

Gcode : G91

Gcode : G1 Z-0.5 F300

Gcode : G91

Gcode : G1 Z-0.5 F300

Gcode : G91

Gcode : G1 Z-0.5 F300

Gcode : G91

Gcode : G1 Z-0.5 F300

Gcode : G91

Gcode : G1 Z-0.5 F300

Gcode : G90

Gcode : G1 Z0 F1500

Gcode : X49.333336 Y-9.75 F2000

Gcode : G91

Gcode : G1 Z-0.5 F300

Gcode : G91

Gcode : G1 Z-0.5 F300

Gcode : G91

Gcode : G1 Z-0.5 F300

Gcode : G91

Gcode : G1 Z-0.5 F300

Gcode : G91

Gcode : G1 Z-0.5 F300

Gcode : G91

Gcode : G1 Z-0.5 F300

Gcode : G91

Gcode : G1 Z-0.5 F300

Gcode : G91

Gcode : G1 Z-0.5 F300

Gcode : G91

Gcode : G1 Z-0.5 F300

Gcode : G91

Gcode : G1 Z-0.5 F300

Gcode : G91

Gcode : G1 Z-0.5 F300

Gcode : G91

Gcode : G1 Z-0.5 F300

Gcode : G91

Gcode : G1 Z-0.5 F300

Gcode : G91

Gcode : G1 Z-0.5 F300

Gcode : G91

Gcode : G1 Z0.5 F300

Gcode : G90

Gcode : G1 Z0 F1500

Gcode : X49.333336 Y-19.5 F2000

Gcode : G91

Gcode : G1 Z-0.5 F300

Gcode : G91

Gcode : G1 Z-0.5 F300

Gcode : G91

Gcode : G1 Z-0.5 F300

Gcode : G91

Gcode : G1 Z-0.5 F300

Gcode : G91

Gcode : G1 Z-0.5 F300

Gcode : G91

Gcode : G1 Z-0.5 F300

Gcode : G91

Gcode : G1 Z-0.5 F300

Gcode : G91

Gcode : G1 Z-0.5 F300

Gcode : G91

Gcode : G1 Z-0.5 F300

Gcode : G91

Gcode : G1 Z-0.5 F300

Gcode : G91

Gcode : G1 Z0.5 F300

Gcode : G90

Gcode : G1 Z0 F1500

Gcode : X49.333336 Y-29.25 F2000

Gcode : G91

Gcode : G1 Z-0.5 F300

Gcode : G91

Gcode : G1 Z-0.5 F300

Gcode : G91

Gcode : G1 Z-0.5 F300

Gcode : G91

Gcode : G1 Z-0.5 F300

Gcode : G91

Gcode : G1 Z-0.5 F300

Gcode : G91

Gcode : G1 Z-0.5 F300

Gcode : G91

Gcode : G1 Z-0.5 F300

Gcode : G91

Gcode : G1 Z-0.5 F300

Gcode : G91

Gcode : G1 Z-0.5 F300

Gcode : G90

Gcode : G1 Z0 F1500

Gcode : X49.333336 Y-39.0 F2000

Gcode : G91

Gcode : G1 Z-0.5 F300

Gcode : G91

Gcode : G1 Z-0.5 F300

Gcode : G91

Gcode : G1 Z-0.5 F300

Gcode : G91

Gcode : G1 Z-0.5 F300

Gcode : G91

Gcode : G1 Z-0.5 F300

Gcode : G91

Gcode : G1 Z-0.5 F300

Gcode : G91

Gcode : G1 Z-0.5 F300

Gcode : G91

Gcode : G1 Z-0.5 F300

Gcode : G90

Gcode : G1 Z0 F1500

Gcode : X37.0 Y-39.0 F2000

Gcode : G91

Gcode : G1 Z-0.5 F300

Gcode : G91

Gcode : G1 Z-0.5 F300

Gcode : G91

Gcode : G1 Z-0.5 F300

Gcode : G91

Gcode : G1 Z-0.5 F300

Gcode : G91

Gcode : G1 Z-0.5 F300

Gcode : G91

Gcode : G1 Z-0.5 F300

Gcode : G91

Gcode : G1 Z-0.5 F300

Gcode : G91

Gcode : G1 Z-0.5 F300

Gcode : G91

Gcode : G1 Z-0.5 F300

Gcode : G91

Gcode : G1 Z-0.5 F300

Gcode : G91

Gcode : G1 Z-0.5 F300

Gcode : G91

Gcode : G1 Z-0.5 F300

Gcode : G91

Gcode : G1 Z-0.5 F300

Gcode : G91

Gcode : G1 Z-0.5 F300

Gcode : G90

Gcode : G1 Z0 F1500

Gcode : X37.0 Y-29.25 F2000

Gcode : G91

Gcode : G1 Z-0.5 F300

Gcode : G91

Gcode : G1 Z-0.5 F300

Gcode : G91

Gcode : G1 Z-0.5 F300

Gcode : G91

Gcode : G1 Z-0.5 F300

Gcode : G91

Gcode : G1 Z-0.5 F300

Gcode : G91

Gcode : G1 Z-0.5 F300

Gcode : G91

Gcode : G1 Z-0.5 F300

Gcode : G91

Gcode : G1 Z-0.5 F300

Gcode : G91

Gcode : G1 Z-0.5 F300

Gcode : G91

Gcode : G1 Z-0.5 F300

Gcode : G91

Gcode : G1 Z-0.5 F300

Gcode : G91

Gcode : G1 Z-0.5 F300

Gcode : G91

Gcode : G1 Z-0.5 F300

Gcode : G90

Gcode : G1 Z0 F1500

Gcode : X37.0 Y-19.5 F2000

Gcode : G91

Gcode : G1 Z-0.5 F300

Gcode : G91

Gcode : G1 Z-0.5 F300

Gcode : G91

Gcode : G1 Z-0.5 F300

Gcode : G91

Gcode : G1 Z-0.5 F300

Gcode : G91

Gcode : G1 Z-0.5 F300

Gcode : G91

Gcode : G1 Z-0.5 F300

Gcode : G91

Gcode : G1 Z-0.5 F300

Gcode : G91

Gcode : G1 Z-0.5 F300

Gcode : G91

Gcode : G1 Z-0.5 F300

Gcode : G91

Gcode : G1 Z-0.5 F300

Gcode : G91

Gcode : G1 Z-0.5 F300

Gcode : G91

Gcode : G1 Z-0.5 F300

Gcode : G91

Gcode : G1 Z-0.5 F300

Gcode : G90

Gcode : G1 Z0 F1500

Gcode : X37.0 Y-9.75 F2000

Gcode : G91

Gcode : G1 Z-0.5 F300

Gcode : G91

Gcode : G1 Z-0.5 F300

Gcode : G91

Gcode : G1 Z-0.5 F300

Gcode : G91

Gcode : G1 Z-0.5 F300

Gcode : G91

Gcode : G1 Z-0.5 F300

Gcode : G91

Gcode : G1 Z-0.5 F300

Gcode : G91

Gcode : G1 Z-0.5 F300

Gcode : G91

Gcode : G1 Z-0.5 F300

Gcode : G91

Gcode : G1 Z-0.5 F300

Gcode : G91

Gcode : G1 Z-0.5 F300

Gcode : G91

Gcode : G1 Z-0.5 F300

Gcode : G91

Gcode : G1 Z-0.5 F300

Gcode : G91

Gcode : G1 Z-0.5 F300

Gcode : G91

Gcode : G1 Z-0.5 F300

Gcode : G91

Gcode : G1 Z-0.5 F300

Gcode : G91

Gcode : G1 Z-0.5 F300

Gcode : G91

Gcode : G1 Z-0.5 F300

Gcode : G90

Gcode : G1 Z0 F1500

Gcode : X37.0 Y-0.0 F2000

Gcode : G91

Gcode : G1 Z-0.5 F300

Gcode : G91

Gcode : G1 Z-0.5 F300

Gcode : G91

Gcode : G1 Z-0.5 F300

Gcode : G91

Gcode : G1 Z-0.5 F300

Gcode : G91

Gcode : G1 Z-0.5 F300

Gcode : G91

Gcode : G1 Z-0.5 F300

Gcode : G91

Gcode : G1 Z-0.5 F300

Gcode : G91

Gcode : G1 Z-0.5 F300

Gcode : G91

Gcode : G1 Z-0.5 F300

Gcode : G91

Gcode : G1 Z-0.5 F300

Gcode : G91

Gcode : G1 Z-0.5 F300

Gcode : G91

Gcode : G1 Z-0.5 F300

Gcode : G91

Gcode : G1 Z-0.5 F300

Gcode : G91

Gcode : G1 Z-0.5 F300

Gcode : G91

Gcode : G1 Z-0.5 F300

Gcode : G91

Gcode : G1 Z-0.5 F300

Gcode : G91

Gcode : G1 Z-0.5 F300

Gcode : G91

Gcode : G1 Z-0.5 F300

Gcode : G91

Gcode : G1 Z-0.5 F300

Gcode : G91

Gcode : G1 Z-0.5 F300

Gcode : G91

Gcode : G1 Z-0.5 F300

Gcode : G91

Gcode : G1 Z-0.5 F300

Gcode : G91

Gcode : G1 Z-0.5 F300

Gcode : G91

Gcode : G1 Z-0.5 F300

Gcode : G91

Gcode : G1 Z-0.5 F300

Gcode : G91

Gcode : G1 Z-0.5 F300

Gcode : G91

Gcode : G1 Z-0.5 F300

Gcode : G91

Gcode : G1 Z-0.5 F300

Gcode : G91

Gcode : G1 Z0.5 F300

Gcode : G90

Gcode : G1 Z0 F1500

Gcode : X24.666668 Y-0.0 F2000

Gcode : G91

Gcode : G1 Z-0.5 F300

Gcode : G91

Gcode : G1 Z-0.5 F300

Gcode : G91

Gcode : G1 Z-0.5 F300

Gcode : G91

Gcode : G1 Z-0.5 F300

Gcode : G91

Gcode : G1 Z-0.5 F300

Gcode : G91

Gcode : G1 Z-0.5 F300

Gcode : G91

Gcode : G1 Z-0.5 F300

Gcode : G91

Gcode : G1 Z-0.5 F300

Gcode : G91

Gcode : G1 Z-0.5 F300

Gcode : G91

Gcode : G1 Z-0.5 F300

Gcode : G91

Gcode : G1 Z-0.5 F300

Gcode : G91

Gcode : G1 Z-0.5 F300

Gcode : G91

Gcode : G1 Z-0.5 F300

Gcode : G91

Gcode : G1 Z-0.5 F300

Gcode : G91

Gcode : G1 Z-0.5 F300

Gcode : G91

Gcode : G1 Z-0.5 F300

Gcode : G91

Gcode : G1 Z-0.5 F300

Gcode : G91

Gcode : G1 Z-0.5 F300

Gcode : G91

Gcode : G1 Z-0.5 F300

Gcode : G91

Gcode : G1 Z-0.5 F300

Gcode : G91

Gcode : G1 Z-0.5 F300

Gcode : G91

Gcode : G1 Z-0.5 F300

Gcode : G91

Gcode : G1 Z-0.5 F300

Gcode : G91

Gcode : G1 Z-0.5 F300

Gcode : G91

Gcode : G1 Z-0.5 F300

Gcode : G91

Gcode : G1 Z-0.5 F300

Gcode : G91

Gcode : G1 Z-0.5 F300

Gcode : G91

Gcode : G1 Z-0.5 F300

Gcode : G91

Gcode : G1 Z-0.5 F300

Gcode : G90

Gcode : G1 Z0 F1500

Gcode : X24.666668 Y-9.75 F2000

Gcode : G91

Gcode : G1 Z-0.5 F300

Gcode : G91

Gcode : G1 Z-0.5 F300

Gcode : G91

Gcode : G1 Z-0.5 F300

Gcode : G91

Gcode : G1 Z-0.5 F300

Gcode : G91

Gcode : G1 Z-0.5 F300

Gcode : G91

Gcode : G1 Z-0.5 F300

Gcode : G91

Gcode : G1 Z-0.5 F300

Gcode : G91

Gcode : G1 Z-0.5 F300

Gcode : G91

Gcode : G1 Z-0.5 F300

Gcode : G91

Gcode : G1 Z-0.5 F300

Gcode : G91

Gcode : G1 Z-0.5 F300

Gcode : G91

Gcode : G1 Z-0.5 F300

Gcode : G91

Gcode : G1 Z-0.5 F300

Gcode : G91

Gcode : G1 Z-0.5 F300

Gcode : G91

Gcode : G1 Z-0.5 F300

Gcode : G91

Gcode : G1 Z-0.5 F300

Gcode : G91

Gcode : G1 Z-0.5 F300

Gcode : G91

Gcode : G1 Z-0.5 F300

Gcode : G90

Gcode : G1 Z0 F1500

Gcode : X24.666668 Y-19.5 F2000

Gcode : G91

Gcode : G1 Z-0.5 F300

Gcode : G91

Gcode : G1 Z-0.5 F300

Gcode : G91

Gcode : G1 Z-0.5 F300

Gcode : G91

Gcode : G1 Z-0.5 F300

Gcode : G91

Gcode : G1 Z-0.5 F300

Gcode : G91

Gcode : G1 Z-0.5 F300

Gcode : G91

Gcode : G1 Z-0.5 F300

Gcode : G91

Gcode : G1 Z-0.5 F300

Gcode : G91

Gcode : G1 Z-0.5 F300

Gcode : G91

Gcode : G1 Z-0.5 F300

Gcode : G91

Gcode : G1 Z-0.5 F300

Gcode : G91

Gcode : G1 Z-0.5 F300

Gcode : G91

Gcode : G1 Z-0.5 F300

Gcode : G91

Gcode : G1 Z-0.5 F300

Gcode : G90

Gcode : G1 Z0 F1500

Gcode : X24.666668 Y-29.25 F2000

Gcode : G91

Gcode : G1 Z-0.5 F300

Gcode : G91

Gcode : G1 Z-0.5 F300

Gcode : G91

Gcode : G1 Z-0.5 F300

Gcode : G91

Gcode : G1 Z-0.5 F300

Gcode : G91

Gcode : G1 Z-0.5 F300

Gcode : G91

Gcode : G1 Z-0.5 F300

Gcode : G91

Gcode : G1 Z-0.5 F300

Gcode : G91

Gcode : G1 Z-0.5 F300

Gcode : G91

Gcode : G1 Z-0.5 F300

Gcode : G91

Gcode : G1 Z-0.5 F300

Gcode : G91

Gcode : G1 Z-0.5 F300

Gcode : G91

Gcode : G1 Z-0.5 F300

Gcode : G91

Gcode : G1 Z-0.5 F300

Gcode : G91

Gcode : G1 Z-0.5 F300

Gcode : G91

Gcode : G1 Z-0.5 F300

Gcode : G91

Gcode : G1 Z0.5 F300

Gcode : G90

Gcode : G1 Z0 F1500

Gcode : X24.666668 Y-39.0 F2000

Gcode : G91

Gcode : G1 Z-0.5 F300

Gcode : G91

Gcode : G1 Z-0.5 F300

Gcode : G91

Gcode : G1 Z-0.5 F300

Gcode : G91

Gcode : G1 Z-0.5 F300

Gcode : G91

Gcode : G1 Z-0.5 F300

Gcode : G91

Gcode : G1 Z-0.5 F300

Gcode : G91

Gcode : G1 Z-0.5 F300

Gcode : G91

Gcode : G1 Z-0.5 F300

Gcode : G91

Gcode : G1 Z-0.5 F300

Gcode : G91

Gcode : G1 Z-0.5 F300

Gcode : G91

Gcode : G1 Z-0.5 F300

Gcode : G91

Gcode : G1 Z-0.5 F300

Gcode : G91

Gcode : G1 Z-0.5 F300

Gcode : G91

Gcode : G1 Z-0.5 F300

Gcode : G91

Gcode : G1 Z-0.5 F300

Gcode : G91

Gcode : G1 Z-0.5 F300

Gcode : G91

Gcode : G1 Z-0.5 F300

Gcode : G90

Gcode : G1 Z0 F1500

Gcode : X12.333334 Y-39.0 F2000

Gcode : G91

Gcode : G1 Z-0.5 F300

Gcode : G91

Gcode : G1 Z-0.5 F300

Gcode : G91

Gcode : G1 Z-0.5 F300

Gcode : G91

Gcode : G1 Z-0.5 F300

Gcode : G91

Gcode : G1 Z-0.5 F300

Gcode : G91

Gcode : G1 Z-0.5 F300

Gcode : G91

Gcode : G1 Z-0.5 F300

Gcode : G91

Gcode : G1 Z-0.5 F300

Gcode : G91

Gcode : G1 Z-0.5 F300

Gcode : G91

Gcode : G1 Z-0.5 F300

Gcode : G91

Gcode : G1 Z-0.5 F300

Gcode : G91

Gcode : G1 Z-0.5 F300

Gcode : G91

Gcode : G1 Z-0.5 F300

Gcode : G91

Gcode : G1 Z-0.5 F300

Gcode : G91

Gcode : G1 Z-0.5 F300

Gcode : G91

Gcode : G1 Z-0.5 F300

Gcode : G90

Gcode : G1 Z0 F1500

Gcode : X12.333334 Y-29.25 F2000

Gcode : G91

Gcode : G1 Z-0.5 F300

Gcode : G91

Gcode : G1 Z-0.5 F300

Gcode : G91

Gcode : G1 Z-0.5 F300

Gcode : G91

Gcode : G1 Z-0.5 F300

Gcode : G91

Gcode : G1 Z-0.5 F300

Gcode : G91

Gcode : G1 Z-0.5 F300

Gcode : G91

Gcode : G1 Z-0.5 F300

Gcode : G91

Gcode : G1 Z-0.5 F300

Gcode : G91

Gcode : G1 Z-0.5 F300

Gcode : G91

Gcode : G1 Z-0.5 F300

Gcode : G91

Gcode : G1 Z-0.5 F300

Gcode : G91

Gcode : G1 Z-0.5 F300

Gcode : G91

Gcode : G1 Z-0.5 F300

Gcode : G91

Gcode : G1 Z-0.5 F300

Gcode : G90

Gcode : G1 Z0 F1500

Gcode : X12.333334 Y-19.5 F2000

Gcode : G91

Gcode : G1 Z-0.5 F300

Gcode : G91

Gcode : G1 Z-0.5 F300

Gcode : G91

Gcode : G1 Z-0.5 F300

Gcode : G91

Gcode : G1 Z-0.5 F300

Gcode : G91

Gcode : G1 Z-0.5 F300

Gcode : G91

Gcode : G1 Z-0.5 F300

Gcode : G91

Gcode : G1 Z-0.5 F300

Gcode : G91

Gcode : G1 Z-0.5 F300

Gcode : G91

Gcode : G1 Z-0.5 F300

Gcode : G91

Gcode : G1 Z-0.5 F300

Gcode : G91

Gcode : G1 Z-0.5 F300

Gcode : G91

Gcode : G1 Z-0.5 F300

Gcode : G91

Gcode : G1 Z-0.5 F300

Gcode : G91

Gcode : G1 Z-0.5 F300

Gcode : G90

Gcode : G1 Z0 F1500

Gcode : X12.333334 Y-9.75 F2000

Gcode : G91

Gcode : G1 Z-0.5 F300

Gcode : G91

Gcode : G1 Z-0.5 F300

Gcode : G91

Gcode : G1 Z-0.5 F300

Gcode : G91

Gcode : G1 Z-0.5 F300

Gcode : G91

Gcode : G1 Z-0.5 F300

Gcode : G91

Gcode : G1 Z-0.5 F300

Gcode : G91

Gcode : G1 Z-0.5 F300

Gcode : G91

Gcode : G1 Z-0.5 F300

Gcode : G91

Gcode : G1 Z-0.5 F300

Gcode : G91

Gcode : G1 Z-0.5 F300

Gcode : G91

Gcode : G1 Z-0.5 F300

Gcode : G91

Gcode : G1 Z-0.5 F300

Gcode : G91

Gcode : G1 Z-0.5 F300

Gcode : G91

Gcode : G1 Z-0.5 F300

Gcode : G91

Gcode : G1 Z-0.5 F300

Gcode : G91

Gcode : G1 Z-0.5 F300

Gcode : G91

Gcode : G1 Z-0.5 F300

Gcode : G91

Gcode : G1 Z-0.5 F300

Gcode : G90

Gcode : G1 Z0 F1500

Gcode : X12.333334 Y-0.0 F2000

Gcode : G91

Gcode : G1 Z-0.5 F300

Gcode : G91

Gcode : G1 Z-0.5 F300

Gcode : G91

Gcode : G1 Z-0.5 F300

Gcode : G91

Gcode : G1 Z-0.5 F300

Gcode : G91

Gcode : G1 Z-0.5 F300

Gcode : G91

Gcode : G1 Z-0.5 F300

Gcode : G91

Gcode : G1 Z-0.5 F300

Gcode : G91

Gcode : G1 Z-0.5 F300

Gcode : G91

Gcode : G1 Z-0.5 F300

Gcode : G91

Gcode : G1 Z-0.5 F300

Gcode : G91

Gcode : G1 Z-0.5 F300

Gcode : G91

Gcode : G1 Z-0.5 F300

Gcode : G91

Gcode : G1 Z-0.5 F300

Gcode : G91

Gcode : G1 Z-0.5 F300

Gcode : G91

Gcode : G1 Z-0.5 F300

Gcode : G91

Gcode : G1 Z-0.5 F300

Gcode : G91

Gcode : G1 Z-0.5 F300

Gcode : G91

Gcode : G1 Z-0.5 F300

Gcode : G91

Gcode : G1 Z-0.5 F300

Gcode : G91

Gcode : G1 Z-0.5 F300

Gcode : G91

Gcode : G1 Z-0.5 F300

Gcode : G91

Gcode : G1 Z-0.5 F300

Gcode : G91

Gcode : G1 Z-0.5 F300

Gcode : G91

Gcode : G1 Z-0.5 F300

Gcode : G91

Gcode : G1 Z-0.5 F300

Gcode : G91

Gcode : G1 Z-0.5 F300

Gcode : G91

Gcode : G1 Z-0.5 F300

Gcode : G91

Gcode : G1 Z-0.5 F300

Gcode : G91

Gcode : G1 Z-0.5 F300

Gcode : G91

Gcode : G1 Z0.5 F300

Gcode : G90

Gcode : G1 Z0 F1500

Gcode : X0.0 Y-0.0 F2000

Gcode : G90

Gcode : G1 Z0 F1500

Gcode : X0.0 Y-9.75 F2000

Gcode : G91

Gcode : G1 Z-0.5 F300

Gcode : G91

Gcode : G1 Z-0.5 F300

Gcode : G91

Gcode : G1 Z-0.5 F300

Gcode : G91

Gcode : G1 Z-0.5 F300

Gcode : G91

Gcode : G1 Z-0.5 F300

Gcode : G91

Gcode : G1 Z-0.5 F300

Gcode : G91

Gcode : G1 Z-0.5 F300

Gcode : G91

Gcode : G1 Z-0.5 F300

Gcode : G91

Gcode : G1 Z-0.5 F300

Gcode : G91

Gcode : G1 Z-0.5 F300

Gcode : G91

Gcode : G1 Z-0.5 F300

Gcode : G91

Gcode : G1 Z-0.5 F300

Gcode : G91

Gcode : G1 Z-0.5 F300

Gcode : G91

Gcode : G1 Z-0.5 F300

Gcode : G91

Gcode : G1 Z-0.5 F300

Gcode : G91

Gcode : G1 Z-0.5 F300

Gcode : G91

Gcode : G1 Z-0.5 F300

Gcode : G90

Gcode : G1 Z0 F1500

Gcode : X0.0 Y-19.5 F2000

Gcode : G91

Gcode : G1 Z-0.5 F300

Gcode : G91

Gcode : G1 Z-0.5 F300

Gcode : G91

Gcode : G1 Z-0.5 F300

Gcode : G91

Gcode : G1 Z-0.5 F300

Gcode : G91

Gcode : G1 Z-0.5 F300

Gcode : G91

Gcode : G1 Z-0.5 F300

Gcode : G91

Gcode : G1 Z-0.5 F300

Gcode : G91

Gcode : G1 Z-0.5 F300

Gcode : G91

Gcode : G1 Z-0.5 F300

Gcode : G91

Gcode : G1 Z-0.5 F300

Gcode : G91

Gcode : G1 Z-0.5 F300

Gcode : G91

Gcode : G1 Z-0.5 F300

Gcode : G91

Gcode : G1 Z-0.5 F300

Gcode : G91

Gcode : G1 Z-0.5 F300

Gcode : G90

Gcode : G1 Z0 F1500

Gcode : X0.0 Y-29.25 F2000

Gcode : G91

Gcode : G1 Z-0.5 F300

Gcode : G91

Gcode : G1 Z-0.5 F300

Gcode : G91

Gcode : G1 Z-0.5 F300

Gcode : G91

Gcode : G1 Z-0.5 F300

Gcode : G91

Gcode : G1 Z-0.5 F300

Gcode : G91

Gcode : G1 Z-0.5 F300

Gcode : G91

Gcode : G1 Z-0.5 F300

Gcode : G91

Gcode : G1 Z-0.5 F300

Gcode : G91

Gcode : G1 Z-0.5 F300

Gcode : G91

Gcode : G1 Z-0.5 F300

Gcode : G91

Gcode : G1 Z-0.5 F300

Gcode : G91

Gcode : G1 Z-0.5 F300

Gcode : G91

Gcode : G1 Z-0.5 F300

Gcode : G91

Gcode : G1 Z-0.5 F300

Gcode : G91

Gcode : G1 Z-0.5 F300

Gcode : G90

Gcode : G1 Z0 F1500

Gcode : X0.0 Y-19.5 F2000

Gcode : M9

Gcode : S500
Gcode : M4

Gcode : S914

Gcode : S919

Gcode : S950

Gcode : S965

Gcode : S974

Gcode : S984

Gcode : S989

Gcode : S1000

Gcode : S1000

Gcode : S1000

Gcode : S1000

Gcode : S1000

Gcode : S1000

Gcode : S1000

Gcode : S1000

Gcode : M5

Gcode : M9

Gcode : G90

Gcode : G1 Z0 F1500

Gcode : G1 X0.1640766 Y-19.751156 F1500

Gcode : G1 Z0 F1500

Gcode : G1 X0.3281532 Y-20.00231 F1500

Gcode : G1 Z0 F1500

Gcode : G1 X0.49222976 Y-20.253466 F1500

Gcode : G1 Z0 F1500

Gcode : G1 X0.6563063 Y-20.50462 F1500

Gcode : G1 Z0 F1500

Gcode : G1 X0.8203829 Y-20.755775 F1500

Gcode : G1 Z0 F1500

Gcode : G1 X0.9844595 Y-21.006931 F1500

Gcode : G1 Z0 F1500

Gcode : G1 X1.1485361 Y-21.258085 F1500

Gcode : G1 Z0 F1500

Gcode : G1 X1.3126128 Y-21.509241 F1500

Gcode : M9

Gcode : M9

Gcode : S1000

Gcode : M4

Gcode : M5

Gcode : G1 Z-7.0944343 F1500

Gcode : G1 X1.6509998 Y-21.56817 F1500

Gcode : M5

Gcode : G1 Z-7.0918627 F1500

Gcode : G1 X1.9509999 Y-21.56834 F1500

Gcode : M5

Gcode : G1 Z-7.089289 F1500

Gcode : G1 X2.251 Y-21.568508 F1500

Gcode : M5

Gcode : G1 Z-7.0867167 F1500

Gcode : G1 X2.5509999 Y-21.568678 F1500

Gcode : M5

Gcode : G1 Z-7.084143 F1500

Gcode : G1 X2.8509998 Y-21.568848 F1500

Gcode : M5

Gcode : G1 Z-7.081569 F1500

Gcode : G1 X3.1509998 Y-21.569017 F1500

Gcode : M5

Gcode : G1 Z-7.0789957 F1500

Gcode : G1 X3.4509997 Y-21.569187 F1500

Gcode : M5

Gcode : G1 Z-7.0764203 F1500

Gcode : G1 X3.751 Y-21.569355 F1500

Gcode : M5

Gcode : G1 Z-7.0738454 F1500

Gcode : G1 X4.0509996 Y-21.569525 F1500

Gcode : M5

Gcode : G1 Z-7.07127 F1500

Gcode : G1 X4.351 Y-21.569695 F1500

Gcode : M5

Gcode : G1 Z-7.068694 F1500

Gcode : G1 X4.651 Y-21.569864 F1500

Gcode : M5

Gcode : G1 Z-7.0661173 F1500

Gcode : G1 X4.9509997 Y-21.570034 F1500

Gcode : M5

Gcode : G1 Z-7.0635414 F1500

Gcode : G1 X5.251 Y-21.570202 F1500

Gcode : M5

Gcode : G1 Z-7.060964 F1500

Gcode : G1 X5.5509996 Y-21.570372 F1500

Gcode : M5

Gcode : G1 Z-7.0583863 F1500

Gcode : G1 X5.851 Y-21.570541 F1500

Gcode : M5

Gcode : G1 Z-7.055808 F1500

Gcode : G1 X6.151 Y-21.570711 F1500

Gcode : M5

Gcode : G1 Z-7.0532303 F1500

Gcode : G1 X6.4509993 Y-21.57088 F1500

Gcode : M5

Gcode : G1 Z-7.050651 F1500

Gcode : G1 X6.7509995 Y-21.571049 F1500

Gcode : M5

Gcode : G1 Z-7.048072 F1500

Gcode : G1 X7.0509996 Y-21.571218 F1500

Gcode : M5

Gcode : G1 Z-7.0454917 F1500

Gcode : G1 X7.3509994 Y-21.571388 F1500

Gcode : M5

Gcode : G1 Z-7.042912 F1500

Gcode : G1 X7.6509995 Y-21.571558 F1500

Gcode : M5

Gcode : G1 Z-7.040332 F1500

Gcode : G1 X7.9509993 Y-21.571728 F1500

Gcode : M5

Gcode : G1 Z-7.0377507 F1500

Gcode : G1 X8.250999 Y-21.571896 F1500

Gcode : M5

Gcode : G1 Z-7.035169 F1500

Gcode : G1 X8.551 Y-21.572065 F1500

Gcode : M5

Gcode : G1 Z-7.0325885 F1500

Gcode : G1 X8.851 Y-21.572235 F1500

Gcode : M5

Gcode : M9

Gcode : S1000

Gcode : M4

Gcode : G1 Z-7.030005 F1500

Gcode : G1 X9.150999 Y-21.572405 F1500

Gcode : M5

Gcode : G1 Z-7.027423 F1500

Gcode : G1 X9.450999 Y-21.572575 F1500

Gcode : M5

Gcode : G1 Z-7.0248394 F1500

Gcode : G1 X9.750999 Y-21.572744 F1500

Gcode : M5

Gcode : G1 Z-7.022256 F1500

Gcode : G1 X10.051 Y-21.572916 F1500

Gcode : M5

Gcode : G1 Z-7.019672 F1500

Gcode : G1 X10.351 Y-21.573086 F1500

Gcode : M5

Gcode : G1 Z-7.017088 F1500

Gcode : G1 X10.650999 Y-21.573256 F1500

Gcode : M5

Gcode : G1 Z-7.0145025 F1500

Gcode : G1 X10.950999 Y-21.573425 F1500

Gcode : M5

Gcode : G1 Z-7.011918 F1500

Gcode : G1 X11.250999 Y-21.573597 F1500

Gcode : M5

Gcode : G1 Z-7.009332 F1500

Gcode : G1 X11.551 Y-21.573765 F1500

Gcode : M5

Gcode : G1 Z-7.006746 F1500

Gcode : G1 X11.851 Y-21.573936 F1500

Gcode : M5

Gcode : G1 Z-7.0041595 F1500

Gcode : G1 X12.150999 Y-21.574106 F1500

Gcode : M5

Gcode : G1 Z-7.001572 F1500

Gcode : G1 X12.450999 Y-21.574276 F1500

Gcode : M5

Gcode : G1 Z-7.0 F1500

Gcode : G1 X12.750999 Y-21.574446 F1500

Gcode : M5

Gcode : G1 Z-7.0 F1500

Gcode : G1 X13.051 Y-21.574617 F1500

Gcode : M5

Gcode : G1 Z-7.0 F1500

Gcode : G1 X13.351 Y-21.574787 F1500

Gcode : M5

Gcode : G1 Z-7.0 F1500

Gcode : G1 X13.650999 Y-21.574957 F1500

Gcode : M5

Gcode : G1 Z-7.0000005 F1500

Gcode : G1 X14.02429 Y-21.615234 F1500

Gcode : M5

Gcode : G1 Z-7.0 F1500

Gcode : G1 X14.415219 Y-21.708706 F1500

Gcode : M5

Gcode : G1 Z-7.0 F1500

Gcode : G1 X14.783534 Y-21.850315 F1500

Gcode : M5

Gcode : G1 Z-7.0000005 F1500

Gcode : G1 X15.12454 Y-22.037174 F1500

Gcode : M5

Gcode : G1 Z-7.0 F1500

Gcode : G1 X15.436351 Y-22.264479 F1500

Gcode : M5

Gcode : G1 Z-7.0 F1500

Gcode : G1 X15.715132 Y-22.528131 F1500

Gcode : M5

Gcode : G1 Z-7.0000005 F1500

Gcode : G1 X15.9574795 Y-22.82435 F1500

Gcode : M5

Gcode : G1 Z-7.0 F1500

Gcode : G1 X16.160597 Y-23.14988 F1500

Gcode : M5

Gcode : G1 Z-7.0 F1500

Gcode : G1 X16.320969 Y-23.50026 F1500

Gcode : M5

Gcode : M9

Gcode : S1000

Gcode : M4

Gcode : G1 Z-7.0 F1500

Gcode : G1 X16.435705 Y-23.87222 F1500

Gcode : M5

Gcode : G1 Z-7.0 F1500

Gcode : G1 X16.500502 Y-24.261389 F1500

Gcode : M5

Gcode : G1 Z-7.0 F1500

Gcode : G1 X16.515444 Y-24.662998 F1500

Gcode : M5

Gcode : G1 Z-7.0000005 F1500

Gcode : G1 X16.516886 Y-24.962994 F1500

Gcode : M5

Gcode : G1 Z-7.0 F1500

Gcode : G1 X16.51833 Y-25.26299 F1500

Gcode : M5

Gcode : G1 Z-7.0 F1500

Gcode : G1 X16.519772 Y-25.562988 F1500

Gcode : M5

Gcode : G1 Z-7.0 F1500

Gcode : G1 X16.521214 Y-25.862986 F1500

Gcode : M5

Gcode : G1 Z-7.0 F1500

Gcode : G1 X16.522655 Y-26.162983 F1500

Gcode : M5

Gcode : G1 Z-7.0 F1500

Gcode : G1 X16.5241 Y-26.462978 F1500

Gcode : M5

Gcode : G1 Z-7.0 F1500

Gcode : G1 X16.525541 Y-26.762976 F1500

Gcode : M5

Gcode : G1 Z-7.0 F1500

Gcode : G1 X16.526985 Y-27.062973 F1500

Gcode : M5

Gcode : G1 Z-7.0000005 F1500

Gcode : G1 X16.568233 Y-27.57129 F1500

Gcode : M5

Gcode : G1 Z-7.0 F1500

Gcode : G1 X16.661705 Y-27.96222 F1500

Gcode : M5

Gcode : G1 Z-7.0 F1500

Gcode : G1 X16.804245 Y-28.330143 F1500

Gcode : M5

Gcode : G1 Z-7.0 F1500

Gcode : G1 X16.99026 Y-28.671078 F1500

Gcode : M5

Gcode : G1 Z-7.0 F1500

Gcode : G1 X17.217478 Y-28.983349 F1500

Gcode : M5

Gcode : G1 Z-7.0 F1500

Gcode : G1 X17.481133 Y-29.26213 F1500

Gcode : M5

Gcode : G1 Z-7.008819 F1500

Gcode : G1 X17.777351 Y-29.504477 F1500

Gcode : M5

Gcode : G1 Z-7.038396 F1500

Gcode : G1 X18.102879 Y-29.707596 F1500

Gcode : M5

Gcode : G1 Z-7.0635586 F1500

Gcode : G1 X18.453259 Y-29.86797 F1500

Gcode : M5

Gcode : G1 Z-7.083816 F1500

Gcode : G1 X18.82541 Y-29.982 F1500

Gcode : M5

Gcode : G1 Z-7.098364 F1500

Gcode : G1 X19.21429 Y-30.047235 F1500

Gcode : M5

Gcode : G1 Z-7.1083817 F1500

Gcode : G1 X19.82949 Y-30.10671 F1500

Gcode : M5

Gcode : G1 Z-7.1201334 F1500

Gcode : G1 X20.371006 Y-30.25375 F1500

Gcode : M5

Gcode : G1 Z-7.1499286 F1500

Gcode : G1 X20.836475 Y-30.524364 F1500

Gcode : M5

Gcode : M9

Gcode : S1000

Gcode : M4

Gcode : G1 Z-7.195827 F1500

Gcode : G1 X21.20778 Y-30.896763 F1500

Gcode : M5

Gcode : G1 Z-7.2553053 F1500

Gcode : G1 X21.466658 Y-31.348537 F1500

Gcode : M5

Gcode : G1 Z-7.324943 F1500

Gcode : G1 X21.598156 Y-31.853024 F1500

Gcode : M5

Gcode : G1 Z-7.367254 F1500

Gcode : G1 X21.640308 Y-32.150047 F1500

Gcode : M5

Gcode : G1 Z-7.409668 F1500

Gcode : G1 X21.682465 Y-32.447075 F1500

Gcode : M5

Gcode : G1 Z-7.477994 F1500

Gcode : G1 X21.83343 Y-32.89952 F1500

Gcode : M5

Gcode : G1 Z-7.5491786 F1500

Gcode : G1 X22.12073 Y-33.334904 F1500

Gcode : M5

Gcode : G1 Z-7.6124125 F1500

Gcode : G1 X22.509462 Y-33.68089 F1500

Gcode : M5

Gcode : G1 Z-7.6649404 F1500

Gcode : G1 X22.978512 Y-33.921364 F1500

Gcode : M5

Gcode : G1 Z-7.7031226 F1500

Gcode : G1 X23.505318 Y-34.039734 F1500

Gcode : M5

Gcode : G1 Z-7.7232876 F1500

Gcode : G1 X24.067472 Y-34.02214 F1500

Gcode : M5

Gcode : G1 Z-7.721317 F1500

Gcode : G1 X24.602339 Y-33.86289 F1500

Gcode : M5

Gcode : G1 Z-7.6826353 F1500

Gcode : G1 X25.06007 Y-33.58188 F1500

Gcode : M5

Gcode : G1 Z-7.6013193 F1500

Gcode : G1 X25.422552 Y-33.20117 F1500

Gcode : M5

Gcode : G1 Z-7.51636 F1500

Gcode : G1 X25.670105 Y-32.744728 F1500

Gcode : M5

Gcode : G1 Z-7.431388 F1500

Gcode : G1 X25.786978 Y-32.23571 F1500

Gcode : M5

Gcode : G1 Z-7.349378 F1500

Gcode : G1 X25.86647 Y-31.697803 F1500

Gcode : M5

Gcode : G1 Z-7.2672343 F1500

Gcode : G1 X26.041101 Y-31.193653 F1500

Gcode : M5

Gcode : G1 Z-7.186927 F1500

Gcode : G1 X26.337994 Y-30.766617 F1500

Gcode : M5

Gcode : G1 Z-7.1130424 F1500

Gcode : G1 X26.735569 Y-30.429031 F1500

Gcode : M5

Gcode : G1 Z-7.049981 F1500

Gcode : G1 X27.210857 Y-30.19904 F1500

Gcode : M5

Gcode : G1 Z-7.000814 F1500

Gcode : G1 X27.742016 Y-30.09274 F1500

Gcode : M5

Gcode : G1 Z-6.9679413 F1500

Gcode : G1 X28.30538 Y-30.12344 F1500

Gcode : M5

Gcode : G1 Z-6.9536963 F1500

Gcode : G1 X28.834421 Y-30.294647 F1500

Gcode : M5

Gcode : G1 Z-6.956613 F1500

Gcode : G1 X29.283808 Y-30.585434 F1500

Gcode : M5

Gcode : M9

Gcode : S1000

Gcode : M4

Gcode : G1 Z-6.974435 F1500

Gcode : G1 X29.63667 Y-30.974188 F1500

Gcode : M5

Gcode : G1 Z-7.005562 F1500

Gcode : G1 X29.872711 Y-31.43713 F1500

Gcode : M5

Gcode : G1 Z-7.049474 F1500

Gcode : G1 X29.979458 Y-31.94874 F1500

Gcode : M5

Gcode : G1 Z-7.106004 F1500

Gcode : G1 X30.062984 Y-32.48774 F1500

Gcode : M5

Gcode : G1 Z-7.1559167 F1500

Gcode : G1 X30.249945 Y-32.984882 F1500

Gcode : M5

Gcode : G1 Z-7.1886005 F1500

Gcode : G1 X30.557104 Y-33.40479 F1500

Gcode : M5

Gcode : G1 Z-7.202612 F1500

Gcode : G1 X30.96235 Y-33.733227 F1500

Gcode : M5

Gcode : G1 Z-7.197112 F1500

Gcode : G1 X31.443203 Y-33.95206 F1500

Gcode : M5

Gcode : G1 Z-7.1722608 F1500

Gcode : G1 X31.97847 Y-34.046864 F1500

Gcode : M5

Gcode : G1 Z-7.129588 F1500

Gcode : G1 X32.543007 Y-34.003338 F1500

Gcode : M5

Gcode : G1 Z-7.0759454 F1500

Gcode : G1 X33.065434 Y-33.820065 F1500

Gcode : M5

Gcode : G1 Z-7.0179133 F1500

Gcode : G1 X33.507454 Y-33.519386 F1500

Gcode : M5

Gcode : G1 Z-6.959706 F1500

Gcode : G1 X33.849957 Y-33.123787 F1500

Gcode : M5

Gcode : G1 Z-6.9044724 F1500

Gcode : G1 X34.074413 Y-32.655254 F1500

Gcode : M5

Gcode : G1 Z-6.854653 F1500

Gcode : G1 X34.17314 Y-32.138973 F1500

Gcode : M5

Gcode : G1 Z-6.811032 F1500

Gcode : G1 X34.261524 Y-31.600931 F1500

Gcode : M5

Gcode : G1 Z-6.7651267 F1500

Gcode : G1 X34.46026 Y-31.110508 F1500

Gcode : M5

Gcode : G1 Z-6.7175274 F1500

Gcode : G1 X34.777103 Y-30.697912 F1500

Gcode : M5

Gcode : G1 Z-6.671732 F1500

Gcode : G1 X35.189995 Y-30.37859 F1500

Gcode : M5

Gcode : G1 Z-6.630443 F1500

Gcode : G1 X35.676216 Y-30.170345 F1500

Gcode : M5

Gcode : G1 Z-6.5950775 F1500

Gcode : G1 X36.215816 Y-30.087498 F1500

Gcode : M5

Gcode : G1 Z-6.566791 F1500

Gcode : G1 X36.77956 Y-30.144394 F1500

Gcode : M5

Gcode : G1 Z-6.5438375 F1500

Gcode : G1 X37.295174 Y-30.33939 F1500

Gcode : M5

Gcode : G1 Z-6.4743886 F1500

Gcode : G1 X37.72893 Y-30.649754 F1500

Gcode : M5

Gcode : G1 Z-6.4223785 F1500

Gcode : G1 X38.061756 Y-31.053364 F1500

Gcode : M5

Gcode : M9

Gcode : S1000

Gcode : M4

Gcode : G1 Z-6.3905 F1500

Gcode : G1 X38.27461 Y-31.526989 F1500

Gcode : M5

Gcode : G1 Z-6.382158 F1500

Gcode : G1 X38.36588 Y-32.0452 F1500

Gcode : M5

Gcode : G1 Z-6.3965964 F1500

Gcode : G1 X38.46007 Y-32.583195 F1500

Gcode : M5

Gcode : G1 Z-6.391192 F1500

Gcode : G1 X38.67048 Y-33.066948 F1500

Gcode : M5

Gcode : G1 Z-6.3568892 F1500

Gcode : G1 X38.997272 Y-33.47199 F1500

Gcode : M5

Gcode : G1 Z-6.2961 F1500

Gcode : G1 X39.41764 Y-33.78129 F1500

Gcode : M5

Gcode : G1 Z-6.212053 F1500

Gcode : G1 X39.910164 Y-33.9789 F1500

Gcode : M5

Gcode : G1 Z-6.1088986 F1500

Gcode : G1 X40.45298 Y-34.049675 F1500

Gcode : M5

Gcode : G1 Z-5.9934707 F1500

Gcode : G1 X41.015945 Y-33.97986 F1500

Gcode : M5

Gcode : G1 Z-5.882803 F1500

Gcode : G1 X41.524982 Y-33.77364 F1500

Gcode : M5

Gcode : G1 Z-5.7852635 F1500

Gcode : G1 X41.950024 Y-33.45393 F1500

Gcode : M5

Gcode : G1 Z-5.7059426 F1500

Gcode : G1 X42.272865 Y-33.042896 F1500

Gcode : M5

Gcode : G1 Z-5.649019 F1500

Gcode : G1 X42.474083 Y-32.563736 F1500

Gcode : M5

Gcode : G1 Z-5.618112 F1500

Gcode : G1 X42.559334 Y-32.04276 F1500

Gcode : M5

Gcode : G1 Z-5.6081023 F1500

Gcode : G1 X42.660458 Y-31.506845 F1500

Gcode : M5

Gcode : G1 Z-5.5790925 F1500

Gcode : G1 X42.882454 Y-31.02864 F1500

Gcode : M5

Gcode : G1 Z-5.529228 F1500

Gcode : G1 X43.218307 Y-30.632229 F1500

Gcode : M5

Gcode : G1 Z-5.462712 F1500

Gcode : G1 X43.64611 Y-30.332874 F1500

Gcode : M5

Gcode : G1 Z-5.3830013 F1500

Gcode : G1 X44.144917 Y-30.145727 F1500

Gcode : M5

Gcode : G1 Z-5.2931376 F1500

Gcode : G1 X44.689983 Y-30.08714 F1500

Gcode : M5

Gcode : G1 Z-5.1961546 F1500

Gcode : G1 X45.25213 Y-30.17004 F1500

Gcode : M5

Gcode : G1 Z-5.1034923 F1500

Gcode : G1 X45.75354 Y-30.387463 F1500

Gcode : M5

Gcode : G1 Z-5.0181966 F1500

Gcode : G1 X46.171272 Y-30.71699 F1500

Gcode : M5

Gcode : G1 Z-4.9439015 F1500

Gcode : G1 X46.483307 Y-31.135052 F1500

Gcode : M5

Gcode : G1 Z-4.88463 F1500

Gcode : G1 X46.671932 Y-31.61823 F1500

Gcode : M5

Gcode : M9

Gcode : S1000

Gcode : M4

Gcode : G1 Z-4.845112 F1500

Gcode : G1 X46.75292 Y-32.143196 F1500

Gcode : M5

Gcode : G1 Z-4.8213964 F1500

Gcode : G1 X46.861446 Y-32.67604 F1500

Gcode : M5

Gcode : G1 Z-4.7754326 F1500

Gcode : G1 X47.094757 Y-33.14736 F1500

Gcode : M5

Gcode : G1 Z-4.7055964 F1500

Gcode : G1 X47.43993 Y-33.535748 F1500

Gcode : M5

Gcode : G1 Z-4.6156707 F1500

Gcode : G1 X47.875175 Y-33.826393 F1500

Gcode : M5

Gcode : G1 Z-4.51057 F1500

Gcode : G1 X48.378677 Y-34.00188 F1500

Gcode : M5

Gcode : G1 Z-4.3960166 F1500

Gcode : G1 X48.927834 Y-34.048042 F1500

Gcode : M5

Gcode : G1 Z-4.281342 F1500

Gcode : G1 X49.487167 Y-33.952198 F1500

Gcode : M5

Gcode : G1 Z-4.222367 F1500

Gcode : G1 X49.981903 Y-33.72343 F1500

Gcode : M5

Gcode : G1 Z-4.189009 F1500

Gcode : G1 X50.39039 Y-33.38519 F1500

Gcode : M5

Gcode : G1 Z-4.168698 F1500

Gcode : G1 X50.692253 Y-32.960506 F1500

Gcode : M5

Gcode : G1 Z-4.1627393 F1500

Gcode : G1 X50.8694 Y-32.4719 F1500

Gcode : M5

Gcode : G1 Z-4.1729584 F1500

Gcode : G1 X50.94714 Y-31.943974 F1500

Gcode : M5

Gcode : G1 Z-4.1924014 F1500

Gcode : G1 X51.064587 Y-31.414318 F1500

Gcode : M5

Gcode : G1 Z-4.1951203 F1500

Gcode : G1 X51.30896 Y-30.950787 F1500

Gcode : M5

Gcode : G1 Z-4.1797814 F1500

Gcode : G1 X51.66317 Y-30.570063 F1500

Gcode : M5

Gcode : G1 Z-4.147756 F1500

Gcode : G1 X52.10543 Y-30.289068 F1500

Gcode : M5

Gcode : G1 Z-4.100458 F1500

Gcode : G1 X52.614113 Y-30.124853 F1500

Gcode : M5

Gcode : G1 Z-4.0400805 F1500

Gcode : G1 X53.166496 Y-30.09134 F1500

Gcode : M5

Gcode : G1 Z-3.97158 F1500

Gcode : G1 X53.721985 Y-30.200718 F1500

Gcode : M5

Gcode : G1 Z-3.904708 F1500

Gcode : G1 X54.209515 Y-30.439972 F1500

Gcode : M5

Gcode : G1 Z-3.8433242 F1500

Gcode : G1 X54.609386 Y-30.78653 F1500

Gcode : M5

Gcode : G1 Z-3.7908933 F1500

Gcode : G1 X54.90026 Y-31.218237 F1500

Gcode : M5

Gcode : G1 Z-3.7502632 F1500

Gcode : G1 X55.06499 Y-31.711737 F1500

Gcode : M5

Gcode : G1 Z-3.723683 F1500

Gcode : G1 X55.14051 Y-32.241737 F1500

Gcode : M5

Gcode : M9

Gcode : S1000

Gcode : M4

Gcode : G1 Z-3.7034779 F1500

Gcode : G1 X55.268024 Y-32.767014 F1500

Gcode : M5

Gcode : G1 Z-3.670462 F1500

Gcode : G1 X55.523293 Y-33.22446 F1500

Gcode : M5

Gcode : G1 Z-3.6273677 F1500

Gcode : G1 X55.886086 Y-33.596092 F1500

Gcode : M5

Gcode : G1 Z-3.5768864 F1500

Gcode : G1 X56.335308 Y-33.86689 F1500

Gcode : M5

Gcode : G1 Z-3.5215127 F1500

Gcode : G1 X56.849365 Y-34.020535 F1500

Gcode : M5

Gcode : G1 Z-3.4634504 F1500

Gcode : G1 X57.40398 Y-34.041264 F1500

Gcode : M5

Gcode : G1 Z-3.4065242 F1500

Gcode : G1 X57.955853 Y-33.91904 F1500

Gcode : M5

Gcode : G1 Z-3.3567333 F1500

Gcode : G1 X58.436573 Y-33.669037 F1500

Gcode : M5

Gcode : G1 Z-3.3152728 F1500

Gcode : G1 X58.826958 Y-33.313583 F1500

Gcode : M5

Gcode : G1 Z-3.2837725 F1500

Gcode : G1 X59.107338 Y-32.875767 F1500

Gcode : M5

Gcode : G1 Z-3.2641408 F1500

Gcode : G1 X59.26002 Y-32.377724 F1500

Gcode : M5

Gcode : G1 Z-3.2591407 F1500

Gcode : G1 X59.334522 Y-31.845768 F1500

Gcode : M5

Gcode : G1 Z-3.2578611 F1500

Gcode : G1 X59.472614 Y-31.324535 F1500

Gcode : M5

Gcode : G1 Z-3.24023 F1500

Gcode : G1 X59.738274 Y-30.874964 F1500

Gcode : M5

Gcode : G1 Z-3.2072492 F1500

Gcode : G1 X60.110344 Y-30.51123 F1500

Gcode : M5

Gcode : G1 Z-3.160904 F1500

Gcode : G1 X60.566143 Y-30.250422 F1500

Gcode : M5

Gcode : G1 Z-3.1035624 F1500

Gcode : G1 X61.084557 Y-30.108664 F1500

Gcode : M5

Gcode : G1 Z-3.0381446 F1500

Gcode : G1 X61.642376 Y-30.100159 F1500

Gcode : M5

Gcode : G1 Z-3.0777104 F1500

Gcode : G1 X62.18933 Y-30.234844 F1500

Gcode : M5

Gcode : G1 Z-3.2403264 F1500

Gcode : G1 X62.66273 Y-30.495514 F1500

Gcode : M5

Gcode : G1 Z-3.3773174 F1500

Gcode : G1 X63.04345 Y-30.85914 F1500

Gcode : M5

Gcode : G1 Z-3.482133 F1500

Gcode : G1 X63.313427 Y-31.304523 F1500

Gcode : M5

Gcode : G1 Z-3.5483937 F1500

Gcode : G1 X63.450157 Y-31.807026 F1500

Gcode : M5

Gcode : G1 Z-3.5594673 F1500

Gcode : G1 X63.492317 Y-32.10405 F1500

Gcode : M5

Gcode : G1 Z-3.570437 F1500

Gcode : G1 X63.534466 Y-32.401073 F1500

Gcode : M5

Gcode : M9

Gcode : S1000

Gcode : M4

Gcode : G1 Z-3.5878317 F1500

Gcode : G1 X63.67866 Y-32.856537 F1500

Gcode : M5

Gcode : G1 Z-3.6481886 F1500

Gcode : G1 X63.95506 Y-33.29854 F1500

Gcode : M5

Gcode : G1 Z-3.744918 F1500

Gcode : G1 X64.33547 Y-33.653366 F1500

Gcode : M5

Gcode : G1 Z-3.8715284 F1500

Gcode : G1 X64.797806 Y-33.904224 F1500

Gcode : M5

Gcode : G1 Z-4.0223083 F1500

Gcode : G1 X65.320564 Y-34.034187 F1500

Gcode : M5

Gcode : G1 Z-4.192008 F1500

Gcode : G1 X65.87987 Y-34.0184 F1500

Gcode : M5

Gcode : G1 Z-4.282909 F1500

Gcode : G1 X66.17574 Y-33.9688 F1500

Gcode : M5

Gcode : G1 Z-4.373932 F1500

Gcode : G1 X66.47162 Y-33.919197 F1500

Gcode : M5

Gcode : G1 Z-4.4650764 F1500

Gcode : G1 X66.767494 Y-33.8696 F1500

Gcode : M5

Gcode : G1 Z-4.6127014 F1500

Gcode : G1 X67.213936 Y-33.696384 F1500

Gcode : M5

Gcode : G1 Z-4.696555 F1500

Gcode : G1 X67.47787 Y-33.553764 F1500

Gcode : M5

Gcode : G1 Z-4.7807217 F1500

Gcode : G1 X67.741806 Y-33.411148 F1500

Gcode : M5

Gcode : G1 Z-4.865202 F1500

Gcode : G1 X68.00574 Y-33.268528 F1500

Gcode : M5

Gcode : G1 Z-4.989058 F1500

Gcode : G1 X68.33235 Y-32.984303 F1500

Gcode : M5

Gcode : G1 Z-5.058345 F1500

Gcode : G1 X68.537704 Y-32.765602 F1500

Gcode : M5

Gcode : G1 Z-5.128005 F1500

Gcode : G1 X68.743065 Y-32.546906 F1500

Gcode : M5

Gcode : G1 Z-5.198041 F1500

Gcode : G1 X68.94842 Y-32.32821 F1500

Gcode : M5

Gcode : G1 Z-5.2982473 F1500

Gcode : G1 X69.16106 Y-31.963766 F1500

Gcode : M5

Gcode : G1 Z-5.346048 F1500

Gcode : G1 X69.28712 Y-31.691534 F1500

Gcode : M5

Gcode : G1 Z-5.3941345 F1500

Gcode : G1 X69.41317 Y-31.419302 F1500

Gcode : M5

Gcode : G1 Z-5.4425063 F1500

Gcode : G1 X69.53923 Y-31.147074 F1500

Gcode : M5

Gcode : G1 Z-5.5143347 F1500

Gcode : G1 X69.62938 Y-30.71954 F1500

Gcode : M5

Gcode : G1 Z-5.533847 F1500

Gcode : G1 X69.65976 Y-30.421082 F1500

Gcode : M5

Gcode : G1 Z-5.553433 F1500

Gcode : G1 X69.69014 Y-30.122623 F1500

Gcode : M5

Gcode : G1 Z-5.5730963 F1500

Gcode : G1 X69.72052 Y-29.824163 F1500

Gcode : M5

Gcode : M9

Gcode : S1000

Gcode : M4

Gcode : G1 Z-5.6061788 F1500

Gcode : G1 X69.67235 Y-29.33096 F1500

Gcode : M5

Gcode : G1 Z-5.5937405 F1500

Gcode : G1 X69.60369 Y-29.038921 F1500

Gcode : M5

Gcode : G1 Z-5.549414 F1500

Gcode : G1 X69.535034 Y-28.746883 F1500

Gcode : M5

Gcode : G1 Z-5.4931817 F1500

Gcode : G1 X69.466385 Y-28.454845 F1500

Gcode : M5

Gcode : G1 Z-5.3819447 F1500

Gcode : G1 X69.25327 Y-27.901218 F1500

Gcode : M5

Gcode : G1 Z-5.306257 F1500

Gcode : G1 X69.108536 Y-27.638437 F1500

Gcode : M5

Gcode : G1 Z-5.1763573 F1500

Gcode : G1 X68.80295 Y-27.22055 F1500

Gcode : M5

Gcode : G1 Z-5.0899563 F1500

Gcode : G1 X68.6039 Y-26.996103 F1500

Gcode : M5

Gcode : G1 Z-4.9466743 F1500

Gcode : G1 X68.22806 Y-26.665262 F1500

Gcode : M5

Gcode : G1 Z-4.854433 F1500

Gcode : G1 X67.987114 Y-26.486523 F1500

Gcode : M5

Gcode : G1 Z-4.7021036 F1500

Gcode : G1 X67.55498 Y-26.238352 F1500

Gcode : M5

Gcode : G1 Z-4.607807 F1500

Gcode : G1 X67.283966 Y-26.109701 F1500

Gcode : M5

Gcode : G1 Z-4.449091 F1500

Gcode : G1 X66.80525 Y-25.94227 F1500

Gcode : M5

Gcode : G1 Z-4.355592 F1500

Gcode : G1 X66.51549 Y-25.864542 F1500

Gcode : M5

Gcode : G1 Z-4.193773 F1500

Gcode : G1 X66.00225 Y-25.779638 F1500

Gcode : M5

Gcode : G1 Z-4.103045 F1500

Gcode : G1 X65.70351 Y-25.752277 F1500

Gcode : M5

Gcode : G1 Z-3.9487014 F1500

Gcode : G1 X65.197235 Y-25.682714 F1500

Gcode : M5

Gcode : G1 Z-3.7799897 F1500

Gcode : G1 X64.672295 Y-25.51717 F1500

Gcode : M5

Gcode : G1 Z-3.620057 F1500

Gcode : G1 X64.223404 Y-25.23401 F1500

Gcode : M5

Gcode : G1 Z-3.4772563 F1500

Gcode : G1 X63.8691 Y-24.85493 F1500

Gcode : M5

Gcode : G1 Z-3.3587055 F1500

Gcode : G1 X63.627575 Y-24.401062 F1500

Gcode : M5

Gcode : G1 Z-3.2712808 F1500

Gcode : G1 X63.514275 Y-23.89668 F1500

Gcode : M5

Gcode : G1 Z-3.2195804 F1500

Gcode : G1 X63.435432 Y-23.363821 F1500

Gcode : M5

Gcode : G1 Z-3.158185 F1500

Gcode : G1 X63.260895 Y-22.86065 F1500

Gcode : M5

Gcode : G1 Z-3.065012 F1500

Gcode : G1 X62.964 Y-22.433617 F1500

Gcode : M5

Gcode : M9

Gcode : S1000

Gcode : M4

Gcode : G1 Z-2.9474616 F1500

Gcode : G1 X62.5666 Y-22.09577 F1500

Gcode : M5

Gcode : G1 Z-2.8132849 F1500

Gcode : G1 X62.092083 Y-21.86621 F1500

Gcode : M5

Gcode : G1 Z-2.6675656 F1500

Gcode : G1 X61.560028 Y-21.759216 F1500

Gcode : M5

Gcode : G1 Z-2.6719904 F1500

Gcode : G1 X60.99662 Y-21.78944 F1500

Gcode : M5

Gcode : G1 Z-2.7610168 F1500

Gcode : G1 X60.467793 Y-21.961103 F1500

Gcode : M5

Gcode : G1 Z-2.8460228 F1500

Gcode : G1 X60.017914 Y-22.252094 F1500

Gcode : M5

Gcode : G1 Z-2.9226274 F1500

Gcode : G1 X59.665333 Y-22.64019 F1500

Gcode : M5

Gcode : G1 Z-2.9867387 F1500

Gcode : G1 X59.429474 Y-23.1032 F1500

Gcode : M5

Gcode : G1 Z-3.0346515 F1500

Gcode : G1 X59.32254 Y-23.615742 F1500

Gcode : M5

Gcode : G1 Z-3.06451 F1500

Gcode : G1 X59.238903 Y-24.154713 F1500

Gcode : M5

Gcode : G1 Z-3.1016865 F1500

Gcode : G1 X59.052296 Y-24.651007 F1500

Gcode : M5

Gcode : G1 Z-3.1547859 F1500

Gcode : G1 X58.74461 Y-25.071527 F1500

Gcode : M5

Gcode : G1 Z-3.2194555 F1500

Gcode : G1 X58.339897 Y-25.399624 F1500

Gcode : M5

Gcode : G1 Z-3.2920048 F1500

Gcode : G1 X57.858803 Y-25.619059 F1500

Gcode : M5

Gcode : G1 Z-3.3692968 F1500

Gcode : G1 X57.323498 Y-25.713339 F1500

Gcode : M5

Gcode : G1 Z-3.4481032 F1500

Gcode : G1 X56.758892 Y-25.669855 F1500

Gcode : M5

Gcode : G1 Z-3.5193582 F1500

Gcode : G1 X56.236565 Y-25.487068 F1500

Gcode : M5

Gcode : G1 Z-3.5789394 F1500

Gcode : G1 X55.794823 Y-25.186062 F1500

Gcode : M5

Gcode : G1 Z-3.6249993 F1500

Gcode : G1 X55.452435 Y-24.789522 F1500

Gcode : M5

Gcode : G1 Z-3.6554203 F1500

Gcode : G1 X55.227905 Y-24.32149 F1500

Gcode : M5

Gcode : G1 Z-3.6677027 F1500

Gcode : G1 X55.129402 Y-23.805927 F1500

Gcode : M5

Gcode : G1 Z-3.6607623 F1500

Gcode : G1 X55.040943 Y-23.268055 F1500

Gcode : M5

Gcode : G1 Z-3.6664078 F1500

Gcode : G1 X54.842426 Y-22.777134 F1500

Gcode : M5

Gcode : G1 Z-3.6933806 F1500

Gcode : G1 X54.525616 Y-22.364191 F1500

Gcode : M5

Gcode : G1 Z-3.7399812 F1500

Gcode : G1 X54.112846 Y-22.045837 F1500

Gcode : M5

Gcode : M9

Gcode : S1000

Gcode : M4

Gcode : G1 Z-3.80351 F1500

Gcode : G1 X53.625786 Y-21.837345 F1500

Gcode : M5

Gcode : G1 Z-3.8809788 F1500

Gcode : G1 X53.08618 Y-21.754498 F1500

Gcode : M5

Gcode : G1 Z-3.9679067 F1500

Gcode : G1 X52.522438 Y-21.811394 F1500

Gcode : M5

Gcode : G1 Z-4.0522423 F1500

Gcode : G1 X52.0066 Y-22.005949 F1500

Gcode : M5

Gcode : G1 Z-4.1274257 F1500

Gcode : G1 X51.57307 Y-22.31575 F1500

Gcode : M5

Gcode : G1 Z-4.1897707 F1500

Gcode : G1 X51.240242 Y-22.719364 F1500

Gcode : M5

Gcode : G1 Z-4.235877 F1500

Gcode : G1 X51.027554 Y-23.19304 F1500

Gcode : M5

Gcode : G1 Z-4.2629743 F1500

Gcode : G1 X50.93608 Y-23.712198 F1500

Gcode : M5

Gcode : G1 Z-4.2724075 F1500

Gcode : G1 X50.842068 Y-24.249231 F1500

Gcode : M5

Gcode : G1 Z-4.2949066 F1500

Gcode : G1 X50.63127 Y-24.7338 F1500

Gcode : M5

Gcode : G1 Z-4.3346243 F1500

Gcode : G1 X50.305016 Y-25.138277 F1500

Gcode : M5

Gcode : G1 Z-4.3880844 F1500

Gcode : G1 X49.88436 Y-25.44829 F1500

Gcode : M5

Gcode : G1 Z-4.4523907 F1500

Gcode : G1 X49.391838 Y-25.6459 F1500

Gcode : M5

Gcode : G1 Z-4.529892 F1500

Gcode : G1 X48.849022 Y-25.716671 F1500

Gcode : M5

Gcode : G1 Z-4.6226487 F1500

Gcode : G1 X48.286053 Y-25.646854 F1500

Gcode : M5

Gcode : G1 Z-4.7097297 F1500

Gcode : G1 X47.77702 Y-25.44064 F1500

Gcode : M5

Gcode : G1 Z-4.785946 F1500

Gcode : G1 X47.351974 Y-25.12093 F1500

Gcode : M5

Gcode : G1 Z-4.8480544 F1500

Gcode : G1 X47.029133 Y-24.709896 F1500

Gcode : M5

Gcode : G1 Z-4.8928113 F1500

Gcode : G1 X46.82806 Y-24.23069 F1500

Gcode : M5

Gcode : G1 Z-4.9166484 F1500

Gcode : G1 X46.742626 Y-23.708761 F1500

Gcode : M5

Gcode : G1 Z-4.922973 F1500

Gcode : G1 X46.64154 Y-23.173841 F1500

Gcode : M5

Gcode : G1 Z-4.9469733 F1500

Gcode : G1 X46.419548 Y-22.69564 F1500

Gcode : M5

Gcode : G1 Z-4.991568 F1500

Gcode : G1 X46.083977 Y-22.298927 F1500

Gcode : M5

Gcode : G1 Z-5.0536757 F1500

Gcode : G1 X45.656017 Y-21.998638 F1500

Gcode : M5

Gcode : G1 Z-5.1298914 F1500

Gcode : G1 X45.15806 Y-21.811857 F1500

Gcode : M5

Gcode : M9

Gcode : S1000

Gcode : M4

Gcode : G1 Z-5.2169733 F1500

Gcode : G1 X44.612022 Y-21.753672 F1500

Gcode : M5

Gcode : G1 Z-5.30973 F1500

Gcode : G1 X44.050835 Y-21.8369 F1500

Gcode : M5

Gcode : G1 Z-5.3960004 F1500

Gcode : G1 X43.54836 Y-22.054289 F1500

Gcode : M5

Gcode : G1 Z-5.4710813 F1500

Gcode : G1 X43.131733 Y-22.38299 F1500

Gcode : M5

Gcode : G1 Z-5.53173 F1500

Gcode : G1 X42.81952 Y-22.800945 F1500

Gcode : M5

Gcode : G1 Z-5.574703 F1500

Gcode : G1 X42.62993 Y-23.285196 F1500

Gcode : M5

Gcode : G1 Z-5.596595 F1500

Gcode : G1 X42.54912 Y-23.8092 F1500

Gcode : M5

Gcode : G1 Z-5.6030817 F1500

Gcode : G1 X42.44039 Y-24.342989 F1500

Gcode : M5

Gcode : G1 Z-5.6290274 F1500

Gcode : G1 X42.20724 Y-24.813362 F1500

Gcode : M5

Gcode : G1 Z-5.675406 F1500

Gcode : G1 X41.862347 Y-25.202066 F1500

Gcode : M5

Gcode : G1 Z-5.7389736 F1500

Gcode : G1 X41.426598 Y-25.492947 F1500

Gcode : M5

Gcode : G1 Z-5.8163247 F1500

Gcode : G1 X40.92344 Y-25.668392 F1500

Gcode : M5

Gcode : G1 Z-5.9042163 F1500

Gcode : G1 X40.374184 Y-25.714518 F1500

Gcode : M5

Gcode : G1 Z-5.996973 F1500

Gcode : G1 X39.814835 Y-25.618195 F1500

Gcode : M5

Gcode : G1 Z-6.0822706 F1500

Gcode : G1 X39.319847 Y-25.389837 F1500

Gcode : M5

Gcode : G1 Z-6.156216 F1500

Gcode : G1 X38.911896 Y-25.051914 F1500

Gcode : M5

Gcode : G1 Z-6.2154055 F1500

Gcode : G1 X38.609745 Y-24.62651 F1500

Gcode : M5

Gcode : G1 Z-6.256594 F1500

Gcode : G1 X38.432476 Y-24.13793 F1500

Gcode : M5

Gcode : G1 Z-6.2763786 F1500

Gcode : G1 X38.35486 Y-23.610973 F1500

Gcode : M5

Gcode : G1 Z-6.283514 F1500

Gcode : G1 X38.23741 Y-23.081316 F1500

Gcode : M5

Gcode : G1 Z-6.3114066 F1500

Gcode : G1 X37.99343 Y-22.61752 F1500

Gcode : M5

Gcode : G1 Z-6.3594055 F1500

Gcode : G1 X37.639584 Y-22.237343 F1500

Gcode : M5

Gcode : G1 Z-6.4244328 F1500

Gcode : G1 X37.196568 Y-21.956066 F1500

Gcode : M5

Gcode : G1 Z-6.50073 F1500

Gcode : G1 X36.68801 Y-21.791233 F1500

Gcode : M5

Gcode : G1 Z-6.5228653 F1500

Gcode : G1 X36.13653 Y-21.757862 F1500

Gcode : M5

Gcode : M9

Gcode : S1000

Gcode : M4

Gcode : G1 Z-6.5459733 F1500

Gcode : G1 X35.5808 Y-21.867062 F1500

Gcode : M5

Gcode : G1 Z-6.567095 F1500

Gcode : G1 X35.09274 Y-22.106369 F1500

Gcode : M5

Gcode : G1 Z-6.5852976 F1500

Gcode : G1 X34.69292 Y-22.453815 F1500

Gcode : M5

Gcode : G1 Z-6.5996895 F1500

Gcode : G1 X34.40229 Y-22.885006 F1500

Gcode : M5

Gcode : G1 Z-6.6095405 F1500

Gcode : G1 X34.2369 Y-23.378712 F1500

Gcode : M5

Gcode : G1 Z-6.61396 F1500

Gcode : G1 X34.16154 Y-23.907742 F1500

Gcode : M5

Gcode : G1 Z-6.615987 F1500

Gcode : G1 X34.034477 Y-24.4342 F1500

Gcode : M5

Gcode : G1 Z-6.623446 F1500

Gcode : G1 X33.77933 Y-24.891188 F1500

Gcode : M5

Gcode : G1 Z-6.635892 F1500

Gcode : G1 X33.415913 Y-25.263096 F1500

Gcode : M5

Gcode : G1 Z-6.6524734 F1500

Gcode : G1 X32.966694 Y-25.533894 F1500

Gcode : M5

Gcode : G1 Z-6.6723785 F1500

Gcode : G1 X32.452637 Y-25.687534 F1500

Gcode : M5

Gcode : G1 Z-6.694717 F1500

Gcode : G1 X31.89802 Y-25.708261 F1500

Gcode : M5

Gcode : G1 Z-6.717743 F1500

Gcode : G1 X31.346146 Y-25.58604 F1500

Gcode : M5

Gcode : G1 Z-6.738621 F1500

Gcode : G1 X30.865433 Y-25.336033 F1500

Gcode : M5

Gcode : G1 Z-6.7565002 F1500

Gcode : G1 X30.475327 Y-24.980335 F1500

Gcode : M5

Gcode : G1 Z-6.7705274 F1500

Gcode : G1 X30.1949 Y-24.54165 F1500

Gcode : M5

Gcode : G1 Z-6.779892 F1500

Gcode : G1 X30.042532 Y-24.044804 F1500

Gcode : M5

Gcode : G1 Z-6.783784 F1500

Gcode : G1 X29.967417 Y-23.511774 F1500

Gcode : M5

Gcode : G1 Z-6.7861757 F1500

Gcode : G1 X29.829584 Y-22.991459 F1500

Gcode : M5

Gcode : G1 Z-6.794121 F1500

Gcode : G1 X29.563446 Y-22.541174 F1500

Gcode : M5

Gcode : G1 Z-6.806973 F1500

Gcode : G1 X29.191654 Y-22.17823 F1500

Gcode : M5

Gcode : G1 Z-6.823879 F1500

Gcode : G1 X28.73586 Y-21.917423 F1500

Gcode : M5

Gcode : G1 Z-6.8440266 F1500

Gcode : G1 X28.217447 Y-21.775663 F1500

Gcode : M5

Gcode : G1 Z-6.8665676 F1500

Gcode : G1 X27.659626 Y-21.767159 F1500

Gcode : M5

Gcode : G1 Z-6.889474 F1500

Gcode : G1 X27.11267 Y-21.901844 F1500

Gcode : M5

Gcode : M9

Gcode : S1000

Gcode : M4

Gcode : G1 Z-6.9101086 F1500

Gcode : G1 X26.63927 Y-22.162516 F1500

Gcode : M5

Gcode : G1 Z-6.9276624 F1500

Gcode : G1 X26.25827 Y-22.525902 F1500

Gcode : M5

Gcode : G1 Z-6.941324 F1500

Gcode : G1 X25.989044 Y-22.970737 F1500

Gcode : M5

Gcode : G1 Z-6.9502034 F1500

Gcode : G1 X25.852848 Y-23.473024 F1500

Gcode : M5

Gcode : G1 Z-6.9519114 F1500

Gcode : G1 X25.81069 Y-23.770046 F1500

Gcode : M5

Gcode : G1 Z-6.953621 F1500

Gcode : G1 X25.768536 Y-24.06707 F1500

Gcode : M5

Gcode : G1 Z-6.9563656 F1500

Gcode : G1 X25.62407 Y-24.522419 F1500

Gcode : M5

Gcode : G1 Z-6.9648376 F1500

Gcode : G1 X25.346941 Y-24.965542 F1500

Gcode : M5

Gcode : G1 Z-6.9780946 F1500

Gcode : G1 X24.966526 Y-25.320366 F1500

Gcode : M5

Gcode : G1 Z-6.9953246 F1500

Gcode : G1 X24.504185 Y-25.571224 F1500

Gcode : M5

Gcode : G1 Z-7.0 F1500

Gcode : G1 X23.981285 Y-25.699957 F1500

Gcode : M5

Gcode : G1 Z-7.0 F1500

Gcode : G1 X23.39997 Y-25.710897 F1500

Gcode : M5

Gcode : G1 Z-7.0 F1500

Gcode : G1 X23.100939 Y-25.686798 F1500

Gcode : M5

Gcode : G1 Z-7.0 F1500

Gcode : G1 X22.737452 Y-25.610294 F1500

Gcode : M5

Gcode : G1 Z-7.0 F1500

Gcode : G1 X22.445904 Y-25.539587 F1500

Gcode : M5

Gcode : G1 Z-7.0000005 F1500

Gcode : G1 X22.11723 Y-25.411251 F1500

Gcode : M5

Gcode : G1 Z-7.0 F1500

Gcode : G1 X21.840458 Y-25.2955 F1500

Gcode : M5

Gcode : G1 Z-7.0 F1500

Gcode : G1 X21.545391 Y-25.121954 F1500

Gcode : M5

Gcode : G1 Z-7.0000005 F1500

Gcode : G1 X21.28978 Y-24.964909 F1500

Gcode : M5

Gcode : G1 Z-7.0 F1500

Gcode : G1 X21.029858 Y-24.752365 F1500

Gcode : M5

Gcode : G1 Z-7.0 F1500

Gcode : G1 X20.800716 Y-24.558733 F1500

Gcode : M5

Gcode : G1 Z-7.0 F1500

Gcode : G1 X20.577818 Y-24.310905 F1500

Gcode : M5

Gcode : G1 Z-7.0 F1500

Gcode : G1 X20.380636 Y-24.08481 F1500

Gcode : M5

Gcode : G1 Z-7.0 F1500

Gcode : G1 X20.197968 Y-23.80688 F1500

Gcode : M5

Gcode : G1 Z-7.0 F1500

Gcode : G1 X20.036936 Y-23.553764 F1500

Gcode : M5

Gcode : M9

Gcode : S1000

Gcode : M4

Gcode : G1 Z-7.0 F1500

Gcode : G1 X19.898024 Y-23.249035 F1500

Gcode : M5

Gcode : G1 Z-7.0 F1500

Gcode : G1 X19.77805 Y-22.974072 F1500

Gcode : M5

Gcode : G1 Z-7.0 F1500

Gcode : G1 X19.685535 Y-22.644646 F1500

Gcode : M5

Gcode : G1 Z-7.0 F1500

Gcode : G1 X19.610071 Y-22.354292 F1500

Gcode : M5

Gcode : G1 Z-7.0 F1500

Gcode : G1 X19.568304 Y-22.005377 F1500

Gcode : M5

Gcode : G1 Z-7.0 F1500

Gcode : G1 X19.539608 Y-21.706753 F1500

Gcode : M5

Gcode : G1 Z-7.0 F1500

Gcode : G1 X19.55201 Y-21.338604 F1500

Gcode : M5

Gcode : G1 Z-7.0 F1500

Gcode : G1 X19.571018 Y-21.039206 F1500

Gcode : M5

Gcode : G1 Z-7.0000005 F1500

Gcode : G1 X19.643734 Y-20.652515 F1500

Gcode : M5

Gcode : G1 Z-7.0 F1500

Gcode : G1 X19.71047 Y-20.360033 F1500

Gcode : M5

Gcode : G1 Z-7.0000005 F1500

Gcode : G1 X19.84456 Y-19.954185 F1500

Gcode : M5

Gcode : G1 Z-6.9999995 F1500

Gcode : G1 X20.031086 Y-19.55264 F1500

Gcode : M5

Gcode : G1 Z-7.014154 F1500

Gcode : G1 X20.257961 Y-19.180424 F1500

Gcode : M5

Gcode : G1 Z-7.0880003 F1500

Gcode : G1 X20.521643 Y-18.840189 F1500

Gcode : M5

Gcode : G1 Z-7.1556926 F1500

Gcode : G1 X20.818914 Y-18.531685 F1500

Gcode : M5

Gcode : G1 Z-7.2170258 F1500

Gcode : G1 X21.146553 Y-18.256222 F1500

Gcode : M5

Gcode : G1 Z-7.271385 F1500

Gcode : G1 X21.500729 Y-18.016933 F1500

Gcode : M5

Gcode : G1 Z-7.318359 F1500

Gcode : G1 X21.878468 Y-17.814114 F1500

Gcode : M5

Gcode : G1 Z-7.3577437 F1500

Gcode : G1 X22.275871 Y-17.650587 F1500

Gcode : M5

Gcode : G1 Z-7.3889227 F1500

Gcode : G1 X22.690086 Y-17.527515 F1500

Gcode : M5

Gcode : G1 Z-7.411693 F1500

Gcode : G1 X23.117382 Y-17.446562 F1500

Gcode : M5

Gcode : G1 Z-7.425641 F1500

Gcode : G1 X23.55463 Y-17.410149 F1500

Gcode : M5

Gcode : G1 Z-7.4303584 F1500

Gcode : G1 X24.016073 Y-17.360193 F1500

Gcode : M5

Gcode : G1 Z-7.4389353 F1500

Gcode : G1 X24.313147 Y-17.318386 F1500

Gcode : M5

Gcode : G1 Z-7.447795 F1500

Gcode : G1 X24.597101 Y-17.195065 F1500

Gcode : M5

Gcode : M9

Gcode : S1000

Gcode : M4

Gcode : G1 Z-7.488859 F1500

Gcode : G1 X25.088896 Y-16.887463 F1500

Gcode : M5

Gcode : G1 Z-7.5458922 F1500

Gcode : G1 X25.466724 Y-16.465944 F1500

Gcode : M5

Gcode : G1 Z-7.629165 F1500

Gcode : G1 X25.706839 Y-15.958769 F1500

Gcode : M5

Gcode : G1 Z-7.734603 F1500

Gcode : G1 X25.811777 Y-15.397867 F1500

Gcode : M5

Gcode : G1 Z-7.854009 F1500

Gcode : G1 X25.92399 Y-14.819815 F1500

Gcode : M5

Gcode : G1 Z-7.959242 F1500

Gcode : G1 X26.174723 Y-14.310942 F1500

Gcode : M5

Gcode : G1 Z-8.042514 F1500

Gcode : G1 X26.55564 Y-13.89815 F1500

Gcode : M5

Gcode : G1 Z-8.099753 F1500

Gcode : G1 X27.039185 Y-13.602254 F1500

Gcode : M5

Gcode : G1 Z-8.126843 F1500

Gcode : G1 X27.59814 Y-13.444676 F1500

Gcode : M5

Gcode : G1 Z-8.123275 F1500

Gcode : G1 X27.895283 Y-13.403353 F1500

Gcode : M5

Gcode : G1 Z-8.119588 F1500

Gcode : G1 X28.202152 Y-13.443257 F1500

Gcode : M5

Gcode : G1 Z-8.099079 F1500

Gcode : G1 X28.499302 Y-13.484514 F1500

Gcode : M5

Gcode : G1 Z-8.07783 F1500

Gcode : G1 X28.7841 Y-13.607936 F1500

Gcode : M5

Gcode : G1 Z-8.00732 F1500

Gcode : G1 X29.27564 Y-13.91585 F1500

Gcode : M5

Gcode : G1 Z-7.9144063 F1500

Gcode : G1 X29.653723 Y-14.338057 F1500

Gcode : M5

Gcode : G1 Z-7.8052683 F1500

Gcode : G1 X29.893991 Y-14.845184 F1500

Gcode : M5

Gcode : G1 Z-7.686091 F1500

Gcode : G1 X29.998775 Y-15.405134 F1500

Gcode : M5

Gcode : G1 Z-7.5630355 F1500

Gcode : G1 X30.11084 Y-15.9832325 F1500

Gcode : M5

Gcode : G1 Z-7.4436517 F1500

Gcode : G1 X30.361721 Y-16.49306 F1500

Gcode : M5

Gcode : G1 Z-7.334514 F1500

Gcode : G1 X30.742895 Y-16.90554 F1500

Gcode : M5

Gcode : G1 Z-7.2418046 F1500

Gcode : G1 X31.2261 Y-17.200937 F1500

Gcode : M5

Gcode : G1 Z-7.1712956 F1500

Gcode : G1 X31.784073 Y-17.358807 F1500

Gcode : M5

Gcode : G1 Z-7.150676 F1500

Gcode : G1 X32.081146 Y-17.400614 F1500

Gcode : M5

Gcode : G1 Z-7.1293726 F1500

Gcode : G1 X32.388084 Y-17.360262 F1500

Gcode : M5

Gcode : G1 Z-7.1258907 F1500

Gcode : G1 X32.685165 Y-17.318523 F1500

Gcode : M5

Gcode : M9

Gcode : S1000

Gcode : M4

Gcode : G1 Z-7.1222816 F1500

Gcode : G1 X32.9701 Y-17.195065 F1500

Gcode : M5

Gcode : G1 Z-7.1494126 F1500

Gcode : G1 X33.461895 Y-16.887463 F1500

Gcode : M5

Gcode : G1 Z-7.206446 F1500

Gcode : G1 X33.839725 Y-16.465944 F1500

Gcode : M5

Gcode : G1 Z-7.289719 F1500

Gcode : G1 X34.07984 Y-15.958769 F1500

Gcode : M5

Gcode : G1 Z-7.3951573 F1500

Gcode : G1 X34.18528 Y-15.397905 F1500

Gcode : M5

Gcode : G1 Z-7.514523 F1500

Gcode : G1 X34.297512 Y-14.819666 F1500

Gcode : M5

Gcode : G1 Z-7.6197953 F1500

Gcode : G1 X34.54772 Y-14.310942 F1500

Gcode : M5

Gcode : G1 Z-7.703068 F1500

Gcode : G1 X34.928642 Y-13.89815 F1500

Gcode : M5

Gcode : G1 Z-7.760307 F1500

Gcode : G1 X35.412186 Y-13.602254 F1500

Gcode : M5

Gcode : G1 Z-7.787398 F1500

Gcode : G1 X35.971138 Y-13.444676 F1500

Gcode : M5

Gcode : G1 Z-7.783828 F1500

Gcode : G1 X36.26828 Y-13.403353 F1500

Gcode : M5

Gcode : G1 Z-7.7801423 F1500

Gcode : G1 X36.57515 Y-13.443257 F1500

Gcode : M5

Gcode : G1 Z-7.759633 F1500

Gcode : G1 X36.8723 Y-13.484514 F1500

Gcode : M5

Gcode : G1 Z-7.7383842 F1500

Gcode : G1 X37.157097 Y-13.607936 F1500

Gcode : M5

Gcode : G1 Z-7.617037 F1500

Gcode : G1 X37.64864 Y-13.91585 F1500

Gcode : M5

Gcode : G1 Z-7.470608 F1500

Gcode : G1 X38.026722 Y-14.338058 F1500

Gcode : M5

Gcode : G1 Z-7.3226743 F1500

Gcode : G1 X38.26699 Y-14.845184 F1500

Gcode : M5

Gcode : G1 Z-7.182578 F1500

Gcode : G1 X38.371777 Y-15.405133 F1500

Gcode : M5

Gcode : G1 Z-7.054049 F1500

Gcode : G1 X38.48384 Y-15.9832325 F1500

Gcode : M5

Gcode : G1 Z-6.913746 F1500

Gcode : G1 X38.734722 Y-16.493061 F1500

Gcode : M5

Gcode : G1 Z-6.765812 F1500

Gcode : G1 X39.115894 Y-16.905539 F1500

Gcode : M5

Gcode : G1 Z-6.6195893 F1500

Gcode : G1 X39.599102 Y-17.200937 F1500

Gcode : M5

Gcode : G1 Z-6.484011 F1500

Gcode : G1 X40.15708 Y-17.358738 F1500

Gcode : M5

Gcode : G1 Z-6.4272738 F1500

Gcode : G1 X40.454166 Y-17.400478 F1500

Gcode : M5

Gcode : G1 Z-6.3684673 F1500

Gcode : G1 X40.762074 Y-17.360193 F1500

Gcode : M5

Gcode : M9

Gcode : S1000

Gcode : M4

Gcode : G1 Z-6.328869 F1500

Gcode : G1 X41.059147 Y-17.318386 F1500

Gcode : M5

Gcode : G1 Z-6.287957 F1500

Gcode : G1 X41.3431 Y-17.195065 F1500

Gcode : M5

Gcode : G1 Z-6.250021 F1500

Gcode : G1 X41.834896 Y-16.887463 F1500

Gcode : M5

Gcode : G1 Z-6.2535415 F1500

Gcode : G1 X42.212723 Y-16.465944 F1500

Gcode : M5

Gcode : G1 Z-6.2980165 F1500

Gcode : G1 X42.452843 Y-15.958769 F1500

Gcode : M5

Gcode : G1 Z-6.382535 F1500

Gcode : G1 X42.55828 Y-15.397905 F1500

Gcode : M5

Gcode : G1 Z-6.4963064 F1500

Gcode : G1 X42.67051 Y-14.819666 F1500

Gcode : M5

Gcode : G1 Z-6.5807824 F1500

Gcode : G1 X42.920723 Y-14.310942 F1500

Gcode : M5

Gcode : G1 Z-6.6252575 F1500

Gcode : G1 X43.30164 Y-13.89815 F1500

Gcode : M5

Gcode : G1 Z-6.6289825 F1500

Gcode : G1 X43.785187 Y-13.602254 F1500

Gcode : M5

Gcode : G1 Z-6.590884 F1500

Gcode : G1 X44.34414 Y-13.444676 F1500

Gcode : M5

Gcode : G1 Z-6.5511765 F1500

Gcode : G1 X44.64128 Y-13.403353 F1500

Gcode : M5

Gcode : G1 Z-6.510169 F1500

Gcode : G1 X44.94815 Y-13.443257 F1500

Gcode : M5

Gcode : G1 Z-6.45352 F1500

Gcode : G1 X45.2453 Y-13.484514 F1500

Gcode : M5

Gcode : G1 Z-6.39483 F1500

Gcode : G1 X45.530098 Y-13.607936 F1500

Gcode : M5

Gcode : G1 Z-6.259253 F1500

Gcode : G1 X46.02164 Y-13.91585 F1500

Gcode : M5

Gcode : G1 Z-6.112825 F1500

Gcode : G1 X46.399723 Y-14.338057 F1500

Gcode : M5

Gcode : G1 Z-5.96489 F1500

Gcode : G1 X46.63999 Y-14.845184 F1500

Gcode : M5

Gcode : G1 Z-5.824793 F1500

Gcode : G1 X46.744774 Y-15.405134 F1500

Gcode : M5

Gcode : G1 Z-5.6962657 F1500

Gcode : G1 X46.85684 Y-15.9832325 F1500

Gcode : M5

Gcode : G1 Z-5.555963 F1500

Gcode : G1 X47.10772 Y-16.49306 F1500

Gcode : M5

Gcode : G1 Z-5.4080276 F1500

Gcode : G1 X47.488895 Y-16.905539 F1500

Gcode : M5

Gcode : G1 Z-5.2618046 F1500

Gcode : G1 X47.972103 Y-17.200937 F1500

Gcode : M5

Gcode : G1 Z-5.1262274 F1500

Gcode : G1 X48.530083 Y-17.358738 F1500

Gcode : M5

Gcode : G1 Z-5.06949 F1500

Gcode : G1 X48.827168 Y-17.400478 F1500

Gcode : M5

Gcode : M9

Gcode : S1000

Gcode : M4

Gcode : G1 Z-5.010683 F1500

Gcode : G1 X49.135075 Y-17.360193 F1500

Gcode : M5

Gcode : G1 Z-4.9710855 F1500

Gcode : G1 X49.432148 Y-17.318386 F1500

Gcode : M5

Gcode : G1 Z-4.927214 F1500

Gcode : G1 X49.716103 Y-17.195065 F1500

Gcode : M5

Gcode : G1 Z-4.8727984 F1500

Gcode : G1 X50.207897 Y-16.887463 F1500

Gcode : M5

Gcode : G1 Z-4.8580976 F1500

Gcode : G1 X50.58572 Y-16.465944 F1500

Gcode : M5

Gcode : G1 Z-4.883281 F1500

Gcode : G1 X50.82584 Y-15.958769 F1500

Gcode : M5

Gcode : G1 Z-4.950051 F1500

Gcode : G1 X50.931282 Y-15.397905 F1500

Gcode : M5

Gcode : G1 Z-5.0496936 F1500

Gcode : G1 X51.04351 Y-14.819666 F1500

Gcode : M5

Gcode : G1 Z-5.112571 F1500

Gcode : G1 X51.29372 Y-14.310942 F1500

Gcode : M5

Gcode : G1 Z-5.1250362 F1500

Gcode : G1 X51.67464 Y-13.8981495 F1500

Gcode : M5

Gcode : G1 Z-5.0874243 F1500

Gcode : G1 X52.158184 Y-13.602254 F1500

Gcode : M5

Gcode : G1 Z-5.0015445 F1500

Gcode : G1 X52.717133 Y-13.444676 F1500

Gcode : M5

Gcode : G1 Z-4.9378014 F1500

Gcode : G1 X53.01427 Y-13.403353 F1500

Gcode : M5

Gcode : G1 Z-4.8716497 F1500

Gcode : G1 X53.321148 Y-13.443257 F1500

Gcode : M5

Gcode : G1 Z-4.79445 F1500

Gcode : G1 X53.618298 Y-13.484514 F1500

Gcode : M5

Gcode : G1 Z-4.714791 F1500

Gcode : G1 X53.903107 Y-13.607938 F1500

Gcode : M5

Gcode : G1 Z-4.55342 F1500

Gcode : G1 X54.39464 Y-13.915851 F1500

Gcode : M5

Gcode : G1 Z-4.399354 F1500

Gcode : G1 X54.772717 Y-14.338057 F1500

Gcode : M5

Gcode : G1 Z-4.262593 F1500

Gcode : G1 X55.01299 Y-14.845184 F1500

Gcode : M5

Gcode : G1 Z-4.1512074 F1500

Gcode : G1 X55.11778 Y-15.405133 F1500

Gcode : M5

Gcode : G1 Z-4.06302 F1500

Gcode : G1 X55.22984 Y-15.9832325 F1500

Gcode : M5

Gcode : G1 Z-3.955428 F1500

Gcode : G1 X55.48072 Y-16.49306 F1500

Gcode : M5

Gcode : G1 Z-3.831384 F1500

Gcode : G1 X55.861897 Y-16.90554 F1500

Gcode : M5

Gcode : G1 Z-3.700547 F1500

Gcode : G1 X56.3451 Y-17.200937 F1500

Gcode : M5

Gcode : G1 Z-3.5704033 F1500

Gcode : G1 X56.903084 Y-17.358738 F1500

Gcode : M5

Gcode : M9

Gcode : S1000

Gcode : M4

Gcode : G1 Z-3.5095177 F1500

Gcode : G1 X57.200165 Y-17.400478 F1500

Gcode : M5

Gcode : G1 Z-3.446738 F1500

Gcode : G1 X57.508068 Y-17.360193 F1500

Gcode : M5

Gcode : G1 Z-3.3951027 F1500

Gcode : G1 X57.805138 Y-17.318386 F1500

Gcode : M5

Gcode : G1 Z-3.341428 F1500

Gcode : G1 X58.0891 Y-17.195065 F1500

Gcode : M5

Gcode : G1 Z-3.2621536 F1500

Gcode : G1 X58.58111 Y-16.887722 F1500

Gcode : M5

Gcode : G1 Z-3.2091327 F1500

Gcode : G1 X58.959362 Y-16.465696 F1500

Gcode : M5

Gcode : G1 Z-3.1855283 F1500

Gcode : G1 X59.19884 Y-15.958769 F1500

Gcode : M5

Gcode : G1 Z-3.1950636 F1500

Gcode : G1 X59.30428 Y-15.397905 F1500

Gcode : M5

Gcode : G1 Z-3.2329779 F1500

Gcode : G1 X59.416992 Y-14.819814 F1500

Gcode : M5

Gcode : G1 Z-3.2385008 F1500

Gcode : G1 X59.66736 Y-14.310697 F1500

Gcode : M5

Gcode : G1 Z-3.2022047 F1500

Gcode : G1 X60.047646 Y-13.8981495 F1500

Gcode : M5

Gcode : G1 Z-3.1263664 F1500

Gcode : G1 X60.53119 Y-13.602254 F1500

Gcode : M5

Gcode : G1 Z-3.0156279 F1500

Gcode : G1 X61.090137 Y-13.444676 F1500

Gcode : M5

Gcode : G1 Z-2.947569 F1500

Gcode : G1 X61.387276 Y-13.403353 F1500

Gcode : M5

Gcode : G1 Z-2.8769615 F1500

Gcode : G1 X61.694145 Y-13.443257 F1500

Gcode : M5

Gcode : G1 Z-2.814518 F1500

Gcode : G1 X61.991295 Y-13.484514 F1500

Gcode : M5

Gcode : G1 Z-2.8564363 F1500

Gcode : G1 X62.276104 Y-13.607938 F1500

Gcode : M5

Gcode : G1 Z-2.924298 F1500

Gcode : G1 X62.76764 Y-13.91585 F1500

Gcode : M5

Gcode : G1 Z-2.9782631 F1500

Gcode : G1 X63.14572 Y-14.338057 F1500

Gcode : M5

Gcode : G1 Z-3.0158124 F1500

Gcode : G1 X63.385994 Y-14.845186 F1500

Gcode : M5

Gcode : G1 Z-3.031852 F1500

Gcode : G1 X63.490776 Y-15.405133 F1500

Gcode : M5

Gcode : G1 Z-3.0273502 F1500

Gcode : G1 X63.602837 Y-15.9832325 F1500

Gcode : M5

Gcode : G1 Z-3.0486026 F1500

Gcode : G1 X63.85372 Y-16.493061 F1500

Gcode : M5

Gcode : G1 Z-3.1031072 F1500

Gcode : G1 X64.23489 Y-16.905539 F1500

Gcode : M5

Gcode : G1 Z-3.1878889 F1500

Gcode : G1 X64.7181 Y-17.200937 F1500

Gcode : M5

Gcode : M9

Gcode : S1000

Gcode : M4

Gcode : G1 Z-3.2973876 F1500

Gcode : G1 X65.27608 Y-17.358738 F1500

Gcode : M5

Gcode : G1 Z-3.3592298 F1500

Gcode : G1 X65.573166 Y-17.400478 F1500

Gcode : M5

Gcode : G1 Z-3.4237623 F1500

Gcode : G1 X65.87914 Y-17.348265 F1500

Gcode : M5

Gcode : G1 Z-3.484247 F1500

Gcode : G1 X66.17429 Y-17.294529 F1500

Gcode : M5

Gcode : G1 Z-3.5442042 F1500

Gcode : G1 X66.46944 Y-17.240793 F1500

Gcode : M5

Gcode : G1 Z-3.6036336 F1500

Gcode : G1 X66.76459 Y-17.187057 F1500

Gcode : M5

Gcode : G1 Z-3.720174 F1500

Gcode : G1 X67.31394 Y-16.980816 F1500

Gcode : M5

Gcode : G1 Z-3.7662342 F1500

Gcode : G1 X67.571884 Y-16.82763 F1500

Gcode : M5

Gcode : G1 Z-3.8109794 F1500

Gcode : G1 X67.82982 Y-16.674442 F1500

Gcode : M5

Gcode : G1 Z-3.8544102 F1500

Gcode : G1 X68.08776 Y-16.52126 F1500

Gcode : M5

Gcode : G1 Z-3.9297252 F1500

Gcode : G1 X68.48767 Y-16.165392 F1500

Gcode : M5

Gcode : G1 Z-3.9518669 F1500

Gcode : G1 X68.678345 Y-15.933783 F1500

Gcode : M5

Gcode : G1 Z-3.9725397 F1500

Gcode : G1 X68.86902 Y-15.702174 F1500

Gcode : M5

Gcode : G1 Z-3.991743 F1500

Gcode : G1 X69.0597 Y-15.470566 F1500

Gcode : M5

Gcode : G1 Z-4.0224233 F1500

Gcode : G1 X69.30971 Y-15.0050535 F1500

Gcode : M5

Gcode : G1 Z-4.0182333 F1500

Gcode : G1 X69.40941 Y-14.722107 F1500

Gcode : M5

Gcode : G1 Z-4.0131054 F1500

Gcode : G1 X69.50912 Y-14.43916 F1500

Gcode : M5

Gcode : G1 Z-4.0070386 F1500

Gcode : G1 X69.608826 Y-14.156214 F1500

Gcode : M5

Gcode : G1 Z-3.9930575 F1500

Gcode : G1 X69.68968 Y-13.606089 F1500

Gcode : M5

Gcode : G1 Z-3.967319 F1500

Gcode : G1 X69.68237 Y-13.306177 F1500

Gcode : M5

Gcode : G1 Z-3.9416542 F1500

Gcode : G1 X69.675064 Y-13.006266 F1500

Gcode : M5

Gcode : G1 Z-3.9160619 F1500

Gcode : G1 X69.667755 Y-12.706354 F1500

Gcode : M5

Gcode : G1 Z-3.8905432 F1500

Gcode : G1 X69.660446 Y-12.406444 F1500

Gcode : M5

Gcode : G1 Z-3.8600626 F1500

Gcode : G1 X69.557495 Y-12.0646925 F1500

Gcode : M5

Gcode : G1 Z-3.8248758 F1500

Gcode : G1 X69.45599 Y-11.782385 F1500

Gcode : M5

Gcode : M9

Gcode : S1000

Gcode : M4

Gcode : G1 Z-3.7906418 F1500

Gcode : G1 X69.35449 Y-11.500076 F1500

Gcode : M5

Gcode : G1 Z-3.7573612 F1500

Gcode : G1 X69.253 Y-11.217768 F1500

Gcode : M5

Gcode : G1 Z-3.7147315 F1500

Gcode : G1 X69.044754 Y-10.882508 F1500

Gcode : M5

Gcode : G1 Z-3.6791184 F1500

Gcode : G1 X68.86951 Y-10.639015 F1500

Gcode : M5

Gcode : G1 Z-3.6148531 F1500

Gcode : G1 X68.4825 Y-10.219283 F1500

Gcode : M5

Gcode : G1 Z-3.581767 F1500

Gcode : G1 X68.256 Y-10.022566 F1500

Gcode : M5

Gcode : G1 Z-3.5233598 F1500

Gcode : G1 X67.79166 Y-9.704295 F1500

Gcode : M5

Gcode : G1 Z-3.5071914 F1500

Gcode : G1 X67.52831 Y-9.560591 F1500

Gcode : M5

Gcode : G1 Z-3.5318842 F1500

Gcode : G1 X67.002495 Y-9.341038 F1500

Gcode : M5

Gcode : G1 Z-3.531249 F1500

Gcode : G1 X66.71599 Y-9.252075 F1500

Gcode : M5

Gcode : G1 Z-3.5318465 F1500

Gcode : G1 X66.143814 Y-9.134089 F1500

Gcode : M5

Gcode : G1 Z-3.5181255 F1500

Gcode : G1 X65.84563 Y-9.101179 F1500

Gcode : M5

Gcode : G1 Z-3.50465 F1500

Gcode : G1 X65.54744 Y-9.06827 F1500

Gcode : M5

Gcode : G1 Z-3.491311 F1500

Gcode : G1 X65.2486 Y-9.021671 F1500

Gcode : M5

Gcode : G1 Z-3.4819853 F1500

Gcode : G1 X64.952194 Y-8.975344 F1500

Gcode : M5

Gcode : G1 Z-3.4729366 F1500

Gcode : G1 X64.67735 Y-8.849843 F1500

Gcode : M5

Gcode : G1 Z-3.5013058 F1500

Gcode : G1 X64.19585 Y-8.540384 F1500

Gcode : M5

Gcode : G1 Z-3.5734699 F1500

Gcode : G1 X63.8261 Y-8.119715 F1500

Gcode : M5

Gcode : G1 Z-3.685223 F1500

Gcode : G1 X63.592182 Y-7.61645 F1500

Gcode : M5

Gcode : G1 Z-3.8297584 F1500

Gcode : G1 X63.490105 Y-7.0618753 F1500

Gcode : M5

Gcode : G1 Z-3.9951615 F1500

Gcode : G1 X63.378162 Y-6.486767 F1500

Gcode : M5

Gcode : G1 Z-4.14508 F1500

Gcode : G1 X63.12728 Y-5.9769416 F1500

Gcode : M5

Gcode : G1 Z-4.2698846 F1500

Gcode : G1 X62.746105 Y-5.5644617 F1500

Gcode : M5

Gcode : G1 Z-4.3644753 F1500

Gcode : G1 X62.262897 Y-5.269063 F1500

Gcode : M5

Gcode : G1 Z-4.422422 F1500

Gcode : G1 X61.704918 Y-5.1112614 F1500

Gcode : M5

Gcode : M9

Gcode : S1000

Gcode : M4

Gcode : G1 Z-4.428192 F1500

Gcode : G1 X61.407837 Y-5.069523 F1500

Gcode : M5

Gcode : G1 Z-4.553893 F1500

Gcode : G1 X61.099926 Y-5.109807 F1500

Gcode : M5

Gcode : G1 Z-4.6651263 F1500

Gcode : G1 X60.802856 Y-5.151613 F1500

Gcode : M5

Gcode : G1 Z-4.7792916 F1500

Gcode : G1 X60.51881 Y-5.274747 F1500

Gcode : M5

Gcode : G1 Z-4.9201207 F1500

Gcode : G1 X60.026104 Y-5.5825396 F1500

Gcode : M5

Gcode : G1 Z-4.96885 F1500

Gcode : G1 X59.648643 Y-6.004303 F1500

Gcode : M5

Gcode : G1 Z-4.922165 F1500

Gcode : G1 X59.40916 Y-6.511233 F1500

Gcode : M5

Gcode : G1 Z-4.7826886 F1500

Gcode : G1 X59.303722 Y-7.072095 F1500

Gcode : M5

Gcode : G1 Z-4.5768456 F1500

Gcode : G1 X59.19101 Y-7.6501856 F1500

Gcode : M5

Gcode : G1 Z-4.4285717 F1500

Gcode : G1 X58.940643 Y-8.159305 F1500

Gcode : M5

Gcode : G1 Z-4.3522735 F1500

Gcode : G1 X58.56015 Y-8.571591 F1500

Gcode : M5

Gcode : G1 Z-4.3470607 F1500

Gcode : G1 X58.075897 Y-8.867937 F1500

Gcode : M5

Gcode : G1 Z-4.414608 F1500

Gcode : G1 X57.51786 Y-9.025324 F1500

Gcode : M5

Gcode : G1 Z-4.48785 F1500

Gcode : G1 X57.220722 Y-9.0666485 F1500

Gcode : M5

Gcode : G1 Z-4.5627394 F1500

Gcode : G1 X56.91385 Y-9.026743 F1500

Gcode : M5

Gcode : G1 Z-4.6713657 F1500

Gcode : G1 X56.6167 Y-8.985486 F1500

Gcode : M5

Gcode : G1 Z-4.7846565 F1500

Gcode : G1 X56.331898 Y-8.862064 F1500

Gcode : M5

Gcode : G1 Z-5.060403 F1500

Gcode : G1 X55.840355 Y-8.554151 F1500

Gcode : M5

Gcode : G1 Z-5.375037 F1500

Gcode : G1 X55.46228 Y-8.131942 F1500

Gcode : M5

Gcode : G1 Z-5.709338 F1500

Gcode : G1 X55.222008 Y-7.6248145 F1500

Gcode : M5

Gcode : G1 Z-6.039573 F1500

Gcode : G1 X55.117226 Y-7.064866 F1500

Gcode : M5

Gcode : G1 Z-6.3503585 F1500

Gcode : G1 X55.005157 Y-6.486768 F1500

Gcode : M5

Gcode : G1 Z-6.6902514 F1500

Gcode : G1 X54.75428 Y-5.9769416 F1500

Gcode : M5

Gcode : G1 Z-7.0542264 F1500

Gcode : G1 X54.3731 Y-5.5644603 F1500

Gcode : M5

Gcode : G1 Z-7.4222536 F1500

Gcode : G1 X53.8899 Y-5.269063 F1500

Gcode : M5

Gcode : M9

Gcode : S1000

Gcode : M4

Gcode : G1 Z-7.7708626 F1500

Gcode : G1 X53.33192 Y-5.1112614 F1500

Gcode : M5

Gcode : G1 Z-7.9178886 F1500

Gcode : G1 X53.03484 Y-5.069523 F1500

Gcode : M5

Gcode : G1 Z-8.07104 F1500

Gcode : G1 X52.72693 Y-5.1098065 F1500

Gcode : M5

Gcode : G1 Z-8.172085 F1500

Gcode : G1 X52.42986 Y-5.1516123 F1500

Gcode : M5

Gcode : G1 Z-8.275726 F1500

Gcode : G1 X52.145805 Y-5.274747 F1500

Gcode : M5

Gcode : G1 Z-8.358554 F1500

Gcode : G1 X51.6531 Y-5.5825396 F1500

Gcode : M5

Gcode : G1 Z-8.31833 F1500

Gcode : G1 X51.27528 Y-6.0040584 F1500

Gcode : M5

Gcode : G1 Z-8.157733 F1500

Gcode : G1 X51.035637 Y-6.5113807 F1500

Gcode : M5

Gcode : G1 Z-7.8843203 F1500

Gcode : G1 X50.930717 Y-7.072095 F1500

Gcode : M5

Gcode : G1 Z-7.534446 F1500

Gcode : G1 X50.818012 Y-7.6501846 F1500

Gcode : M5

Gcode : G1 Z-7.252868 F1500

Gcode : G1 X50.567276 Y-8.159059 F1500

Gcode : M5

Gcode : G1 Z-7.0625954 F1500

Gcode : G1 X50.186363 Y-8.571851 F1500

Gcode : M5

Gcode : G1 Z-6.9678607 F1500

Gcode : G1 X49.7029 Y-8.867937 F1500

Gcode : M5

Gcode : G1 Z-6.977406 F1500

Gcode : G1 X49.14486 Y-9.025324 F1500

Gcode : M5

Gcode : G1 Z-7.0119762 F1500

Gcode : G1 X48.84772 Y-9.0666485 F1500

Gcode : M5

Gcode : G1 Z-7.030777 F1500

Gcode : G1 X48.54085 Y-9.026743 F1500

Gcode : M5

Gcode : G1 Z-7.103533 F1500

Gcode : G1 X48.243702 Y-8.985486 F1500

Gcode : M5

Gcode : G1 Z-7.178585 F1500

Gcode : G1 X47.9589 Y-8.862064 F1500

Gcode : M5

Gcode : G1 Z-7.414041 F1500

Gcode : G1 X47.46736 Y-8.554152 F1500

Gcode : M5

Gcode : G1 Z-7.7144074 F1500

Gcode : G1 X47.089275 Y-8.131942 F1500

Gcode : M5

Gcode : G1 Z-8.059345 F1500

Gcode : G1 X46.849007 Y-7.6248145 F1500

Gcode : M5

Gcode : G1 Z-8.430449 F1500

Gcode : G1 X46.744225 Y-7.064866 F1500

Gcode : M5

Gcode : G1 Z-8.811154 F1500

Gcode : G1 X46.63216 Y-6.486768 F1500

Gcode : M5

Gcode : G1 Z-9.178966 F1500

Gcode : G1 X46.38128 Y-5.9769416 F1500

Gcode : M5

Gcode : G1 Z-9.511187 F1500

Gcode : G1 X46.000103 Y-5.564461 F1500

Gcode : M5

Gcode : M9

Gcode : S1000

Gcode : M4

Gcode : G1 Z-9.787821 F1500

Gcode : G1 X45.5169 Y-5.269063 F1500

Gcode : M5

Gcode : G1 Z-9.99205 F1500

Gcode : G1 X44.958916 Y-5.111261 F1500

Gcode : M5

Gcode : G1 Z-10.0487385 F1500

Gcode : G1 X44.661835 Y-5.069522 F1500

Gcode : M5

Gcode : G1 Z-10.107166 F1500

Gcode : G1 X44.353928 Y-5.1098065 F1500

Gcode : M5

Gcode : G1 Z-10.112717 F1500

Gcode : G1 X44.056854 Y-5.1516128 F1500

Gcode : M5

Gcode : G1 Z-10.118775 F1500

Gcode : G1 X43.772816 Y-5.274747 F1500

Gcode : M5

Gcode : G1 Z-10.033578 F1500

Gcode : G1 X43.280106 Y-5.5825377 F1500

Gcode : M5

Gcode : G1 Z-9.866183 F1500

Gcode : G1 X42.902275 Y-6.0040584 F1500

Gcode : M5

Gcode : G1 Z-9.627856 F1500

Gcode : G1 X42.662636 Y-6.5113816 F1500

Gcode : M5

Gcode : G1 Z-9.328892 F1500

Gcode : G1 X42.55772 Y-7.072095 F1500

Gcode : M5

Gcode : G1 Z-8.990761 F1500

Gcode : G1 X42.44501 Y-7.6501856 F1500

Gcode : M5

Gcode : G1 Z-8.696426 F1500

Gcode : G1 X42.19428 Y-8.159059 F1500

Gcode : M5

Gcode : G1 Z-8.470817 F1500

Gcode : G1 X41.813362 Y-8.57185 F1500

Gcode : M5

Gcode : G1 Z-8.325937 F1500

Gcode : G1 X41.3299 Y-8.867937 F1500

Gcode : M5

Gcode : G1 Z-8.271862 F1500

Gcode : G1 X40.77186 Y-9.025324 F1500

Gcode : M5

Gcode : G1 Z-8.294071 F1500

Gcode : G1 X40.47472 Y-9.0666485 F1500

Gcode : M5

Gcode : G1 Z-8.317329 F1500

Gcode : G1 X40.16785 Y-9.026743 F1500

Gcode : M5

Gcode : G1 Z-8.385776 F1500

Gcode : G1 X39.8707 Y-8.985486 F1500

Gcode : M5

Gcode : G1 Z-8.456365 F1500

Gcode : G1 X39.5859 Y-8.862064 F1500

Gcode : M5

Gcode : G1 Z-8.666964 F1500

Gcode : G1 X39.09436 Y-8.554152 F1500

Gcode : M5

Gcode : G1 Z-8.929103 F1500

Gcode : G1 X38.716278 Y-8.131941 F1500

Gcode : M5

Gcode : G1 Z-9.225055 F1500

Gcode : G1 X38.476013 Y-7.6248155 F1500

Gcode : M5

Gcode : G1 Z-9.539024 F1500

Gcode : G1 X38.371223 Y-7.064866 F1500

Gcode : M5

Gcode : G1 Z-9.8580065 F1500

Gcode : G1 X38.25916 Y-6.486768 F1500

Gcode : M5

Gcode : G1 Z-10.168582 F1500

Gcode : G1 X38.008278 Y-5.976941 F1500

Gcode : M5

Gcode : M9

Gcode : S1000

Gcode : M4

Gcode : G1 Z-10.451817 F1500

Gcode : G1 X37.627106 Y-5.5644617 F1500

Gcode : M5

Gcode : G1 Z-10.69033 F1500

Gcode : G1 X37.143898 Y-5.269063 F1500

Gcode : M5

Gcode : G1 Z-10.864416 F1500

Gcode : G1 X36.585915 Y-5.111261 F1500

Gcode : M5

Gcode : G1 Z-10.903615 F1500

Gcode : G1 X36.288834 Y-5.069522 F1500

Gcode : M5

Gcode : G1 Z-10.944351 F1500

Gcode : G1 X35.980927 Y-5.1098065 F1500

Gcode : M5

Gcode : G1 Z-10.940562 F1500

Gcode : G1 X35.683853 Y-5.1516128 F1500

Gcode : M5

Gcode : G1 Z-10.936539 F1500

Gcode : G1 X35.399815 Y-5.274747 F1500

Gcode : M5

Gcode : G1 Z-10.84462 F1500

Gcode : G1 X34.907104 Y-5.5825386 F1500

Gcode : M5

Gcode : G1 Z-10.679759 F1500

Gcode : G1 X34.529278 Y-6.0040584 F1500

Gcode : M5

Gcode : G1 Z-10.452365 F1500

Gcode : G1 X34.289635 Y-6.5113816 F1500

Gcode : M5

Gcode : G1 Z-10.174417 F1500

Gcode : G1 X34.18472 Y-7.072095 F1500

Gcode : M5

Gcode : G1 Z-9.8668 F1500

Gcode : G1 X34.072014 Y-7.6501856 F1500

Gcode : M5

Gcode : G1 Z-9.5881195 F1500

Gcode : G1 X33.82128 Y-8.159059 F1500

Gcode : M5

Gcode : G1 Z-9.356486 F1500

Gcode : G1 X33.44036 Y-8.571849 F1500

Gcode : M5

Gcode : G1 Z-9.183403 F1500

Gcode : G1 X32.956898 Y-8.867937 F1500

Gcode : M5

Gcode : G1 Z-9.081016 F1500

Gcode : G1 X32.39885 Y-9.025257 F1500

Gcode : M5

Gcode : G1 Z-9.072062 F1500

Gcode : G1 X32.1017 Y-9.066515 F1500

Gcode : M5

Gcode : G1 Z-9.062678 F1500

Gcode : G1 X31.79386 Y-9.026676 F1500

Gcode : M5

Gcode : G1 Z-9.097653 F1500

Gcode : G1 X31.49672 Y-8.9853525 F1500

Gcode : M5

Gcode : G1 Z-9.13388 F1500

Gcode : G1 X31.212896 Y-8.862064 F1500

Gcode : M5

Gcode : G1 Z-9.285309 F1500

Gcode : G1 X30.721363 Y-8.554152 F1500

Gcode : M5

Gcode : G1 Z-9.50255 F1500

Gcode : G1 X30.343277 Y-8.131942 F1500

Gcode : M5

Gcode : G1 Z-9.771087 F1500

Gcode : G1 X30.103008 Y-7.6248145 F1500

Gcode : M5

Gcode : G1 Z-10.075762 F1500

Gcode : G1 X29.998224 Y-7.064866 F1500

Gcode : M5

Gcode : G1 Z-10.398369 F1500

Gcode : G1 X29.88616 Y-6.486768 F1500

Gcode : M5

Gcode : M9

Gcode : S1000

Gcode : M4

Gcode : G1 Z-10.704895 F1500

Gcode : G1 X29.635279 Y-5.9769416 F1500

Gcode : M5

Gcode : G1 Z-10.977671 F1500

Gcode : G1 X29.254105 Y-5.564461 F1500

Gcode : M5

Gcode : G1 Z-11.202067 F1500

Gcode : G1 X28.770899 Y-5.269063 F1500

Gcode : M5

Gcode : G1 Z-11.363906 F1500

Gcode : G1 X28.212917 Y-5.111261 F1500

Gcode : M5

Gcode : G1 Z-11.404558 F1500

Gcode : G1 X27.915836 Y-5.069522 F1500

Gcode : M5

Gcode : G1 Z-11.446801 F1500

Gcode : G1 X27.60793 Y-5.1098065 F1500

Gcode : M5

Gcode : G1 Z-11.441557 F1500

Gcode : G1 X27.310856 Y-5.1516128 F1500

Gcode : M5

Gcode : G1 Z-11.436029 F1500

Gcode : G1 X27.026815 Y-5.274746 F1500

Gcode : M5

Gcode : G1 Z-11.335825 F1500

Gcode : G1 X26.534103 Y-5.5825386 F1500

Gcode : M5

Gcode : G1 Z-11.158257 F1500

Gcode : G1 X26.156277 Y-6.0040584 F1500

Gcode : M5

Gcode : G1 Z-10.914535 F1500

Gcode : G1 X25.916159 Y-6.511232 F1500

Gcode : M5

Gcode : G1 Z-10.61756 F1500

Gcode : G1 X25.811222 Y-7.0721335 F1500

Gcode : M5

Gcode : G1 Z-10.289314 F1500

Gcode : G1 X25.69901 Y-7.6501856 F1500

Gcode : M5

Gcode : G1 Z-9.991591 F1500

Gcode : G1 X25.448278 Y-8.159059 F1500

Gcode : M5

Gcode : G1 Z-9.743629 F1500

Gcode : G1 X25.067364 Y-8.571849 F1500

Gcode : M5

Gcode : G1 Z-9.557803 F1500

Gcode : G1 X24.583899 Y-8.867937 F1500

Gcode : M5

Gcode : G1 Z-9.431008 F1500

Gcode : G1 X24.02586 Y-9.025324 F1500

Gcode : M5

Gcode : G1 Z-9.40686 F1500

Gcode : G1 X23.728718 Y-9.0666485 F1500

Gcode : M5

Gcode : G1 Z-9.3820305 F1500

Gcode : G1 X23.42185 Y-9.026743 F1500

Gcode : M5

Gcode : G1 Z-9.404247 F1500

Gcode : G1 X23.1247 Y-8.985486 F1500

Gcode : M5

Gcode : G1 Z-9.427157 F1500

Gcode : G1 X22.8399 Y-8.862063 F1500

Gcode : M5

Gcode : G1 Z-9.557644 F1500

Gcode : G1 X22.348362 Y-8.554152 F1500

Gcode : M5

Gcode : G1 Z-9.758421 F1500

Gcode : G1 X21.970278 Y-8.131942 F1500

Gcode : M5

Gcode : G1 Z-10.015617 F1500

Gcode : G1 X21.730011 Y-7.6248145 F1500

Gcode : M5

Gcode : G1 Z-10.316001 F1500

Gcode : G1 X21.625225 Y-7.064866 F1500

Gcode : M5

Gcode : M9

Gcode : S1000

Gcode : M4

Gcode : G1 Z-10.641411 F1500

Gcode : G1 X21.51316 Y-6.486768 F1500

Gcode : M5

Gcode : G1 Z-10.941037 F1500

Gcode : G1 X21.262278 Y-5.9769416 F1500

Gcode : M5

Gcode : G1 Z-11.193993 F1500

Gcode : G1 X20.881104 Y-5.564461 F1500

Gcode : M5

Gcode : G1 Z-11.386521 F1500

Gcode : G1 X20.3979 Y-5.269063 F1500

Gcode : M5

Gcode : G1 Z-11.506598 F1500

Gcode : G1 X19.839815 Y-5.1119924 F1500

Gcode : M5

Gcode : G1 Z-11.523228 F1500

Gcode : G1 X19.54263 Y-5.070985 F1500

Gcode : M5

Gcode : G1 Z-11.540954 F1500

Gcode : G1 X19.221706 Y-5.08859 F1500

Gcode : M5

Gcode : G1 Z-11.51788 F1500

Gcode : G1 X18.819973 Y-5.15556 F1500

Gcode : M5

Gcode : G1 Z-11.467724 F1500

Gcode : G1 X18.440723 Y-5.273764 F1500

Gcode : M5

Gcode : G1 Z-11.391302 F1500

Gcode : G1 X18.085827 Y-5.438473 F1500

Gcode : M5

Gcode : G1 Z-11.29155 F1500

Gcode : G1 X17.758228 Y-5.6456676 F1500

Gcode : M5

