%
(1001)
(T1  D=1.587 CR=0.381 - ZMIN=0 - bullnose end mill)
G90 G94
G17
G21
G28 G91 Z0
G90

(Trace3)
M9
T1 M6
S10000 M3
G54
M8
G0 X5 Y-6.422
Z16
Z5
G1 Z0 F381
X15
Z5
G0 Z6
X22.333
Z5
G1 Z0 F381
X32.333
Z5
G0 Z6
X39.667
Z5
G1 Z0 F381
X49.667
Z5
G0 Z6
X57
Z5
G1 Z0 F381
X67
Z5
G0 Z6
X57 Y-11.422
Z5
G1 Z0 F381
X67
Z5
G0 Z6
X57 Y-16.422
Z5
G1 Z0 F381
X67
Z5
G0 Z6
X57 Y-21.422
Z5
G1 Z0 F381
X67
Z5
G0 Z6
X57 Y-26.422
Z5
G1 Z0 F381
X67
Z5
G0 Z6
X57 Y-31.422
Z5
G1 Z0 F381
X67
Z5
G0 Z6
X39.667
Z5
G1 Z0 F381
X49.667
Z5
G0 Z6
X39.667 Y-26.422
Z5
G1 Z0 F381
X49.667
Z5
G0 Z6
X39.667 Y-21.422
Z5
G1 Z0 F381
X49.667
Z5
G0 Z6
X39.667 Y-16.422
Z5
G1 Z0 F381
X49.667
Z5
G0 Z6
X39.667 Y-11.422
Z5
G1 Z0 F381
X49.667
Z5
G0 Z6
X22.333
Z5
G1 Z0 F381
X32.333
Z5
G0 Z6
X22.333 Y-16.422
Z5
G1 Z0 F381
X32.333
Z5
G0 Z6
X22.333 Y-21.422
Z5
G1 Z0 F381
X32.333
Z5
G0 Z6
X22.333 Y-26.422
Z5
G1 Z0 F381
X32.333
Z5
G0 Z6
X22.333 Y-31.422
Z5
G1 Z0 F381
X32.333
Z5
G0 Z6
X5
Z5
G1 Z0 F381
X15
Z5
G0 Z6
X5 Y-26.422
Z5
G1 Z0 F381
X15
Z5
G0 Z6
X5 Y-21.422
Z5
G1 Z0 F381
X15
Z5
G0 Z6
X5 Y-16.422
Z5
G1 Z0 F381
X15
Z5
G0 Z6
X5 Y-11.422
Z5
G1 Z0 F381
X15
Z5
G0 Z16
M9
G28 G91 Z0
G90
G28 G91 X0 Y0
G90
M30
%
