(1001)
(T2  D=1.587 CR=0.381 - ZMIN=0 - bullnose end mill)
G90 G94
G17
G21
G28 G91 Z0
G90

(Trace10)
T2 M6
S10000 M3
G54
M8
G0 X1.256 Y-17.407
Z15
Z5
G1 Z0 F381
X13.523 Y-17.398
X13.929 Y-17.371
X14.32 Y-17.291
X14.69 Y-17.162
X15.036 Y-16.989
X15.355 Y-16.773
X15.643 Y-16.52
X15.897 Y-16.231
X16.112 Y-15.912
X16.286 Y-15.566
X16.414 Y-15.196
X16.494 Y-14.805
X16.521 Y-14.398
X16.528 Y-7.863
X16.582 Y-7.464
X16.687 Y-7.083
X16.839 Y-6.724
X17.034 Y-6.391
X17.269 Y-6.087
X17.54 Y-5.816
X17.844 Y-5.581
X18.177 Y-5.386
X18.536 Y-5.234
X18.917 Y-5.129
X19.316 Y-5.075
X19.532 Y-5.068
X20.137 Y-5.153
X20.672 Y-5.391
X21.112 Y-5.756
X21.431 Y-6.225
X21.603 Y-6.773
X21.648 Y-7.364
X21.82 Y-7.911
X22.139 Y-8.38
X22.579 Y-8.746
X23.114 Y-8.984
X23.719 Y-9.068
X24.323 Y-8.984
X24.858 Y-8.746
X25.298 Y-8.38
X25.617 Y-7.911
X25.789 Y-7.364
X25.834 Y-6.773
X26.006 Y-6.225
X26.325 Y-5.756
X26.765 Y-5.391
X27.301 Y-5.153
X27.905 Y-5.068
X28.51 Y-5.153
X29.045 Y-5.391
X29.485 Y-5.756
X29.804 Y-6.225
X29.976 Y-6.773
X30.021 Y-7.364
X30.193 Y-7.911
X30.512 Y-8.38
X30.952 Y-8.746
X31.487 Y-8.984
X32.091 Y-9.068
X32.696 Y-8.984
X33.231 Y-8.746
X33.671 Y-8.38
X33.99 Y-7.911
X34.162 Y-7.364
X34.208 Y-6.773
X34.379 Y-6.225
X34.698 Y-5.756
X35.138 Y-5.391
X35.674 Y-5.153
X36.278 Y-5.068
X36.883 Y-5.153
X37.418 Y-5.391
X37.858 Y-5.756
X38.177 Y-6.225
X38.349 Y-6.773
X38.394 Y-7.364
X38.566 Y-7.911
X38.885 Y-8.38
X39.325 Y-8.746
X39.86 Y-8.984
X40.465 Y-9.068
X41.069 Y-8.984
X41.604 Y-8.746
X42.044 Y-8.38
X42.363 Y-7.911
X42.535 Y-7.364
X42.581 Y-6.773
X42.752 Y-6.225
X43.071 Y-5.756
X43.511 Y-5.391
X44.047 Y-5.153
X44.651 Y-5.068
X45.256 Y-5.153
X45.791 Y-5.391
X46.231 Y-5.756
X46.55 Y-6.225
X46.722 Y-6.773
X46.767 Y-7.364
X46.939 Y-7.911
X47.258 Y-8.38
X47.698 Y-8.746
X48.233 Y-8.984
X48.838 Y-9.068
X49.442 Y-8.984
X49.977 Y-8.746
X50.417 Y-8.38
X50.736 Y-7.911
X50.908 Y-7.364
X50.954 Y-6.773
X51.125 Y-6.225
X51.444 Y-5.756
X51.884 Y-5.391
X52.42 Y-5.153
X53.024 Y-5.068
X53.629 Y-5.153
X54.164 Y-5.391
X54.604 Y-5.756
X54.923 Y-6.225
X55.095 Y-6.773
X55.14 Y-7.364
X55.312 Y-7.911
X55.631 Y-8.38
X56.071 Y-8.746
X56.606 Y-8.984
X57.211 Y-9.068
X57.815 Y-8.984
X58.35 Y-8.746
X58.791 Y-8.38
X59.109 Y-7.911
X59.281 Y-7.364
X59.327 Y-6.773
X59.499 Y-6.225
X59.817 Y-5.756
X60.257 Y-5.391
X60.793 Y-5.153
X61.397 Y-5.068
X62.002 Y-5.153
X62.537 Y-5.391
X62.977 Y-5.756
X63.296 Y-6.225
X63.468 Y-6.773
X63.513 Y-7.361
X63.681 Y-7.903
X63.993 Y-8.369
X64.425 Y-8.734
X64.95 Y-8.975
X65.545 Y-9.068
X66.442 Y-9.167
X67.289 Y-9.43
X68.055 Y-9.848
X68.709 Y-10.416
X69.22 Y-11.126
X69.659 Y-12.347
X69.697 Y-13.906
X69.21 Y-15.288
X68.297 Y-16.397
X67.056 Y-17.134
X65.584 Y-17.402
X64.979 Y-17.317
X64.444 Y-17.079
X64.004 Y-16.714
X63.685 Y-16.245
X63.513 Y-15.697
X63.468 Y-15.106
X63.296 Y-14.559
X62.977 Y-14.09
X62.537 Y-13.724
X62.002 Y-13.486
X61.397 Y-13.402
X60.793 Y-13.486
X60.257 Y-13.724
X59.817 Y-14.09
X59.499 Y-14.559
X59.327 Y-15.106
X59.281 Y-15.697
X59.109 Y-16.245
X58.791 Y-16.714
X58.35 Y-17.079
X57.815 Y-17.317
X57.211 Y-17.402
X56.606 Y-17.317
X56.071 Y-17.079
X55.631 Y-16.714
X55.312 Y-16.245
X55.14 Y-15.697
X55.095 Y-15.106
X54.923 Y-14.559
X54.604 Y-14.09
X54.164 Y-13.724
X53.629 Y-13.486
X53.024 Y-13.402
X52.42 Y-13.486
X51.884 Y-13.724
X51.444 Y-14.09
X51.125 Y-14.559
X50.954 Y-15.106
X50.908 Y-15.697
X50.736 Y-16.245
X50.417 Y-16.714
X49.977 Y-17.079
X49.442 Y-17.317
X48.838 Y-17.402
X48.233 Y-17.317
X47.698 Y-17.079
X47.258 Y-16.714
X46.939 Y-16.245
X46.767 Y-15.697
X46.722 Y-15.106
X46.55 Y-14.559
X46.231 Y-14.09
X45.791 Y-13.724
X45.256 Y-13.486
X44.651 Y-13.402
X44.047 Y-13.486
X43.511 Y-13.724
X43.071 Y-14.09
X42.752 Y-14.559
X42.581 Y-15.106
X42.535 Y-15.697
X42.363 Y-16.245
X42.044 Y-16.714
X41.604 Y-17.079
X41.069 Y-17.317
X40.465 Y-17.402
X39.86 Y-17.317
X39.325 Y-17.079
X38.885 Y-16.714
X38.566 Y-16.245
X38.394 Y-15.697
X38.349 Y-15.106
X38.177 Y-14.559
X37.858 Y-14.09
X37.418 Y-13.724
X36.883 Y-13.486
X36.278 Y-13.402
X35.674 Y-13.486
X35.138 Y-13.724
X34.698 Y-14.09
X34.379 Y-14.559
X34.208 Y-15.106
X34.162 Y-15.697
X33.99 Y-16.245
X33.671 Y-16.714
X33.231 Y-17.079
X32.696 Y-17.317
X32.091 Y-17.402
X31.487 Y-17.317
X30.952 Y-17.079
X30.512 Y-16.714
X30.193 Y-16.245
X30.021 Y-15.697
X29.976 Y-15.106
X29.804 Y-14.559
X29.485 Y-14.09
X29.045 Y-13.724
X28.51 Y-13.486
X27.905 Y-13.402
X27.301 Y-13.486
X26.765 Y-13.724
X26.325 Y-14.09
X26.006 Y-14.559
X25.834 Y-15.106
X25.789 Y-15.697
X25.617 Y-16.245
X25.298 Y-16.714
X24.858 Y-17.079
X24.323 Y-17.317
X23.699 Y-17.402
X23.255 Y-17.425
X22.821 Y-17.493
X22.4 Y-17.604
X21.995 Y-17.756
X21.61 Y-17.948
X21.247 Y-18.177
X20.911 Y-18.442
X20.604 Y-18.741
X20.33 Y-19.071
X20.093 Y-19.431
X19.895 Y-19.82
X19.739 Y-20.235
X19.577 Y-20.945
X19.533 Y-21.638
X19.597 Y-22.304
X19.761 Y-22.935
X20.018 Y-23.524
X20.359 Y-24.06
X20.775 Y-24.537
X21.259 Y-24.946
X21.801 Y-25.279
X22.394 Y-25.527
X23.029 Y-25.681
X23.719 Y-25.735
X24.279 Y-25.663
X24.782 Y-25.458
X25.207 Y-25.141
X25.534 Y-24.731
X25.743 Y-24.247
X25.895 Y-23.176
X26.114 Y-22.698
X26.451 Y-22.296
X26.884 Y-21.989
X27.393 Y-21.795
X27.958 Y-21.736
X28.514 Y-21.821
X29.011 Y-22.037
X29.428 Y-22.363
X29.745 Y-22.78
X29.941 Y-23.27
X30 Y-23.81
X30.096 Y-24.34
X30.327 Y-24.811
X30.673 Y-25.206
X31.114 Y-25.504
X31.629 Y-25.686
X32.197 Y-25.733
X32.748 Y-25.635
X33.239 Y-25.408
X33.648 Y-25.073
X33.955 Y-24.648
X34.139 Y-24.153
X34.189 Y-23.609
X34.298 Y-23.085
X34.541 Y-22.619
X34.896 Y-22.233
X35.345 Y-21.944
X35.866 Y-21.774
X36.436 Y-21.74
X36.982 Y-21.851
X37.466 Y-22.088
X37.867 Y-22.433
X38.163 Y-22.865
X38.335 Y-23.365
X38.379 Y-23.91
X38.501 Y-24.43
X38.755 Y-24.889
X39.12 Y-25.268
X39.576 Y-25.546
X40.102 Y-25.705
X40.674 Y-25.725
X41.216 Y-25.602
X41.693 Y-25.355
X42.085 Y-25.001
X42.371 Y-24.562
X42.531 Y-24.057
X42.571 Y-23.51
X42.706 Y-22.995
X42.971 Y-22.542
X43.345 Y-22.172
X43.808 Y-21.904
X44.34 Y-21.757
X44.912 Y-21.75
X45.449 Y-21.885
X45.919 Y-22.143
X46.302 Y-22.505
X46.577 Y-22.951
X46.725 Y-23.462
X46.764 Y-24.008
X46.911 Y-24.519
X47.187 Y-24.965
X47.57 Y-25.327
X48.04 Y-25.585
X48.577 Y-25.72
X49.149 Y-25.713
X49.681 Y-25.566
X50.144 Y-25.298
X50.518 Y-24.927
X50.783 Y-24.475
X50.918 Y-23.959
X50.958 Y-23.413
X51.118 Y-22.907
X51.404 Y-22.468
X51.796 Y-22.115
X52.273 Y-21.868
X52.815 Y-21.745
X53.386 Y-21.765
X53.913 Y-21.924
X54.369 Y-22.202
X54.734 Y-22.58
X54.987 Y-23.04
X55.11 Y-23.56
X55.153 Y-24.105
X55.326 Y-24.605
X55.622 Y-25.037
X56.022 Y-25.382
X56.506 Y-25.619
X57.053 Y-25.729
X57.623 Y-25.696
X58.144 Y-25.526
X58.592 Y-25.237
X58.948 Y-24.851
X59.191 Y-24.385
X59.3 Y-23.861
X59.35 Y-23.317
X59.534 Y-22.822
X59.841 Y-22.397
X60.25 Y-22.062
X60.74 Y-21.835
X61.292 Y-21.737
X61.859 Y-21.784
X62.375 Y-21.966
X62.815 Y-22.264
X63.162 Y-22.659
X63.393 Y-23.13
X63.489 Y-23.659
X63.546 Y-24.195
X63.738 Y-24.68
X64.049 Y-25.095
X64.458 Y-25.421
X64.946 Y-25.64
X65.493 Y-25.733
X66.301 Y-25.807
X67.095 Y-26.02
X67.826 Y-26.367
X68.469 Y-26.844
X69.002 Y-27.445
X69.398 Y-28.164
X69.741 Y-29.623
X69.599 Y-31.018
X69.035 Y-32.236
X68.127 Y-33.203
X66.95 Y-33.839
X65.584 Y-34.068
X65.023 Y-33.996
X64.52 Y-33.791
X64.095 Y-33.474
X63.768 Y-33.064
X63.56 Y-32.581
X63.408 Y-31.51
X63.188 Y-31.032
X62.851 Y-30.629
X62.418 Y-30.322
X61.909 Y-30.128
X61.344 Y-30.069
X60.788 Y-30.154
X60.291 Y-30.37
X59.874 Y-30.696
X59.557 Y-31.114
X59.361 Y-31.603
X59.302 Y-32.144
X59.207 Y-32.673
X58.975 Y-33.145
X58.629 Y-33.539
X58.188 Y-33.837
X57.673 Y-34.019
X57.105 Y-34.066
X56.554 Y-33.968
X56.063 Y-33.741
X55.654 Y-33.406
X55.348 Y-32.981
X55.163 Y-32.486
X55.113 Y-31.943
X55.004 Y-31.418
X54.762 Y-30.952
X54.406 Y-30.566
X53.957 Y-30.278
X53.437 Y-30.107
X52.867 Y-30.074
X52.32 Y-30.184
X51.836 Y-30.421
X51.436 Y-30.766
X51.139 Y-31.198
X50.967 Y-31.698
X50.923 Y-32.243
X50.801 Y-32.764
X50.547 Y-33.223
X50.182 Y-33.601
X49.726 Y-33.88
X49.2 Y-34.039
X48.628 Y-34.058
X48.086 Y-33.936
X47.609 Y-33.688
X47.217 Y-33.335
X46.931 Y-32.896
X46.771 Y-32.39
X46.731 Y-31.844
X46.596 Y-31.328
X46.332 Y-30.876
X45.958 Y-30.506
X45.494 Y-30.237
X44.963 Y-30.09
X44.39 Y-30.084
X43.854 Y-30.219
X43.383 Y-30.477
X43 Y-30.838
X42.725 Y-31.284
X42.577 Y-31.795
X42.538 Y-32.342
X42.391 Y-32.852
X42.115 Y-33.298
X41.732 Y-33.66
X41.262 Y-33.918
X40.725 Y-34.053
X40.153 Y-34.046
X39.621 Y-33.899
X39.158 Y-33.631
X38.784 Y-33.261
X38.519 Y-32.808
X38.384 Y-32.293
X38.344 Y-31.746
X38.184 Y-31.241
X37.898 Y-30.802
X37.506 Y-30.449
X37.029 Y-30.201
X36.487 Y-30.078
X35.916 Y-30.098
X35.389 Y-30.257
X34.934 Y-30.535
X34.569 Y-30.914
X34.315 Y-31.373
X34.193 Y-31.893
X34.149 Y-32.438
X33.977 Y-32.939
X33.68 Y-33.371
X33.28 Y-33.715
X32.796 Y-33.952
X32.249 Y-34.063
X31.679 Y-34.029
X31.158 Y-33.859
X30.71 Y-33.571
X30.354 Y-33.184
X30.111 Y-32.719
X30.002 Y-32.194
X29.952 Y-31.65
X29.768 Y-31.156
X29.461 Y-30.731
X29.052 Y-30.395
X28.562 Y-30.169
X28.01 Y-30.071
X27.443 Y-30.117
X26.928 Y-30.299
X26.487 Y-30.597
X26.14 Y-30.992
X25.909 Y-31.463
X25.813 Y-31.993
X25.755 Y-32.534
X25.558 Y-33.023
X25.241 Y-33.44
X24.824 Y-33.767
X24.327 Y-33.982
X23.771 Y-34.068
X23.207 Y-34.008
X22.698 Y-33.815
X22.265 Y-33.507
X21.928 Y-33.105
X21.708 Y-32.627
X21.556 Y-31.556
X21.348 Y-31.073
X21.021 Y-30.662
X20.596 Y-30.345
X20.093 Y-30.141
X19.521 Y-30.068
X19.114 Y-30.041
X18.724 Y-29.961
X18.354 Y-29.833
X18.007 Y-29.659
X17.688 Y-29.443
X17.4 Y-29.19
X17.146 Y-28.902
X16.931 Y-28.582
X16.757 Y-28.236
X16.629 Y-27.866
X16.549 Y-27.475
X16.521 Y-27.068
X16.514 Y-24.363
X16.461 Y-23.964
X16.356 Y-23.583
X16.204 Y-23.224
X16.009 Y-22.891
X15.774 Y-22.587
X15.503 Y-22.316
X15.199 Y-22.081
X14.866 Y-21.885
X14.507 Y-21.734
X14.126 Y-21.629
X13.727 Y-21.575
X1.351 Y-21.568
Z5
G0 Y-25.568
G1 Z0 F381
Z5
G0 Z15
M9
G28 G91 Z0
G90
G28 G91 X0 Y0
G90
M5
M30
