(1001)
(T2  D=1.587 CR=0.381 - ZMIN=0 - bullnose end mill)
G90 G94
G17
G21
G28 G91 Z0
G90

(Trace15)
T2 M6
S10000 M3
G54
M8
G0 X26.33 Y-26.172
Z15
Z5
G1 Z0 F381
X26.317 Y-26.202
Y-26.245
X26.352 Y-26.362
X26.431 Y-26.517
X26.544 Y-26.7
X26.685 Y-26.901
X26.845 Y-27.11
X27.02 Y-27.32
X27.206 Y-27.524
X27.402 Y-27.719
X27.609 Y-27.905
X27.829 Y-28.08
X28.064 Y-28.245
X28.317 Y-28.403
X28.591 Y-28.555
X28.888 Y-28.703
X29.209 Y-28.847
X29.556 Y-28.99
X29.927 Y-29.13
X30.321 Y-29.267
X30.736 Y-29.402
X31.169 Y-29.532
X31.617 Y-29.656
X32.077 Y-29.773
X32.545 Y-29.881
X33.018 Y-29.979
X33.493 Y-30.065
X33.966 Y-30.137
X34.435 Y-30.195
X34.898 Y-30.237
X35.354 Y-30.264
X35.801 Y-30.274
X36.239 Y-30.269
X36.669 Y-30.248
X37.091 Y-30.211
X37.505 Y-30.16
X37.911 Y-30.094
X38.313 Y-30.014
X38.709 Y-29.921
X39.101 Y-29.815
X39.489 Y-29.695
X39.875 Y-29.563
X40.259 Y-29.417
X40.64 Y-29.257
X41.018 Y-29.082
X41.393 Y-28.891
X41.763 Y-28.684
X42.128 Y-28.459
X42.487 Y-28.218
X42.838 Y-27.959
X43.18 Y-27.684
X43.512 Y-27.393
X43.831 Y-27.09
X44.137 Y-26.778
X44.428 Y-26.459
X44.702 Y-26.141
X44.959 Y-25.829
X45.196 Y-25.53
X45.414 Y-25.252
X45.609 Y-25.003
X45.78 Y-24.792
X45.927 Y-24.626
X46.046 Y-24.511
X46.134 Y-24.456
X46.167 Y-24.453
X46.19 Y-24.465
X46.205 Y-24.496
X46.211 Y-24.543
X46.192 Y-24.692
X46.133 Y-24.911
X46.03 Y-25.198
X45.885 Y-25.546
X45.696 Y-25.949
X45.465 Y-26.397
X45.195 Y-26.879
X44.887 Y-27.382
X44.546 Y-27.896
X44.176 Y-28.407
X43.781 Y-28.904
X43.368 Y-29.376
X42.942 Y-29.812
X42.51 Y-30.204
X42.08 Y-30.547
X41.659 Y-30.836
X41.256 Y-31.071
X40.877 Y-31.254
X40.534 Y-31.391
X40.233 Y-31.49
X39.982 Y-31.56
X39.789 Y-31.611
X39.657 Y-31.649
X39.59 Y-31.684
X39.582 Y-31.702
X39.59 Y-31.72
X39.654 Y-31.758
X39.777 Y-31.796
X39.954 Y-31.83
X40.177 Y-31.855
X40.439 Y-31.867
X40.733 Y-31.86
X41.051 Y-31.832
X41.389 Y-31.781
X41.739 Y-31.705
X42.097 Y-31.604
X42.459 Y-31.479
X42.819 Y-31.33
X43.176 Y-31.159
X43.525 Y-30.968
X43.864 Y-30.758
X44.192 Y-30.532
X44.507 Y-30.293
X44.808 Y-30.042
X45.095 Y-29.783
X45.367 Y-29.517
X45.625 Y-29.247
X45.87 Y-28.975
X46.103 Y-28.702
X46.325 Y-28.43
X46.536 Y-28.159
X46.74 Y-27.89
X46.936 Y-27.624
X47.128 Y-27.358
X47.316 Y-27.092
X47.503 Y-26.825
X47.689 Y-26.555
X47.878 Y-26.279
X48.07 Y-25.997
X48.267 Y-25.705
X48.683 Y-25.087
X48.904 Y-24.759
X49.137 Y-24.418
X49.381 Y-24.063
X49.638 Y-23.697
X49.908 Y-23.319
X50.193 Y-22.933
X50.492 Y-22.539
X50.806 Y-22.141
X51.135 Y-21.741
X51.479 Y-21.342
X51.837 Y-20.947
X52.209 Y-20.559
X52.594 Y-20.181
X52.991 Y-19.816
X53.398 Y-19.466
X53.814 Y-19.134
X54.237 Y-18.822
X54.665 Y-18.531
X55.095 Y-18.264
X55.525 Y-18.021
X55.952 Y-17.803
X56.375 Y-17.61
X56.79 Y-17.443
X57.195 Y-17.302
X57.59 Y-17.188
X57.973 Y-17.099
X58.343 Y-17.035
X58.7 Y-16.997
X59.045 Y-16.984
X59.379 Y-16.994
X59.704 Y-17.028
X60.024 Y-17.085
X60.34 Y-17.164
X60.656 Y-17.264
X60.974 Y-17.383
X61.297 Y-17.52
X61.625 Y-17.671
X61.957 Y-17.835
X62.292 Y-18.006
X62.625 Y-18.18
X63.257 Y-18.515
X63.538 Y-18.662
X63.783 Y-18.787
X63.981 Y-18.884
X64.123 Y-18.947
X64.202 Y-18.971
X64.217 Y-18.968
X64.214 Y-18.955
X64.157 Y-18.897
X64.033 Y-18.798
X63.847 Y-18.662
X63.606 Y-18.493
X63.317 Y-18.294
X62.99 Y-18.073
X62.633 Y-17.835
X62.255 Y-17.586
X61.863 Y-17.331
X61.464 Y-17.075
X61.061 Y-16.823
X60.658 Y-16.578
X60.256 Y-16.344
X59.858 Y-16.122
X59.462 Y-15.915
X59.069 Y-15.726
X58.677 Y-15.555
X58.285 Y-15.403
X57.891 Y-15.272
X57.494 Y-15.161
X57.092 Y-15.072
X56.685 Y-15.005
X56.27 Y-14.959
X55.85 Y-14.935
X55.423 Y-14.932
X54.99 Y-14.952
X54.553 Y-14.993
X54.111 Y-15.054
X53.668 Y-15.137
X53.223 Y-15.241
X52.78 Y-15.365
X52.338 Y-15.508
X51.9 Y-15.671
X51.467 Y-15.852
X51.039 Y-16.051
X50.619 Y-16.267
X50.206 Y-16.5
X49.8 Y-16.749
X49.402 Y-17.012
X49.011 Y-17.291
X48.627 Y-17.582
X48.249 Y-17.886
X47.877 Y-18.202
X47.51 Y-18.528
X47.147 Y-18.864
X46.786 Y-19.208
X46.426 Y-19.559
X46.067 Y-19.917
X45.706 Y-20.279
X45.343 Y-20.644
X44.977 Y-21.011
X44.606 Y-21.379
X44.23 Y-21.746
X43.846 Y-22.11
X43.455 Y-22.469
X43.055 Y-22.823
X42.646 Y-23.169
X42.227 Y-23.507
X41.797 Y-23.835
X41.357 Y-24.151
X40.906 Y-24.455
X40.444 Y-24.745
X39.972 Y-25.021
X39.49 Y-25.281
X38.999 Y-25.526
X38.5 Y-25.754
X37.994 Y-25.967
X37.483 Y-26.163
X36.969 Y-26.342
X36.453 Y-26.507
X35.938 Y-26.656
X35.425 Y-26.79
X34.917 Y-26.911
X34.416 Y-27.018
X33.924 Y-27.112
X33.441 Y-27.194
X32.971 Y-27.263
X32.513 Y-27.32
X32.069 Y-27.365
X31.64 Y-27.398
X31.224 Y-27.417
X30.823 Y-27.422
X30.434 Y-27.412
X30.058 Y-27.386
X29.691 Y-27.342
X29.335 Y-27.28
X28.986 Y-27.199
X28.646 Y-27.1
X28.315 Y-26.986
X27.994 Y-26.858
X27.685 Y-26.721
X27.393 Y-26.581
X26.881 Y-26.326
X26.674 Y-26.23
X26.51 Y-26.167
X26.394 Y-26.146
X26.355 Y-26.153
X26.33 Y-26.172
Z5
G0 Z15

(Trace9)
X7.502 Y-21.545
Z15
Z5
G1 Z0 F381
X7.601 Y-21.538
X8.018 Y-21.411
X9.354 Y-20.874
X10.692 Y-20.323
X11.265 Y-20.133
X11.821 Y-20.014
X12.422 Y-19.96
X13.118
X14.367 Y-20.045
X15.787 Y-20.218
X17.221 Y-20.469
X18.109 Y-20.678
X18.912 Y-20.918
X19.633 Y-21.185
X20.623 Y-21.626
X21.972 Y-22.254
X23.141 Y-22.72
X24.01 Y-23.014
X24.937 Y-23.283
X25.901 Y-23.52
X26.878 Y-23.714
X27.848 Y-23.859
X28.798 Y-23.946
X29.723 Y-23.969
X30.63 Y-23.921
X31.529 Y-23.8
X32.431 Y-23.603
X33.345 Y-23.335
X34.274 Y-23.001
X35.211 Y-22.613
X36.601 Y-21.963
X37.912 Y-21.278
X39.089 Y-20.597
X40.113 Y-19.93
X41.03 Y-19.242
X41.924 Y-18.471
X43.178 Y-17.275
X44.369 Y-16.058
X44.943 Y-15.406
X45.03 Y-15.278
X45.055 Y-15.202
X45.014 Y-15.179
X44.908 Y-15.208
X44.225 Y-15.557
X42.653 Y-16.387
X41.687 Y-16.841
X40.653 Y-17.271
X39.586 Y-17.648
X38.513 Y-17.953
X37.98 Y-18.075
X37.452 Y-18.174
X36.932 Y-18.25
X36.418 Y-18.303
X35.913 Y-18.333
X35.415 Y-18.338
X34.924 Y-18.321
X34.438 Y-18.281
X33.957 Y-18.22
X33.001 Y-18.035
X32.044 Y-17.775
X31.073 Y-17.452
X29.578 Y-16.878
X24.687 Y-14.813
X23.489 Y-14.355
X22.779 Y-14.137
X22.442 Y-14.059
X22.111 Y-14.003
X21.781 Y-13.971
X21.447 Y-13.962
X21.105 Y-13.978
X20.751 Y-14.017
X20.006 Y-14.16
X19.234 Y-14.372
X18.505 Y-14.622
X17.923 Y-14.868
X17.721 Y-14.976
X17.593 Y-15.068
X17.544 Y-15.142
X17.576 Y-15.194
X17.684 Y-15.226
X18.091 Y-15.235
X19.337 Y-15.151
X20.054 Y-15.152
X20.429 Y-15.186
X20.814 Y-15.25
X21.213 Y-15.347
X21.626 Y-15.482
X22.055 Y-15.656
X22.498 Y-15.868
X22.953 Y-16.116
X23.881 Y-16.698
X24.781 Y-17.338
X25.907 Y-18.225
X26.535 Y-18.789
X26.601 Y-18.875
X26.591 Y-18.906
X26.351 Y-18.823
X25.165 Y-18.292
X24.344 Y-17.981
X23.446 Y-17.703
X22.512 Y-17.477
X21.574 Y-17.312
X20.649 Y-17.206
X19.745 Y-17.156
X18.854 Y-17.161
X17.959 Y-17.227
X17.034 Y-17.364
X16.056 Y-17.583
X15.005 Y-17.892
X13.874 Y-18.295
X12.675 Y-18.783
X11.445 Y-19.335
X9.689 Y-20.198
X8.302 Y-20.951
X7.724 Y-21.31
X7.561 Y-21.431
X7.487 Y-21.51
X7.502 Y-21.545
Z5
G0 Z15

(Trace11)
X19.525 Y-7.689
Z15
Z5
G1 Z0 F381
X19.526 Y-7.762
X19.603 Y-7.856
X19.944 Y-8.093
X20.74 Y-8.523
X28.009 Y-12.145
X29.676 Y-12.935
X31.272 Y-13.633
X32.258 Y-14.013
X33.173 Y-14.31
X34.017 Y-14.514
X34.417 Y-14.581
X34.805 Y-14.624
X35.182 Y-14.643
X35.55 Y-14.639
X35.913 Y-14.612
X36.272 Y-14.564
X36.983 Y-14.406
X37.694 Y-14.174
X38.409 Y-13.88
X39.493 Y-13.348
X41.708 Y-12.149
X42.858 Y-11.593
X43.646 Y-11.274
X44.452 Y-11.011
X45.271 Y-10.808
X46.094 Y-10.668
X46.911 Y-10.588
X47.715 Y-10.562
X48.892 Y-10.604
X50.471 Y-10.763
X53.247 Y-11.087
X55.437 Y-11.277
X57.451 Y-11.393
X58.415 Y-11.41
X58.66 Y-11.384
X58.652 Y-11.359
X58.391 Y-11.283
X56.174 Y-10.835
X54.649 Y-10.467
X53.606 Y-10.16
X52.589 Y-9.804
X51.625 Y-9.399
X50.725 Y-8.951
X49.886 Y-8.469
X48.715 Y-7.709
X47.209 Y-6.705
X46.43 Y-6.249
X46.025 Y-6.041
X45.609 Y-5.85
X45.18 Y-5.678
X44.737 Y-5.528
X44.279 Y-5.402
X43.807 Y-5.301
X43.319 Y-5.228
X42.818 Y-5.183
X42.304 Y-5.168
X41.777 Y-5.182
X41.24 Y-5.226
X40.694 Y-5.3
X40.142 Y-5.401
X39.586 Y-5.527
X39.028 Y-5.678
X37.917 Y-6.04
X36.832 Y-6.46
X35.282 Y-7.139
X33.391 Y-7.985
X32.498 Y-8.325
X32.053 Y-8.466
X31.602 Y-8.585
X31.141 Y-8.681
X30.664 Y-8.753
X30.169 Y-8.801
X29.649 Y-8.825
X29.104
X27.925 Y-8.758
X26.633 Y-8.614
X24.551 Y-8.298
X21.328 Y-7.767
X20.395 Y-7.647
X20.046 Y-7.62
X19.783 Y-7.618
X19.61 Y-7.641
X19.525 Y-7.689
Z5
G0 Z15
M9
G28 G91 Z0
G90
G28 G91 X0 Y0
G90
M5
M30
