(1001)
(T2  D=1.587 CR=0.381 - ZMIN=0 - bullnose end mill)
G90 G94
G17
G21
G28 G91 Z0
G90

(Trace5)
T2 M6
S10000 M3
G54
M8
G0 X33.737 Y-15.27
Z15
Z5
G1 Z0 F381
X33.651 Y-15.326
X33.377 Y-15.637
X33.014 Y-16.133
X32.66 Y-16.713
X32.377 Y-17.313
X32.18 Y-17.911
X32.061 Y-18.511
X32.003 Y-19.129
X31.999 Y-19.777
X32.052 Y-20.461
X32.172 Y-21.178
X32.374 Y-21.916
X32.562 Y-22.406
X32.796 Y-22.884
X33.076 Y-23.338
X33.393 Y-23.758
X33.732 Y-24.133
X34.23 Y-24.587
X34.672 Y-24.954
X34.718 Y-25.027
X34.629
X34.288 Y-24.906
X33.811 Y-24.669
X33.308 Y-24.361
X32.697 Y-23.913
X32.187 Y-23.465
X31.872 Y-23.098
X31.615 Y-22.669
X31.256 Y-21.858
X31.212 Y-21.797
X31.174 Y-21.774
X31.14 Y-21.791
X31.093 Y-21.941
X31.08 Y-22.223
X31.116 Y-22.591
X31.212 Y-23
X31.379 Y-23.42
X31.623 Y-23.833
X31.946 Y-24.237
X32.348 Y-24.636
X33.085 Y-25.248
X35.183 Y-26.844
X36.073 Y-27.572
X36.845 Y-28.272
X37.443 Y-28.898
X37.844 Y-29.421
X38.075 Y-29.836
X38.37 Y-30.614
X38.435 Y-30.885
X38.465 Y-31.218
X38.435 Y-31.624
X38.332 Y-32.097
X38.164 Y-32.607
X37.858 Y-33.327
X37.567 Y-33.935
X38.957 Y-31.839
X39.215 Y-31.399
X39.386 Y-31.007
X39.507 Y-30.557
X39.586 Y-29.987
X39.604 Y-29.541
X39.578 Y-29.054
X39.496 Y-28.545
X39.347 Y-28.031
X39.126 Y-27.526
X38.836 Y-27.037
X38.485 Y-26.569
X38.086 Y-26.122
X37.207 Y-25.271
X36.109 Y-24.227
X35.513 Y-23.577
X34.976 Y-22.892
X34.496 Y-22.167
X34.067 Y-21.4
X33.691 Y-20.592
X33.479 Y-20.032
X33.307 Y-19.459
X33.185 Y-18.875
X33.121 Y-18.287
X33.12 Y-17.704
X33.181 Y-17.138
X33.293 Y-16.605
X33.514 Y-15.92
X33.746 Y-15.294
X33.737 Y-15.27
Z5
G0 Z15

(Trace6)
X39.577 Y-24.885
Z15
Z5
G1 Z0 F381
X39.555 Y-24.891
X39.301 Y-24.703
X38.591 Y-24.039
X37.651 Y-23.069
X36.942 Y-22.261
X36.323 Y-21.462
X35.983 Y-20.95
X35.706 Y-20.459
X35.491 Y-19.988
X35.33 Y-19.531
X35.176 Y-18.861
X35.098 Y-18.193
X35.072 Y-17.29
X35.111 Y-16.383
X35.214 Y-15.497
X35.343 Y-14.857
X35.526 Y-14.236
X35.769 Y-13.623
X36.29 Y-12.573
X36.733 Y-11.658
X36.922 Y-11.165
X37.065 Y-10.644
X37.149 Y-10.099
X37.162 Y-9.535
X37.102 Y-8.962
X36.975 Y-8.396
X36.798 Y-7.858
X36.503 Y-7.161
X36.199 Y-6.501
X36.194 Y-6.463
X36.21 Y-6.457
X36.372 Y-6.617
X36.741 Y-7.127
X37.118 Y-7.781
X37.418 Y-8.428
X37.736 Y-9.305
X38.04 Y-10.336
X38.251 Y-11.273
X38.359 Y-12.103
X38.381 Y-12.692
X38.349 Y-13.29
X38.258 Y-13.875
X38.111 Y-14.426
X37.924 Y-14.921
X37.627 Y-15.518
X37.378 Y-15.968
X37.365 Y-16.012
X37.375 Y-16.03
X37.459 Y-15.988
X37.702 Y-15.761
X38.001 Y-15.396
X38.388 Y-14.813
X38.876 Y-13.945
X39.139 Y-13.352
X39.294 Y-12.847
X39.396 Y-12.312
X39.432 Y-11.853
X39.41 Y-11.583
X39.804 Y-12.344
X39.903 Y-12.609
X39.958 Y-12.877
X39.968 Y-13.153
X39.916 Y-13.601
X39.763 Y-14.284
X39.53 Y-15.039
X39.3 Y-15.609
X38.932 Y-16.329
X38.385 Y-17.318
X38.175 Y-17.798
X37.975 Y-18.453
X37.754 Y-19.502
X37.673 Y-20.079
X37.651 Y-20.494
X37.672 Y-20.939
X37.75 Y-21.415
X37.894 Y-21.92
X38.105 Y-22.446
X38.373 Y-22.977
X38.831 Y-23.736
X39.528 Y-24.772
X39.577 Y-24.885
Z5
G0 Z15

(Trace7)
X42.318 Y-14.2
Z15
Z5
G1 Z0 F381
X42.304 Y-14.196
X42.276 Y-14.216
X42.233 Y-14.258
X42.176 Y-14.321
X42.108 Y-14.402
X41.943 Y-14.609
X41.754 Y-14.857
X41.559 Y-15.122
X41.372 Y-15.385
X41.203 Y-15.632
X41.055 Y-15.86
X40.928 Y-16.07
X40.816 Y-16.268
X40.714 Y-16.463
X40.617 Y-16.664
X40.518 Y-16.877
X40.365 Y-17.227
X40.26 Y-17.48
X40.155 Y-17.746
X40.053 Y-18.022
X40.004 Y-18.162
X39.957 Y-18.302
X39.913 Y-18.443
X39.872 Y-18.584
X39.834 Y-18.724
X39.799 Y-18.864
X39.768 Y-19.002
X39.741 Y-19.14
X39.717 Y-19.276
X39.697 Y-19.411
X39.681 Y-19.545
X39.669 Y-19.678
X39.66 Y-19.81
X39.655 Y-19.941
X39.653 Y-20.071
X39.655 Y-20.2
X39.66 Y-20.328
X39.668 Y-20.454
X39.678 Y-20.579
X39.691 Y-20.703
X39.707 Y-20.825
X39.725 Y-20.946
X39.745 Y-21.064
X39.767 Y-21.181
X39.791 Y-21.295
X39.817 Y-21.407
X39.844 Y-21.517
X39.904 Y-21.732
X39.969 Y-21.941
X40.04 Y-22.15
X40.16 Y-22.475
X40.387 Y-23.063
X40.528 Y-23.417
X40.615 Y-23.619
X40.654 Y-23.702
X40.689 Y-23.769
X40.721 Y-23.818
X40.748 Y-23.848
X40.771 Y-23.857
X40.791 Y-23.847
X40.807 Y-23.818
X40.821 Y-23.772
X40.865 Y-23.569
X40.884 Y-23.49
X40.908 Y-23.411
X40.935 Y-23.332
X40.968 Y-23.255
X41.005 Y-23.18
X41.047 Y-23.107
X41.093 Y-23.035
X41.195 Y-22.89
X41.306 Y-22.736
X41.422 Y-22.566
X41.481 Y-22.474
X41.54 Y-22.378
X41.658 Y-22.174
X41.956 Y-21.633
X42.137 Y-21.318
X42.37 Y-20.924
X42.425 Y-20.829
X42.477 Y-20.734
X42.526 Y-20.639
X42.572 Y-20.543
X42.615 Y-20.447
X42.654 Y-20.349
X42.689 Y-20.249
X42.721 Y-20.148
X42.748 Y-20.045
X42.772 Y-19.941
X42.792 Y-19.835
X42.809 Y-19.729
X42.822 Y-19.621
X42.833 Y-19.514
X42.84 Y-19.406
X42.845 Y-19.298
X42.846 Y-19.191
X42.845 Y-19.085
X42.84 Y-18.979
X42.832 Y-18.875
X42.82 Y-18.771
X42.805 Y-18.668
X42.785 Y-18.565
X42.76 Y-18.463
X42.731 Y-18.362
X42.696 Y-18.26
X42.657 Y-18.159
X42.613 Y-18.058
X42.565 Y-17.957
X42.514 Y-17.857
X42.405 Y-17.657
X42.241 Y-17.365
X42.191 Y-17.271
X42.145 Y-17.179
X42.104 Y-17.09
X42.069 Y-17.003
X42.038 Y-16.919
X42.013 Y-16.838
X41.993 Y-16.76
X41.976 Y-16.684
X41.913 Y-16.337
X41.869 Y-16.127
X41.855 Y-16.05
X41.844 Y-15.967
X41.837 Y-15.878
X41.835 Y-15.782
X41.841 Y-15.678
X41.854 Y-15.565
X41.876 Y-15.445
X41.907 Y-15.317
X41.945 Y-15.185
X41.99 Y-15.049
X42.04 Y-14.914
X42.092 Y-14.781
X42.276 Y-14.345
X42.303 Y-14.275
X42.317 Y-14.226
X42.318 Y-14.2
Z5
G0 Z15
M9
G28 G91 Z0
G90
G28 G91 X0 Y0
G90
M5
M30
