(1001)
(T2  D=1.587 CR=0.381 - ZMIN=0 - bullnose end mill)
G90 G94
G17
G21
G28 G91 Z0
G90

(Trace5)
T2 M6
S10000 M3
G54
M8
G0 X34.289 Y-14.96
Z15
Z5
G1 Z0 F381
X34.203 Y-15.017
X33.93 Y-15.328
X33.566 Y-15.824
X33.213 Y-16.404
X32.929 Y-17.004
X32.732 Y-17.602
X32.613 Y-18.202
X32.555 Y-18.819
X32.552 Y-19.467
X32.605 Y-20.151
X32.725 Y-20.869
X32.926 Y-21.606
X33.114 Y-22.097
X33.349 Y-22.574
X33.628 Y-23.029
X33.945 Y-23.449
X34.285 Y-23.823
X34.782 Y-24.277
X35.224 Y-24.644
X35.271 Y-24.717
X35.182 Y-24.718
X34.841 Y-24.596
X34.363 Y-24.359
X33.861 Y-24.051
X33.25 Y-23.604
X32.739 Y-23.156
X32.424 Y-22.789
X32.167 Y-22.359
X31.808 Y-21.549
X31.765 Y-21.488
X31.726 Y-21.465
X31.693 Y-21.481
X31.645 Y-21.632
X31.633 Y-21.913
X31.669 Y-22.282
X31.765 Y-22.691
X31.931 Y-23.11
X32.175 Y-23.524
X32.499 Y-23.927
X32.9 Y-24.327
X33.637 Y-24.938
X35.735 Y-26.534
X36.625 Y-27.263
X37.398 Y-27.962
X37.995 Y-28.589
X38.396 Y-29.112
X38.628 Y-29.527
X38.922 Y-30.305
X38.988 Y-30.575
X39.017 Y-30.909
X38.987 Y-31.315
X38.884 Y-31.788
X38.716 Y-32.298
X38.411 Y-33.018
X38.119 Y-33.625
X39.509 Y-31.53
X39.768 Y-31.09
X39.939 Y-30.698
X40.059 Y-30.248
X40.139 Y-29.678
X40.156 Y-29.231
X40.131 Y-28.745
X40.049 Y-28.236
X39.9 Y-27.722
X39.679 Y-27.216
X39.388 Y-26.728
X39.037 Y-26.26
X38.639 Y-25.812
X37.759 Y-24.961
X36.662 Y-23.918
X36.065 Y-23.267
X35.529 Y-22.583
X35.048 Y-21.858
X34.619 Y-21.09
X34.244 Y-20.282
X34.032 Y-19.723
X33.859 Y-19.149
X33.737 Y-18.566
X33.674 Y-17.978
X33.673 Y-17.395
X33.733 Y-16.829
X33.846 Y-16.296
X34.067 Y-15.61
X34.298 Y-14.985
X34.289 Y-14.96
Z5
G0 Z15

(Trace6)
X39.356 Y-25.04
Z15
Z5
G1 Z0 F381
X39.334 Y-25.046
X39.08 Y-24.857
X38.37 Y-24.194
X37.43 Y-23.223
X36.721 Y-22.416
X36.102 Y-21.616
X35.762 Y-21.104
X35.485 Y-20.614
X35.27 Y-20.142
X35.109 Y-19.686
X34.955 Y-19.016
X34.877 Y-18.348
X34.851 Y-17.445
X34.89 Y-16.538
X34.993 Y-15.651
X35.122 Y-15.012
X35.305 Y-14.391
X35.548 Y-13.777
X36.069 Y-12.727
X36.512 Y-11.813
X36.701 Y-11.319
X36.844 Y-10.799
X36.928 Y-10.254
X36.941 Y-9.69
X36.881 Y-9.117
X36.754 Y-8.551
X36.577 Y-8.013
X36.282 Y-7.316
X35.978 Y-6.655
X35.973 Y-6.617
X35.989 Y-6.612
X36.151 Y-6.772
X36.52 Y-7.281
X36.897 Y-7.936
X37.197 Y-8.583
X37.515 Y-9.459
X37.819 Y-10.49
X38.03 Y-11.428
X38.138 Y-12.257
X38.16 Y-12.847
X38.128 Y-13.445
X38.037 Y-14.03
X37.89 Y-14.581
X37.703 Y-15.076
X37.406 Y-15.673
X37.157 Y-16.122
X37.144 Y-16.167
X37.154 Y-16.184
X37.238 Y-16.143
X37.481 Y-15.916
X37.78 Y-15.551
X38.167 Y-14.968
X38.655 Y-14.1
X38.918 Y-13.507
X39.073 Y-13.002
X39.175 Y-12.467
X39.211 Y-12.007
X39.189 Y-11.738
X39.583 Y-12.499
X39.682 Y-12.764
X39.737 Y-13.032
X39.747 Y-13.308
X39.695 Y-13.755
X39.542 Y-14.439
X39.309 Y-15.194
X39.079 Y-15.764
X38.711 Y-16.484
X38.164 Y-17.472
X37.954 Y-17.953
X37.754 Y-18.608
X37.533 Y-19.657
X37.452 Y-20.234
X37.43 Y-20.649
X37.451 Y-21.094
X37.529 Y-21.57
X37.673 Y-22.075
X37.884 Y-22.6
X38.152 Y-23.132
X38.61 Y-23.89
X39.307 Y-24.926
X39.356 Y-25.04
Z5
G0 Z15

(Trace7)
X41.478 Y-14.399
Z15
Z5
G1 Z0 F381
X41.465 Y-14.395
X41.436 Y-14.415
X41.393 Y-14.457
X41.336 Y-14.52
X41.268 Y-14.601
X41.103 Y-14.808
X40.915 Y-15.056
X40.719 Y-15.321
X40.532 Y-15.584
X40.363 Y-15.831
X40.215 Y-16.059
X40.088 Y-16.269
X39.976 Y-16.467
X39.874 Y-16.662
X39.777 Y-16.863
X39.679 Y-17.076
X39.526 Y-17.426
X39.42 Y-17.679
X39.315 Y-17.945
X39.213 Y-18.221
X39.164 Y-18.361
X39.118 Y-18.501
X39.073 Y-18.642
X39.032 Y-18.783
X38.994 Y-18.923
X38.959 Y-19.063
X38.928 Y-19.201
X38.901 Y-19.339
X38.877 Y-19.475
X38.857 Y-19.61
X38.841 Y-19.744
X38.829 Y-19.877
X38.82 Y-20.009
X38.815 Y-20.14
X38.814 Y-20.27
X38.815 Y-20.399
X38.82 Y-20.527
X38.828 Y-20.653
X38.838 Y-20.778
X38.852 Y-20.902
X38.867 Y-21.024
X38.885 Y-21.145
X38.905 Y-21.263
X38.927 Y-21.38
X38.951 Y-21.494
X38.977 Y-21.606
X39.004 Y-21.716
X39.064 Y-21.931
X39.129 Y-22.14
X39.201 Y-22.349
X39.32 Y-22.674
X39.547 Y-23.262
X39.688 Y-23.616
X39.775 Y-23.818
X39.814 Y-23.901
X39.85 Y-23.968
X39.881 Y-24.017
X39.908 Y-24.047
X39.931 Y-24.056
X39.951 Y-24.046
X39.967 Y-24.017
X39.981 Y-23.971
X40.025 Y-23.768
X40.045 Y-23.689
X40.068 Y-23.61
X40.096 Y-23.531
X40.128 Y-23.454
X40.166 Y-23.379
X40.208 Y-23.306
X40.254 Y-23.234
X40.356 Y-23.089
X40.467 Y-22.935
X40.582 Y-22.765
X40.641 Y-22.673
X40.7 Y-22.577
X40.818 Y-22.373
X41.116 Y-21.832
X41.297 Y-21.517
X41.53 Y-21.123
X41.585 Y-21.028
X41.637 Y-20.933
X41.686 Y-20.838
X41.732 Y-20.742
X41.775 Y-20.646
X41.814 Y-20.548
X41.849 Y-20.448
X41.881 Y-20.347
X41.908 Y-20.244
X41.932 Y-20.14
X41.952 Y-20.034
X41.969 Y-19.927
X41.982 Y-19.82
X41.993 Y-19.712
X42 Y-19.605
X42.005 Y-19.497
X42.006 Y-19.39
X42.005 Y-19.284
X42 Y-19.178
X41.992 Y-19.073
X41.981 Y-18.97
X41.965 Y-18.867
X41.945 Y-18.764
X41.92 Y-18.662
X41.891 Y-18.561
X41.856 Y-18.459
X41.817 Y-18.358
X41.774 Y-18.257
X41.726 Y-18.156
X41.674 Y-18.056
X41.565 Y-17.856
X41.401 Y-17.564
X41.351 Y-17.47
X41.306 Y-17.378
X41.265 Y-17.289
X41.229 Y-17.202
X41.199 Y-17.118
X41.174 Y-17.037
X41.153 Y-16.958
X41.137 Y-16.883
X41.073 Y-16.536
X41.029 Y-16.326
X41.015 Y-16.249
X41.004 Y-16.166
X40.997 Y-16.077
X40.996 Y-15.981
X41.001 Y-15.877
X41.015 Y-15.764
X41.036 Y-15.643
X41.067 Y-15.516
X41.105 Y-15.384
X41.15 Y-15.248
X41.2 Y-15.113
X41.253 Y-14.98
X41.437 Y-14.543
X41.463 Y-14.474
X41.478 Y-14.425
Y-14.399
Z5
G0 Z15
M9
G28 G91 Z0
G90
G28 G91 X0 Y0
G90
M5
M30
