(1001)
(T2  D=1.587 CR=0.381 - ZMIN=0 - bullnose end mill)
G90 G94
G17
G21
G28 G91 Z0
G90

(Trace9)
T2 M6
S10000 M3
G54
M8
G0 X25.077 Y-8.689
Z15
Z5
G1 Z0 F381
X25.068 Y-8.717
X25.213 Y-8.862
X26.048 Y-9.46
X28.311 Y-10.954
X29.62 Y-11.752
X30.56 Y-12.257
X31.481 Y-12.677
X32.394 Y-13.022
X33.861 Y-13.486
X35.648 Y-13.998
X36.134 Y-14.103
X36.654 Y-14.169
X37.239 Y-14.184
X37.914 Y-14.137
X38.692 Y-14.02
X39.568 Y-13.834
X40.996 Y-13.447
X42.4 Y-12.986
X43.565 Y-12.53
X44.112 Y-12.262
X44.3 Y-12.144
X44.429 Y-12.039
X44.497 Y-11.945
X44.507 Y-11.862
X44.462 Y-11.788
X44.369 Y-11.72
X44.069 Y-11.593
X43.221 Y-11.286
X42.526 Y-10.952
X41.83 Y-10.522
X40.107 Y-9.32
X39.293 Y-8.822
X38.73 Y-8.527
X38.155 Y-8.273
X37.573 Y-8.071
X36.988 Y-7.925
X36.402 Y-7.84
X35.817 Y-7.815
X35.234 Y-7.849
X34.654 Y-7.94
X34.08 Y-8.08
X33.237 Y-8.367
X32.431 Y-8.717
X30.947 Y-9.432
X30.467 Y-9.617
X29.968 Y-9.746
X29.705 Y-9.785
X29.431 Y-9.805
X29.144
X28.529 Y-9.742
X27.864 Y-9.602
X27.173 Y-9.402
X25.644 Y-8.855
X25.142 Y-8.692
X25.077 Y-8.689
Z5
G0 Z15

(Trace11)
X9.423 Y-21.216
Z15
Z5
G1 Z0 F381
X9.488 Y-21.222
X9.828 Y-21.123
X11.437 Y-20.473
X12.468 Y-20.06
X13.058 Y-19.857
X13.57 Y-19.724
X14.038 Y-19.652
X14.755 Y-19.627
X16.192 Y-19.69
X17.478 Y-19.801
X18.406 Y-19.934
X19.271 Y-20.125
X20.108 Y-20.377
X21.256 Y-20.802
X23.059 Y-21.554
X25.434 Y-22.612
X26.186 Y-22.897
X27.009 Y-23.141
X27.937 Y-23.338
X28.966 Y-23.476
X30.073 Y-23.544
X31.225 Y-23.537
X32.394 Y-23.456
X33.557 Y-23.309
X34.698 Y-23.104
X35.803 Y-22.844
X36.861 Y-22.523
X37.535 Y-22.268
X38.179 Y-21.975
X38.792 Y-21.643
X39.373 Y-21.272
X40.179 Y-20.661
X41.141 Y-19.819
X42.215 Y-18.862
X43.84 Y-17.496
X44.692 Y-16.699
X45.588 Y-15.777
X46.374 Y-14.894
X46.85 Y-14.289
X46.91 Y-14.185
X46.913 Y-14.14
X46.859 Y-14.154
X46.368 Y-14.526
X44.79 Y-15.823
X44.061 Y-16.362
X43.354 Y-16.819
X42.691 Y-17.164
X42.076 Y-17.399
X41.493 Y-17.546
X40.627 Y-17.674
X37.925 Y-17.969
X37.142 Y-18.017
X36.336
X35.52 Y-17.952
X34.706 Y-17.811
X33.905 Y-17.596
X33.124 Y-17.315
X32.368 Y-16.985
X31.283 Y-16.441
X29.596 Y-15.56
X28.632 Y-15.108
X27.686 Y-14.724
X26.437 Y-14.298
X25.229 Y-13.956
X24.391 Y-13.766
X23.626 Y-13.657
X23.141 Y-13.641
X22.648 Y-13.68
X22.121 Y-13.777
X21.242 Y-14.026
X20.338 Y-14.349
X19.656 Y-14.651
X19.53 Y-14.729
X19.47 Y-14.791
X19.48 Y-14.837
X19.561 Y-14.866
X19.924 Y-14.887
X21.226 Y-14.885
X22.001 Y-14.931
X22.763 Y-15.037
X23.473 Y-15.204
X24.114 Y-15.422
X24.688 Y-15.675
X25.451 Y-16.085
X26.385 Y-16.668
X27.082 Y-17.171
X27.76 Y-17.741
X28.311 Y-18.285
X28.517 Y-18.54
X28.552 Y-18.614
X28.535 Y-18.646
X28.463 Y-18.635
X27.937 Y-18.377
X27.043 Y-17.918
X26.34 Y-17.604
X25.631 Y-17.34
X24.975 Y-17.15
X24.415 Y-17.036
X23.755 Y-16.971
X21.71 Y-16.829
X21.002
X20.267 Y-16.887
X19.541 Y-17.003
X18.85 Y-17.165
X17.363 Y-17.618
X15.221 Y-18.249
X14.13 Y-18.655
X12.811 Y-19.244
X11.42 Y-19.951
X10.23 Y-20.622
X9.692 Y-20.964
X9.436 Y-21.171
X9.423 Y-21.216
Z5
G0 Z15

(Trace15)
X64.219 Y-18.966
Z15
Z5
G1 Z0 F381
X64.184 Y-18.922
X64.07 Y-18.828
X63.882 Y-18.688
X63.626 Y-18.506
X63.312 Y-18.289
X62.951 Y-18.044
X62.553 Y-17.781
X62.132 Y-17.507
X61.7 Y-17.231
X61.268 Y-16.962
X60.847 Y-16.706
X60.445 Y-16.47
X60.07 Y-16.257
X59.725 Y-16.071
X59.412 Y-15.911
X59.13 Y-15.776
X58.875 Y-15.663
X58.643 Y-15.569
X58.429 Y-15.489
X58.228 Y-15.419
X58.032 Y-15.356
X57.837 Y-15.295
X57.638 Y-15.234
X57.432 Y-15.174
X57.216 Y-15.114
X56.987 Y-15.055
X56.747 Y-14.998
X56.493 Y-14.947
X56.228 Y-14.903
X55.95 Y-14.87
X55.661 Y-14.848
X55.362 Y-14.839
X55.054 Y-14.845
X54.737 Y-14.866
X54.413 Y-14.902
X54.083 Y-14.955
X53.748 Y-15.023
X53.408 Y-15.106
X53.065 Y-15.205
X52.719 Y-15.318
X52.37 Y-15.445
X52.02 Y-15.587
X51.669 Y-15.743
X51.317 Y-15.913
X50.963 Y-16.097
X50.609 Y-16.296
X50.254 Y-16.509
X49.898 Y-16.737
X49.54 Y-16.979
X49.181 Y-17.236
X48.821 Y-17.508
X48.459 Y-17.794
X48.095 Y-18.094
X47.729 Y-18.406
X47.361 Y-18.732
X46.991 Y-19.068
X46.618 Y-19.414
X46.244 Y-19.768
X45.869 Y-20.128
X45.492 Y-20.493
X45.113 Y-20.859
X44.734 Y-21.226
X44.354 Y-21.59
X43.973 Y-21.95
X43.593 Y-22.303
X43.212 Y-22.648
X42.831 Y-22.982
X42.451 Y-23.304
X42.07 Y-23.613
X41.689 Y-23.908
X41.308 Y-24.187
X40.926 Y-24.45
X40.542 Y-24.697
X40.157 Y-24.929
X39.768 Y-25.146
X39.376 Y-25.349
X38.979 Y-25.54
X38.576 Y-25.718
X38.167 Y-25.887
X37.752 Y-26.046
X37.328 Y-26.197
X36.896 Y-26.341
X36.455 Y-26.479
X36.006 Y-26.611
X35.547 Y-26.737
X35.081 Y-26.857
X34.606 Y-26.97
X34.124 Y-27.075
X33.636 Y-27.169
X33.144 Y-27.252
X32.649 Y-27.319
X32.154 Y-27.371
X31.661 Y-27.403
X31.172 Y-27.415
X30.689 Y-27.404
X30.216 Y-27.371
X29.756 Y-27.314
X29.311 Y-27.234
X28.884 Y-27.134
X28.479 Y-27.015
X28.099 Y-26.883
X27.748 Y-26.742
X27.427 Y-26.599
X27.142 Y-26.463
X26.894 Y-26.342
X26.686 Y-26.246
X26.521 Y-26.18
X26.402 Y-26.154
X26.36 Y-26.157
X26.329 Y-26.172
X26.311 Y-26.198
X26.305 Y-26.236
X26.329 Y-26.347
X26.402 Y-26.501
X26.522 Y-26.694
X26.69 Y-26.919
X26.903 Y-27.169
X27.159 Y-27.437
X27.457 Y-27.713
X27.793 Y-27.991
X28.164 Y-28.265
X28.566 Y-28.528
X28.997 Y-28.777
X29.452 Y-29.008
X29.927 Y-29.219
X30.419 Y-29.41
X30.922 Y-29.578
X31.434 Y-29.725
X31.951 Y-29.85
X32.468 Y-29.954
X32.983 Y-30.039
X33.493 Y-30.106
X33.994 Y-30.157
X34.484 Y-30.193
X34.962 Y-30.215
X35.427 Y-30.225
X35.877 Y-30.224
X36.313 Y-30.212
X36.735 Y-30.19
X37.144 Y-30.157
X37.541 Y-30.113
X37.928 Y-30.059
X38.307 Y-29.993
X38.679 Y-29.914
X39.045 Y-29.823
X39.408 Y-29.719
X39.768 Y-29.601
X40.126 Y-29.469
X40.482 Y-29.323
X40.837 Y-29.163
X41.189 Y-28.988
X41.538 Y-28.8
X41.882 Y-28.6
X42.219 Y-28.388
X42.546 Y-28.165
X42.863 Y-27.933
X43.166 Y-27.693
X43.455 Y-27.447
X43.729 Y-27.196
X43.985 Y-26.942
X44.224 Y-26.686
X44.446 Y-26.432
X44.653 Y-26.18
X44.846 Y-25.932
X45.026 Y-25.69
X45.197 Y-25.458
X45.36 Y-25.239
X45.515 Y-25.035
X45.662 Y-24.852
X45.801 Y-24.696
X45.927 Y-24.573
X46.037 Y-24.492
X46.083 Y-24.469
X46.123 Y-24.46
X46.156 Y-24.465
X46.18 Y-24.485
X46.196 Y-24.521
X46.202 Y-24.572
X46.186 Y-24.721
X46.132 Y-24.931
X46.04 Y-25.194
X45.914 Y-25.503
X45.758 Y-25.847
X45.577 Y-26.215
X45.378 Y-26.594
X45.166 Y-26.975
X44.945 Y-27.346
X44.723 Y-27.698
X44.502 Y-28.027
X44.284 Y-28.329
X44.072 Y-28.603
X43.866 Y-28.851
X43.666 Y-29.075
X43.469 Y-29.282
X43.274 Y-29.474
X43.08 Y-29.658
X42.883 Y-29.838
X42.681 Y-30.017
X42.472 Y-30.197
X42.254 Y-30.379
X42.025 Y-30.56
X41.785 Y-30.738
X41.534 Y-30.909
X41.274 Y-31.069
X41.007 Y-31.214
X40.737 Y-31.34
X40.471 Y-31.446
X40.218 Y-31.53
X39.987 Y-31.595
X39.793 Y-31.643
X39.647 Y-31.679
X39.561 Y-31.709
X39.544 Y-31.723
X39.545 Y-31.737
X39.6 Y-31.766
X39.725 Y-31.796
X39.912 Y-31.825
X40.15 Y-31.852
X40.423 Y-31.873
X40.717 Y-31.882
X41.018 Y-31.878
X41.315 Y-31.857
X41.597 Y-31.819
X41.862 Y-31.764
X42.107 Y-31.693
X42.333 Y-31.61
X42.544 Y-31.517
X42.742 Y-31.416
X42.933 Y-31.312
X43.122 Y-31.203
X43.312 Y-31.092
X43.506 Y-30.978
X43.706 Y-30.857
X43.914 Y-30.728
X44.129 Y-30.587
X44.353 Y-30.43
X44.585 Y-30.255
X44.824 Y-30.059
X45.07 Y-29.84
X45.321 Y-29.596
X45.578 Y-29.326
X45.839 Y-29.033
X46.103 Y-28.717
X46.371 Y-28.38
X46.64 Y-28.025
X46.912 Y-27.654
X47.184 Y-27.271
X47.457 Y-26.878
X47.73 Y-26.48
X48.003 Y-26.079
X48.275 Y-25.678
X48.546 Y-25.28
X48.817 Y-24.888
X49.086 Y-24.503
X49.354 Y-24.126
X49.621 Y-23.758
X49.888 Y-23.4
X50.154 Y-23.052
X50.42 Y-22.713
X50.686 Y-22.382
X50.952 Y-22.061
X51.219 Y-21.747
X51.487 Y-21.44
X51.757 Y-21.139
X52.028 Y-20.845
X52.301 Y-20.558
X52.576 Y-20.276
X52.853 Y-20.001
X53.133 Y-19.734
X53.414 Y-19.475
X53.698 Y-19.227
X53.983 Y-18.989
X54.269 Y-18.764
X54.557 Y-18.554
X54.845 Y-18.358
X55.133 Y-18.178
X55.42 Y-18.014
X55.705 Y-17.867
X55.988 Y-17.736
X56.266 Y-17.62
X56.54 Y-17.517
X56.808 Y-17.427
X57.069 Y-17.347
X57.324 Y-17.275
X57.571 Y-17.21
X57.812 Y-17.152
X58.048 Y-17.1
X58.281 Y-17.055
X58.516 Y-17.018
X58.756 Y-16.994
X59.006 Y-16.983
X59.271 Y-16.992
X59.554 Y-17.021
X59.859 Y-17.076
X60.188 Y-17.157
X60.542 Y-17.266
X60.919 Y-17.402
X61.315 Y-17.562
X61.724 Y-17.742
X62.136 Y-17.935
X62.541 Y-18.134
X62.928 Y-18.331
X63.284 Y-18.515
X63.597 Y-18.678
X63.856 Y-18.812
X64.051 Y-18.908
X64.174 Y-18.961
X64.219 Y-18.966
Z5
G0 Z15
M9
G28 G91 Z0
G90
G28 G91 X0 Y0
G90
M5
M30
