(1001)
(T2  D=1.587 CR=0.381 - ZMIN=0 - bullnose end mill)
G90 G94
G17
G21
G28 G91 Z0
G90

(Trace5)
T2 M6
S10000 M3
G54
M8
G0 X41.134 Y-24.394
Z15
Z5
G1 Z0 F381
X41.22 Y-24.338
X41.493 Y-24.027
X41.857 Y-23.53
X42.21 Y-22.951
X42.494 Y-22.351
X42.691 Y-21.753
X42.81 Y-21.152
X42.868 Y-20.535
X42.871 Y-19.887
X42.818 Y-19.203
X42.699 Y-18.486
X42.497 Y-17.748
X42.309 Y-17.258
X42.074 Y-16.78
X41.795 Y-16.325
X41.478 Y-15.906
X41.138 Y-15.531
X40.641 Y-15.077
X40.199 Y-14.71
X40.153 Y-14.637
X40.241
X40.583 Y-14.758
X41.06 Y-14.995
X41.562 Y-15.303
X42.174 Y-15.75
X42.684 Y-16.199
X42.999 Y-16.566
X43.256 Y-16.995
X43.615 Y-17.806
X43.658 Y-17.867
X43.697 Y-17.89
X43.73 Y-17.873
X43.778 Y-17.723
X43.79 Y-17.441
X43.755 Y-17.073
X43.658 Y-16.663
X43.492 Y-16.244
X43.248 Y-15.831
X42.925 Y-15.427
X42.523 Y-15.028
X41.786 Y-14.416
X39.688 Y-12.82
X38.798 Y-12.092
X38.026 Y-11.392
X37.428 Y-10.765
X37.027 Y-10.242
X36.795 Y-9.827
X36.501 Y-9.049
X36.435 Y-8.779
X36.406 Y-8.446
X36.436 Y-8.039
X36.539 Y-7.566
X36.707 Y-7.057
X37.012 Y-6.336
X37.304 Y-5.729
X35.914 Y-7.824
X35.655 Y-8.265
X35.484 Y-8.657
X35.364 Y-9.107
X35.285 Y-9.677
X35.267 Y-10.123
X35.292 Y-10.609
X35.374 Y-11.118
X35.524 Y-11.633
X35.745 Y-12.138
X36.035 Y-12.627
X36.386 Y-13.094
X36.784 Y-13.542
X37.664 Y-14.393
X38.761 Y-15.436
X39.358 Y-16.087
X39.895 Y-16.771
X40.375 Y-17.496
X40.804 Y-18.264
X41.179 Y-19.072
X41.392 Y-19.632
X41.564 Y-20.205
X41.686 Y-20.788
X41.75 Y-21.376
X41.751 Y-21.96
X41.69 Y-22.526
X41.577 Y-23.058
X41.356 Y-23.744
X41.125 Y-24.37
X41.134 Y-24.394
Z5
G0 Z15

(Trace6)
X35.293 Y-14.778
Z15
Z5
G1 Z0 F381
X35.315 Y-14.773
X35.57 Y-14.961
X36.28 Y-15.625
X37.22 Y-16.595
X37.929 Y-17.402
X38.547 Y-18.202
X38.887 Y-18.714
X39.164 Y-19.205
X39.38 Y-19.676
X39.54 Y-20.133
X39.695 Y-20.802
X39.773 Y-21.471
X39.799 Y-22.374
X39.76 Y-23.281
X39.657 Y-24.167
X39.528 Y-24.807
X39.345 Y-25.428
X39.102 Y-26.041
X38.581 Y-27.091
X38.138 Y-28.006
X37.949 Y-28.499
X37.805 Y-29.02
X37.722 Y-29.565
X37.708 Y-30.129
X37.768 Y-30.701
X37.896 Y-31.268
X38.072 Y-31.806
X38.367 Y-32.503
X38.672 Y-33.163
X38.677 Y-33.201
X38.66 Y-33.207
X38.498 Y-33.047
X38.13 Y-32.537
X37.753 Y-31.882
X37.452 Y-31.236
X37.135 Y-30.359
X36.831 Y-29.328
X36.619 Y-28.391
X36.511 Y-27.561
X36.49 Y-26.972
X36.522 Y-26.374
X36.613 Y-25.789
X36.759 Y-25.238
X36.946 Y-24.743
X37.244 Y-24.146
X37.493 Y-23.696
X37.506 Y-23.652
X37.495 Y-23.634
X37.411 Y-23.676
X37.169 Y-23.902
X36.87 Y-24.267
X36.483 Y-24.851
X35.995 Y-25.719
X35.731 Y-26.312
X35.577 Y-26.817
X35.475 Y-27.351
X35.439 Y-27.811
X35.461 Y-28.081
X35.066 Y-27.32
X34.967 Y-27.055
X34.913 Y-26.787
X34.903 Y-26.511
X34.955 Y-26.063
X35.107 Y-25.379
X35.34 Y-24.625
X35.571 Y-24.054
X35.939 Y-23.335
X36.486 Y-22.346
X36.695 Y-21.866
X36.896 Y-21.211
X37.116 Y-20.162
X37.197 Y-19.585
X37.22 Y-19.169
X37.199 Y-18.725
X37.121 Y-18.249
X36.977 Y-17.744
X36.766 Y-17.218
X36.497 Y-16.687
X36.039 Y-15.928
X35.342 Y-14.892
X35.293 Y-14.778
Z5
G0 Z15

(Trace7)
X32.553 Y-25.464
Z15
Z5
G1 Z0 F381
X32.566 Y-25.467
X32.595 Y-25.448
X32.638 Y-25.406
X32.694 Y-25.343
X32.763 Y-25.262
X32.928 Y-25.055
X33.116 Y-24.807
X33.312 Y-24.542
X33.499 Y-24.279
X33.668 Y-24.032
X33.815 Y-23.804
X33.882 Y-23.697
X34.001 Y-23.494
X34.106 Y-23.298
X34.205 Y-23.101
X34.303 Y-22.895
X34.453 Y-22.558
X34.558 Y-22.312
X34.663 Y-22.052
X34.768 Y-21.781
X34.867 Y-21.502
X34.913 Y-21.361
X34.958 Y-21.221
X34.999 Y-21.08
X35.037 Y-20.94
X35.071 Y-20.8
X35.103 Y-20.662
X35.13 Y-20.524
X35.154 Y-20.388
X35.174 Y-20.252
X35.19 Y-20.118
X35.202 Y-19.985
X35.21 Y-19.853
X35.216 Y-19.722
X35.217 Y-19.593
X35.216 Y-19.464
X35.211 Y-19.336
X35.203 Y-19.21
X35.193 Y-19.084
X35.179 Y-18.961
X35.164 Y-18.838
X35.146 Y-18.718
X35.126 Y-18.6
X35.104 Y-18.483
X35.079 Y-18.369
X35.054 Y-18.257
X34.998 Y-18.038
X34.935 Y-17.827
X34.867 Y-17.618
X34.792 Y-17.407
X34.668 Y-17.076
X34.437 Y-16.479
X34.343 Y-16.247
X34.256 Y-16.044
X34.217 Y-15.962
X34.181 Y-15.894
X34.15 Y-15.845
X34.123 Y-15.816
X34.099 Y-15.807
X34.08 Y-15.817
X34.064 Y-15.846
X34.049 Y-15.892
X34.006 Y-16.094
X33.986 Y-16.173
X33.963 Y-16.253
X33.935 Y-16.332
X33.903 Y-16.409
X33.865 Y-16.484
X33.823 Y-16.557
X33.777 Y-16.629
X33.675 Y-16.774
X33.564 Y-16.928
X33.449 Y-17.098
X33.39 Y-17.19
X33.272 Y-17.386
X33.094 Y-17.704
X32.915 Y-18.03
X32.734 Y-18.346
X32.5 Y-18.74
X32.394 Y-18.93
X32.345 Y-19.025
X32.299 Y-19.121
X32.256 Y-19.217
X32.217 Y-19.315
X32.181 Y-19.415
X32.15 Y-19.516
X32.123 Y-19.619
X32.099 Y-19.723
X32.079 Y-19.829
X32.062 Y-19.935
X32.048 Y-20.043
X32.038 Y-20.15
X32.031 Y-20.258
X32.026 Y-20.366
X32.025 Y-20.473
X32.026 Y-20.579
X32.031 Y-20.685
X32.039 Y-20.789
X32.05 Y-20.893
X32.066 Y-20.996
X32.086 Y-21.099
X32.111 Y-21.201
X32.14 Y-21.302
X32.174 Y-21.403
X32.214 Y-21.505
X32.257 Y-21.606
X32.305 Y-21.706
X32.356 Y-21.807
X32.466 Y-22.007
X32.63 Y-22.299
X32.679 Y-22.393
X32.725 Y-22.485
X32.766 Y-22.574
X32.802 Y-22.661
X32.832 Y-22.745
X32.857 Y-22.826
X32.878 Y-22.904
X32.894 Y-22.98
X32.958 Y-23.327
X33.002 Y-23.537
X33.016 Y-23.614
X33.027 Y-23.696
X33.034 Y-23.785
X33.035 Y-23.882
X33.03 Y-23.986
X33.016 Y-24.099
X32.994 Y-24.219
X32.964 Y-24.347
X32.925 Y-24.479
X32.881 Y-24.614
X32.831 Y-24.75
X32.778 Y-24.883
X32.594 Y-25.319
X32.568 Y-25.389
X32.553 Y-25.438
Y-25.464
Z5
G0 Z15
M9
G28 G91 Z0
G90
G28 G91 X0 Y0
G90
M5
M30
