(1001)
(T2  D=1.587 CR=0.381 - ZMIN=0 - bullnose end mill)
G90 G94
G17
G21
G28 G91 Z0
G90

(Trace9)
T2 M6
S10000 M3
G54
M8
G0 X25.499 Y-7.529
Z15
Z5
G1 Z0 F381
X25.49 Y-7.556
X25.635 Y-7.701
X26.47 Y-8.299
X28.733 Y-9.794
X30.042 Y-10.591
X30.983 Y-11.096
X31.903 Y-11.516
X32.816 Y-11.861
X34.283 Y-12.325
X36.07 Y-12.837
X36.556 Y-12.942
X37.076 Y-13.008
X37.661 Y-13.024
X38.336 Y-12.976
X39.114 Y-12.859
X39.99 Y-12.673
X41.418 Y-12.286
X42.822 Y-11.826
X43.987 Y-11.369
X44.534 Y-11.101
X44.722 Y-10.983
X44.851 Y-10.878
X44.919 Y-10.784
X44.929 Y-10.701
X44.884 Y-10.627
X44.792 Y-10.56
X44.491 Y-10.432
X43.643 Y-10.125
X42.948 Y-9.791
X42.252 Y-9.361
X40.529 Y-8.159
X39.715 Y-7.661
X39.152 Y-7.366
X38.577 Y-7.113
X37.995 Y-6.91
X37.41 Y-6.764
X36.824 Y-6.679
X36.239 Y-6.654
X35.656 Y-6.688
X35.076 Y-6.779
X34.502 Y-6.919
X33.66 Y-7.206
X32.854 Y-7.556
X31.369 Y-8.271
X30.889 Y-8.456
X30.39 Y-8.585
X30.127 Y-8.624
X29.853 Y-8.644
X29.566
X28.951 Y-8.581
X28.286 Y-8.441
X27.595 Y-8.241
X26.066 Y-7.694
X25.564 Y-7.531
X25.499 Y-7.529
Z5
G0 Z15

(Trace11)
X9.423 Y-21.216
Z15
Z5
G1 Z0 F381
X9.488 Y-21.222
X9.828 Y-21.123
X11.437 Y-20.473
X12.468 Y-20.06
X13.058 Y-19.857
X13.57 Y-19.724
X14.038 Y-19.652
X14.755 Y-19.627
X16.192 Y-19.69
X17.478 Y-19.801
X18.406 Y-19.934
X19.271 Y-20.125
X20.108 Y-20.377
X21.256 Y-20.802
X23.059 Y-21.554
X25.434 Y-22.612
X26.186 Y-22.897
X27.009 Y-23.141
X27.937 Y-23.338
X28.966 Y-23.476
X30.073 Y-23.544
X31.225 Y-23.537
X32.394 Y-23.456
X33.557 Y-23.309
X34.698 Y-23.104
X35.803 Y-22.844
X36.861 Y-22.523
X37.535 Y-22.268
X38.179 Y-21.975
X38.792 Y-21.643
X39.373 Y-21.272
X40.179 Y-20.661
X41.141 Y-19.819
X42.215 Y-18.862
X43.84 Y-17.496
X44.692 Y-16.699
X45.588 Y-15.777
X46.374 Y-14.894
X46.85 Y-14.289
X46.91 Y-14.185
X46.913 Y-14.14
X46.859 Y-14.154
X46.368 Y-14.526
X44.79 Y-15.823
X44.061 Y-16.362
X43.354 Y-16.819
X42.691 Y-17.164
X42.076 Y-17.399
X41.493 Y-17.546
X40.627 Y-17.674
X37.925 Y-17.969
X37.142 Y-18.017
X36.336
X35.52 Y-17.952
X34.706 Y-17.811
X33.905 Y-17.596
X33.124 Y-17.315
X32.368 Y-16.985
X31.283 Y-16.441
X29.596 Y-15.56
X28.632 Y-15.108
X27.686 Y-14.724
X26.437 Y-14.298
X25.229 Y-13.956
X24.391 Y-13.766
X23.626 Y-13.657
X23.141 Y-13.641
X22.648 Y-13.68
X22.121 Y-13.777
X21.242 Y-14.026
X20.338 Y-14.349
X19.656 Y-14.651
X19.53 Y-14.729
X19.47 Y-14.791
X19.48 Y-14.837
X19.561 Y-14.866
X19.924 Y-14.887
X21.226 Y-14.885
X22.001 Y-14.931
X22.763 Y-15.037
X23.473 Y-15.204
X24.114 Y-15.422
X24.688 Y-15.675
X25.451 Y-16.085
X26.385 Y-16.668
X27.082 Y-17.171
X27.76 Y-17.741
X28.311 Y-18.285
X28.517 Y-18.54
X28.552 Y-18.614
X28.535 Y-18.646
X28.463 Y-18.635
X27.937 Y-18.377
X27.043 Y-17.918
X26.34 Y-17.604
X25.631 Y-17.34
X24.975 Y-17.15
X24.415 Y-17.036
X23.755 Y-16.971
X21.71 Y-16.829
X21.002
X20.267 Y-16.887
X19.541 Y-17.003
X18.85 Y-17.165
X17.363 Y-17.618
X15.221 Y-18.249
X14.13 Y-18.655
X12.811 Y-19.244
X11.42 Y-19.951
X10.23 Y-20.622
X9.692 Y-20.964
X9.436 Y-21.171
X9.423 Y-21.216
Z5
G0 Z15

(Trace15)
X65.907 Y-20.022
Z15
Z5
G1 Z0 F381
X65.862 Y-20.017
X65.74 Y-19.964
X65.545 Y-19.867
X65.286 Y-19.734
X64.973 Y-19.57
X64.617 Y-19.386
X64.23 Y-19.19
X63.825 Y-18.991
X63.412 Y-18.797
X63.003 Y-18.617
X62.607 Y-18.457
X62.23 Y-18.321
X61.876 Y-18.212
X61.547 Y-18.131
X61.242 Y-18.077
X60.959 Y-18.047
X60.695 Y-18.039
X60.445 Y-18.049
X60.205 Y-18.074
X59.97 Y-18.11
X59.736 Y-18.155
X59.5 Y-18.207
X59.259 Y-18.266
X59.012 Y-18.33
X58.758 Y-18.402
X58.497 Y-18.482
X58.229 Y-18.573
X57.955 Y-18.675
X57.676 Y-18.791
X57.394 Y-18.922
X57.109 Y-19.069
X56.821 Y-19.233
X56.534 Y-19.413
X56.245 Y-19.609
X55.958 Y-19.82
X55.671 Y-20.045
X55.386 Y-20.282
X55.103 Y-20.531
X54.821 Y-20.789
X54.542 Y-21.056
X54.265 Y-21.331
X53.99 Y-21.613
X53.717 Y-21.901
X53.445 Y-22.195
X53.176 Y-22.495
X52.908 Y-22.802
X52.641 Y-23.116
X52.374 Y-23.438
X52.108 Y-23.768
X51.842 Y-24.107
X51.576 Y-24.456
X51.31 Y-24.814
X51.042 Y-25.181
X50.774 Y-25.558
X50.505 Y-25.943
X50.235 Y-26.336
X49.964 Y-26.733
X49.691 Y-27.134
X49.419 Y-27.535
X49.146 Y-27.934
X48.873 Y-28.326
X48.6 Y-28.709
X48.329 Y-29.08
X48.059 Y-29.436
X47.792 Y-29.773
X47.528 Y-30.089
X47.267 Y-30.382
X47.01 Y-30.651
X46.758 Y-30.895
X46.513 Y-31.115
X46.274 Y-31.311
X46.042 Y-31.486
X45.818 Y-31.642
X45.602 Y-31.783
X45.395 Y-31.912
X45.194 Y-32.033
X45 Y-32.148
X44.81 Y-32.259
X44.622 Y-32.367
X44.431 Y-32.472
X44.232 Y-32.572
X44.022 Y-32.665
X43.796 Y-32.748
X43.551 Y-32.819
X43.286 Y-32.874
X43.003 Y-32.912
X42.707 Y-32.933
X42.406 Y-32.938
X42.111 Y-32.928
X41.838 Y-32.908
X41.601 Y-32.881
X41.414 Y-32.851
X41.289 Y-32.821
X41.233 Y-32.792
X41.232 Y-32.779
X41.25 Y-32.765
X41.335 Y-32.735
X41.481 Y-32.698
X41.676 Y-32.65
X41.906 Y-32.586
X42.16 Y-32.501
X42.425 Y-32.395
X42.695 Y-32.269
X42.962 Y-32.124
X43.223 Y-31.964
X43.474 Y-31.793
X43.714 Y-31.615
X43.942 Y-31.434
X44.16 Y-31.253
X44.369 Y-31.072
X44.571 Y-30.893
X44.768 Y-30.714
X44.963 Y-30.53
X45.157 Y-30.337
X45.354 Y-30.131
X45.555 Y-29.906
X45.761 Y-29.658
X45.973 Y-29.384
X46.19 Y-29.083
X46.411 Y-28.754
X46.634 Y-28.401
X46.854 Y-28.03
X47.067 Y-27.649
X47.266 Y-27.27
X47.446 Y-26.902
X47.602 Y-26.558
X47.728 Y-26.25
X47.82 Y-25.986
X47.875 Y-25.777
X47.891 Y-25.627
X47.884 Y-25.576
X47.869 Y-25.54
X47.844 Y-25.52
X47.812 Y-25.515
X47.772 Y-25.524
X47.725 Y-25.547
X47.616 Y-25.629
X47.489 Y-25.751
X47.351 Y-25.908
X47.203 Y-26.09
X47.048 Y-26.294
X46.886 Y-26.514
X46.715 Y-26.746
X46.534 Y-26.987
X46.341 Y-27.235
X46.135 Y-27.487
X45.912 Y-27.742
X45.673 Y-27.997
X45.417 Y-28.251
X45.144 Y-28.502
X44.855 Y-28.748
X44.551 Y-28.988
X44.235 Y-29.22
X43.907 Y-29.443
X43.57 Y-29.655
X43.227 Y-29.856
X42.878 Y-30.044
X42.526 Y-30.218
X42.171 Y-30.378
X41.814 Y-30.525
X41.456 Y-30.657
X41.096 Y-30.775
X40.734 Y-30.879
X40.367 Y-30.97
X39.996 Y-31.048
X39.617 Y-31.114
X39.23 Y-31.169
X38.832 Y-31.212
X38.423 Y-31.245
X38.001 Y-31.267
X37.565 Y-31.279
X37.115 Y-31.281
X36.651 Y-31.271
X36.173 Y-31.248
X35.682 Y-31.212
X35.181 Y-31.162
X34.672 Y-31.095
X34.157 Y-31.01
X33.639 Y-30.905
X33.123 Y-30.78
X32.611 Y-30.633
X32.107 Y-30.465
X31.616 Y-30.275
X31.141 Y-30.063
X30.686 Y-29.832
X30.255 Y-29.583
X29.852 Y-29.32
X29.481 Y-29.047
X29.146 Y-28.768
X28.848 Y-28.492
X28.591 Y-28.225
X28.378 Y-27.974
X28.211 Y-27.749
X28.09 Y-27.556
X28.017 Y-27.402
X27.993 Y-27.291
X28 Y-27.253
X28.018 Y-27.227
X28.048 Y-27.213
X28.09 Y-27.21
X28.21 Y-27.236
X28.375 Y-27.301
X28.582 Y-27.398
X28.83 Y-27.519
X29.116 Y-27.655
X29.436 Y-27.797
X29.788 Y-27.938
X30.168 Y-28.071
X30.573 Y-28.189
X30.999 Y-28.29
X31.444 Y-28.369
X31.905 Y-28.426
X32.378 Y-28.459
X32.86 Y-28.47
X33.349 Y-28.458
X33.843 Y-28.426
X34.338 Y-28.375
X34.833 Y-28.307
X35.325 Y-28.225
X35.812 Y-28.13
X36.294 Y-28.025
X36.769 Y-27.912
X37.236 Y-27.792
X37.694 Y-27.666
X38.144 Y-27.534
X38.585 Y-27.396
X39.016 Y-27.252
X39.44 Y-27.101
X39.856 Y-26.942
X40.265 Y-26.774
X40.667 Y-26.595
X41.064 Y-26.404
X41.457 Y-26.201
X41.845 Y-25.984
X42.231 Y-25.752
X42.614 Y-25.505
X42.997 Y-25.242
X43.378 Y-24.963
X43.759 Y-24.669
X44.139 Y-24.36
X44.52 Y-24.038
X44.901 Y-23.703
X45.281 Y-23.358
X45.662 Y-23.005
X46.042 Y-22.645
X46.422 Y-22.281
X46.802 Y-21.915
X47.18 Y-21.548
X47.557 Y-21.184
X47.933 Y-20.823
X48.307 Y-20.469
X48.679 Y-20.123
X49.049 Y-19.787
X49.417 Y-19.462
X49.784 Y-19.149
X50.147 Y-18.849
X50.51 Y-18.563
X50.87 Y-18.292
X51.229 Y-18.035
X51.586 Y-17.792
X51.942 Y-17.565
X52.298 Y-17.351
X52.652 Y-17.153
X53.005 Y-16.969
X53.357 Y-16.799
X53.709 Y-16.643
X54.059 Y-16.501
X54.407 Y-16.373
X54.753 Y-16.26
X55.097 Y-16.162
X55.436 Y-16.078
X55.772 Y-16.01
X56.102 Y-15.958
X56.426 Y-15.921
X56.742 Y-15.9
X57.05 Y-15.894
X57.35 Y-15.903
X57.638 Y-15.925
X57.916 Y-15.959
X58.182 Y-16.003
X58.435 Y-16.054
X58.676 Y-16.11
X58.904 Y-16.169
X59.12 Y-16.229
X59.327 Y-16.29
X59.526 Y-16.35
X59.721 Y-16.411
X59.916 Y-16.475
X60.118 Y-16.545
X60.332 Y-16.625
X60.563 Y-16.719
X60.818 Y-16.832
X61.101 Y-16.966
X61.414 Y-17.126
X61.759 Y-17.313
X62.134 Y-17.525
X62.535 Y-17.761
X62.957 Y-18.017
X63.389 Y-18.287
X63.821 Y-18.562
X64.242 Y-18.836
X64.639 Y-19.1
X65.001 Y-19.344
X65.315 Y-19.561
X65.571 Y-19.743
X65.759 Y-19.883
X65.872 Y-19.977
X65.907 Y-20.022
Z5
G0 Z15
M9
G28 G91 Z0
G90
G28 G91 X0 Y0
G90
M5
M30
