%
(1001)
(T1  D=1.587 CR=0.381 - ZMIN=0 - bullnose end mill)
G90 G94
G17
G21
G28 G91 Z0
G90

(Trace2)
M9
T1 M6
S10000 M3
G54
M8
G0 X23.447 Y-18.711
Z16
Z5
G1 Z0 F381
X24.868 Y-19.07
X24.568 Y-19.954
X24.348 Y-20.43
X24.143 Y-20.762
X23.814 Y-21.17
X23.256 Y-21.743
X22.493 Y-22.202
X22.037 Y-22.406
X21.558 Y-22.538
X20.933 Y-22.623
X20.422 Y-22.659
X19.557 Y-22.609
X18.955 Y-22.511
X18.491 Y-22.367
X17.817 Y-22.066
X17.594 Y-21.956
X16.991 Y-21.456
X16.683 Y-21.14
X16.42 Y-20.788
X16.09 Y-20.207
X15.939 Y-19.905
X15.627 Y-18.97
X15.49 Y-18.374
X15.408 Y-17.643
X15.38 Y-16.9
X15.44 Y-16.019
X15.547 Y-15.405
X15.732 Y-14.807
X16.013 Y-14.104
X16.432 Y-13.443
X16.779 Y-13.016
X17.104 Y-12.72
X17.742 Y-12.269
X17.94 Y-12.159
X18.67 Y-11.847
X19.207 Y-11.689
X19.763 Y-11.604
X20.444 Y-11.555
X21.287 Y-11.623
X21.754 Y-11.711
X22.201 Y-11.862
X22.736 Y-12.13
X23.154 Y-12.376
X23.75 Y-12.948
X24.046 Y-13.305
X24.285 Y-13.7
X24.521 Y-14.237
X24.684 Y-14.683
X23.285 Y-15.012
X23.034 Y-14.371
X22.829 Y-14.002
X22.565 Y-13.672
X22.201 Y-13.306
X21.645 Y-13
X21.278 Y-12.87
X20.813 Y-12.797
X20.322 Y-12.776
X19.683 Y-12.831
X19.244 Y-12.93
X18.826 Y-13.102
X18.342 Y-13.364
X17.844 Y-13.816
X17.583 Y-14.136
X17.344 Y-14.573
X17.153 Y-15.045
X16.955 Y-15.805
X16.873 Y-16.408
X16.843 Y-17.121
X16.889 Y-17.934
X16.986 Y-18.533
X17.236 Y-19.414
X17.542 Y-20.012
X17.783 Y-20.344
X18.081 Y-20.63
X18.481 Y-20.938
X19.059 Y-21.214
X19.434 Y-21.336
X19.904 Y-21.412
X20.305 Y-21.443
X20.943 Y-21.382
X21.378 Y-21.281
X21.786 Y-21.097
X22.326 Y-20.754
X22.789 Y-20.235
X23.011 Y-19.915
X23.182 Y-19.565
X23.369 Y-19.001
X23.447 Y-18.711
Z5
G0 Z6
X26.662 Y-18.641
Z5
G1 Z0 F381
Y-11.738
X28.083
Y-16.148
X33.664
Y-11.738
X35.085
Y-22.476
X33.664
Y-17.415
X28.083
Y-22.476
X26.662
Y-18.641
Z5
G0 Z6
X30.539 Y-25.809
Z5
G1 Z0 F381
X30.616 Y-25.721
X31.014 Y-25.475
X31.281 Y-25.372
X31.681 Y-25.309
X32.037 Y-25.302
X32.449 Y-25.351
X32.723 Y-25.438
X33.076 Y-25.647
X33.257 Y-25.793
X33.513 Y-26.13
X33.619 Y-26.364
X33.687 Y-26.725
X33.697 Y-26.972
X33.646 Y-27.314
X33.53 Y-27.624
X33.315 Y-27.987
X33.007 Y-28.349
X32.385 Y-28.947
X31.329 Y-29.865
X31.04 Y-30.172
X30.902 Y-30.37
X33.71
Y-31.045
X29.925
X29.954 Y-30.736
X30.052 Y-30.455
X30.244 Y-30.094
X30.54 Y-29.718
X31.027 Y-29.236
X32.054 Y-28.357
X32.555 Y-27.827
X32.738 Y-27.588
X32.897 Y-27.283
X32.97 Y-26.947
X32.973 Y-26.803
X32.917 Y-26.515
X32.806 Y-26.32
X32.65 Y-26.145
X32.384 Y-25.97
X32.151 Y-25.902
X31.826 Y-25.882
X31.497 Y-25.935
X31.27 Y-26.048
X31.065 Y-26.213
X30.878 Y-26.502
X30.805 Y-26.755
X30.78 Y-27.026
X30.058 Y-26.952
X30.158 Y-26.439
X30.266 Y-26.179
X30.501 Y-25.854
X30.539 Y-25.809
Z5
G0 Z6
X34.714 Y-29.911
Z5
G1 Z0 F381
X34.584 Y-29.533
X34.498 Y-29.039
X34.464 Y-28.221
X34.496 Y-27.464
X34.589 Y-26.923
X34.706 Y-26.498
X34.889 Y-26.106
X35.09 Y-25.84
X35.332 Y-25.606
X35.696 Y-25.403
X35.959 Y-25.33
X36.402 Y-25.299
X36.781 Y-25.347
X37.14 Y-25.483
X37.462 Y-25.713
X37.714 Y-26.018
X37.941 Y-26.465
X38.08 Y-26.925
X38.174 Y-27.541
X38.196 Y-28.359
X38.158 Y-29.044
X38.041 Y-29.65
X37.956 Y-29.941
X37.774 Y-30.333
X37.573 Y-30.599
X37.331 Y-30.833
X36.967 Y-31.036
X36.703 Y-31.109
X36.331 Y-31.143
X35.836 Y-31.077
X35.555 Y-30.976
X35.306 Y-30.806
X35.03 Y-30.549
X34.714 Y-29.911
Z5
G0 Z6
X35.187 Y-28.221
Z5
G1 Z0 F381
X35.201 Y-28.948
X35.275 Y-29.42
X35.454 Y-29.95
X35.515 Y-30.1
X35.768 Y-30.37
X35.935 Y-30.473
X36.208 Y-30.546
X36.373 Y-30.559
X36.69 Y-30.487
X36.862 Y-30.392
X37.09 Y-30.161
X37.144 Y-30.096
X37.366 Y-29.494
X37.445 Y-29.106
X37.477 Y-28.545
X37.461 Y-27.494
X37.387 Y-27.022
X37.205 Y-26.492
X37.144 Y-26.342
X36.889 Y-26.072
X36.722 Y-25.968
X36.448 Y-25.896
X36.285 Y-25.882
X35.985 Y-25.939
X35.792 Y-26.042
X35.55 Y-26.288
X35.312 Y-26.907
X35.226 Y-27.307
X35.187 Y-27.886
Y-28.221
Z5
G0 Z6
X38.956 Y-26.952
Z5
G1 Z0 F381
X39.056 Y-26.439
X39.165 Y-26.179
X39.4 Y-25.854
X39.515 Y-25.721
X39.913 Y-25.475
X40.179 Y-25.372
X40.579 Y-25.309
X40.936 Y-25.302
X41.347 Y-25.351
X41.622 Y-25.438
X41.975 Y-25.647
X42.155 Y-25.793
X42.411 Y-26.13
X42.517 Y-26.364
X42.585 Y-26.725
X42.596 Y-26.972
X42.544 Y-27.314
X42.428 Y-27.624
X42.214 Y-27.987
X41.906 Y-28.349
X41.284 Y-28.947
X40.228 Y-29.865
X39.938 Y-30.172
X39.8 Y-30.37
X42.609
Y-31.045
X38.823
X38.852 Y-30.736
X38.951 Y-30.455
X39.143 Y-30.094
X39.438 Y-29.718
X39.926 Y-29.236
X40.953 Y-28.357
X41.454 Y-27.827
X41.637 Y-27.588
X41.795 Y-27.283
X41.868 Y-26.947
Y-26.77
X41.815 Y-26.515
X41.704 Y-26.32
X41.549 Y-26.145
X41.282 Y-25.97
X41.05 Y-25.902
X40.724 Y-25.882
X40.396 Y-25.935
X40.168 Y-26.048
X39.964 Y-26.213
X39.777 Y-26.502
X39.704 Y-26.755
X39.679 Y-27.026
X38.956 Y-26.952
Z5
G0 Z6
X43.612 Y-29.911
Z5
G1 Z0 F381
X43.482 Y-29.533
X43.396 Y-29.039
X43.362 Y-28.221
X43.395 Y-27.464
X43.487 Y-26.923
X43.587 Y-26.543
X43.788 Y-26.106
X43.988 Y-25.84
X44.23 Y-25.606
X44.594 Y-25.403
X44.858 Y-25.33
X45.3 Y-25.299
X45.68 Y-25.347
X46.038 Y-25.483
X46.36 Y-25.713
X46.612 Y-26.018
X46.839 Y-26.465
X46.979 Y-26.925
X47.073 Y-27.541
X47.095 Y-28.359
X47.057 Y-29.044
X46.94 Y-29.65
X46.855 Y-29.941
X46.672 Y-30.333
X46.471 Y-30.599
X46.229 Y-30.833
X45.865 Y-31.036
X45.602 Y-31.109
X45.23 Y-31.143
X44.735 Y-31.077
X44.453 Y-30.976
X44.204 Y-30.806
X43.929 Y-30.549
X43.612 Y-29.911
Z5
G0 Z6
X44.085 Y-28.221
Z5
G1 Z0 F381
X44.099 Y-28.948
X44.173 Y-29.42
X44.353 Y-29.95
X44.413 Y-30.1
X44.667 Y-30.37
X44.833 Y-30.473
X45.106 Y-30.546
X45.271 Y-30.559
X45.589 Y-30.487
X45.76 Y-30.392
X45.989 Y-30.161
X46.042 Y-30.096
X46.264 Y-29.494
X46.343 Y-29.106
X46.375 Y-28.545
X46.366 Y-27.574
X46.304 Y-27.1
X46.163 Y-26.642
X46.042 Y-26.342
X45.788 Y-26.072
X45.62 Y-25.968
X45.346 Y-25.896
X45.183 Y-25.882
X44.883 Y-25.939
X44.69 Y-26.042
X44.448 Y-26.288
X44.21 Y-26.907
X44.124 Y-27.307
X44.086 Y-27.886
X44.085 Y-28.221
Z5
G0 Z6
X43.571 Y-22.456
Z5
G1 Z0 F381
X44.144 Y-22.36
X44.815 Y-22.185
X45.494 Y-21.946
X46.08 Y-21.669
X46.491 Y-21.399
X46.763 Y-21.138
X46.822 Y-21.92
X46.911 Y-22.308
X47.028 Y-22.564
X47.209 Y-22.816
X47.467 Y-23.065
X47.808 Y-23.313
X48.457 Y-23.685
X49.715 Y-24.279
X51.391 Y-25.035
X51.456 Y-25.023
X51.528 Y-24.896
X51.814 Y-24.109
X51.994 Y-23.416
X52.084 Y-22.832
X52.116 Y-22.232
X52.085 Y-21.652
X51.97 Y-20.965
X51.809 Y-20.239
X51.812 Y-20.045
X51.852 Y-19.981
X51.917 Y-19.966
X52.36 Y-20.135
X52.578 Y-20.176
X52.847 Y-20.18
X53.172 Y-20.131
X53.55 Y-20.017
X53.974 Y-19.833
X54.432 Y-19.581
X54.905 Y-19.27
X55.596 Y-18.725
X56.011 Y-18.335
X56.366 Y-17.947
X56.643 Y-17.578
X56.831 Y-17.245
X56.928 Y-16.96
X56.94 Y-16.727
X56.884 Y-16.545
X56.784 Y-16.406
X56.597 Y-16.25
X56.293 Y-16.082
X55.808 Y-15.902
X54.783 Y-15.632
X52.875 Y-15.195
X52.448 Y-15.06
X52.31 Y-14.974
X52.283 Y-14.929
X52.298 Y-14.828
X52.53 Y-14.427
X52.619 Y-14.188
X52.675 Y-13.902
X52.688 Y-13.574
X52.653 Y-13.211
X52.517 Y-12.616
X52.301 Y-11.986
X51.388 Y-9.846
X51.203 Y-9.453
X51.083 Y-9.273
X50.951 Y-9.17
X50.876 Y-9.148
X50.707 Y-9.164
X50.511 Y-9.249
X50.187 Y-9.47
X49.67 Y-9.923
X49.343 Y-10.277
X49.051 Y-10.689
X48.208 Y-12.077
X47.908 Y-12.492
X47.729 Y-12.678
X47.572 Y-12.771
X47.501 Y-12.781
X47.367 Y-12.74
X46.902 Y-12.332
X46.572 Y-12.121
X46.18 Y-11.969
X45.746 Y-11.888
X45.29 Y-11.867
X44.313 Y-11.933
X42.655 Y-12.076
X42.141 Y-12.164
X41.853 Y-12.26
X41.627 Y-12.396
X41.542 Y-12.482
X41.478 Y-12.579
X41.434 Y-12.69
X41.412 Y-12.813
Y-12.948
X41.476 Y-13.252
X41.62 Y-13.595
X41.835 Y-13.965
X42.259 Y-14.545
X42.754 Y-15.113
X43.982 Y-16.354
X44.09 Y-16.497
X44.121 Y-16.599
X44.079 Y-16.675
X43.675 Y-16.957
X43.414 Y-17.214
X43.066 Y-17.667
X42.666 Y-18.309
X42.402 Y-18.823
X42.211 Y-19.335
X42.092 Y-19.878
X41.875 Y-21.833
X41.857 Y-22.218
X41.879 Y-22.378
X41.934 Y-22.45
X42.022
X42.328 Y-22.367
X42.53 Y-22.38
X42.924 Y-22.462
X43.268 Y-22.478
X43.571 Y-22.456
Z5
G0 Z6
X49.721 Y-9.873
Z5
G1 Z0 F381
X49.45 Y-10.294
X49.195 Y-10.845
X48.444 Y-12.87
X48.31 Y-13.406
X48.266 Y-13.875
X48.292 Y-14.511
X48.542 Y-16.528
X48.549 Y-16.868
X48.533 Y-16.936
Z5
G0 Z6
X52.332 Y-14.995
Z5
G1 Z0 F381
X52.071 Y-14.957
X51.81 Y-14.988
X51.492 Y-15.103
X50.042 Y-15.862
X49.583 Y-16.165
X49.1 Y-16.583
X48.679 Y-16.965
X48.65 Y-16.985
Z5
G0 Z6
X51.803 Y-20.099
Z5
G1 Z0 F381
X51.705 Y-19.927
X51.444 Y-19.222
X51.267 Y-18.916
X51.015 Y-18.62
X50.692 Y-18.346
X50.152 Y-17.998
X49.049 Y-17.418
X48.533 Y-17.169
Z5
G0 Z6
X46.764 Y-21.14
Z5
G1 Z0 F381
X47.146 Y-20.914
X47.545 Y-20.581
X47.881 Y-20.21
X48.124 Y-19.841
X48.306 Y-19.427
X48.412 Y-18.98
X48.45 Y-18.438
X48.441 Y-17.541
X48.488 Y-17.261
X48.533 Y-17.169
Z5
G0 Z6
X44.121 Y-16.597
Z5
G1 Z0 F381
X44.293 Y-16.814
X44.542 Y-17.013
X44.866 Y-17.19
X45.259 Y-17.337
X45.706 Y-17.44
X46.186 Y-17.486
X46.674 Y-17.472
X47.324 Y-17.377
X48.295 Y-17.181
X48.533 Y-17.169
Z5
G0 Z6
X45.358 Y-11.867
Z5
G1 Z0 F381
X44.954 Y-10.881
X44.779 Y-10.585
X44.431 Y-10.17
X43.64 Y-9.334
X43.439 Y-9.059
X43.404 Y-8.935
X43.449 Y-8.908
X43.625 Y-8.971
X44.056 Y-9.259
X44.841 Y-9.905
X45.924 Y-10.899
X47.384 Y-12.351
X47.717 Y-12.675
X47.728 Y-12.679
Z5
G0 Z6
X52.335 Y-12.077
Z5
G1 Z0 F381
X52.893 Y-11.539
X53.454 Y-10.899
X53.932 Y-10.253
X54.16 Y-9.85
X54.238 Y-9.598
X54.264 Y-9.215
X54.304 Y-9.159
X54.372 Y-9.16
X54.478 Y-9.246
X54.55 Y-9.408
X54.555 Y-9.632
X54.465 Y-10.005
X53.942 Y-11.451
X53.53 Y-12.439
X53.201 Y-13.077
X52.918 Y-13.507
X52.685 Y-13.778
X52.606 Y-14.23
X54.09 Y-14.065
X54.716 Y-14.068
X56.421 Y-14.226
X57.044 Y-14.267
X57.314 Y-14.342
X57.574 Y-14.475
X57.826 Y-14.676
X57.894 Y-14.771
X57.883 Y-14.826
X57.765 Y-14.835
X57.132 Y-14.695
X56.798 Y-14.68
X56.249 Y-14.744
X55.265 Y-14.955
X54.582 Y-15.16
X54.224 Y-15.32
X54.08 Y-15.438
X54.067 Y-15.469
Z5
G0 Z6
X55.701 Y-15.87
Z5
G1 Z0 F381
X55.122 Y-15.896
X54.521 Y-15.853
X53.612 Y-15.749
X52.871 Y-15.741
X52.185 Y-15.809
X51.633 Y-15.923
X51.017 Y-16.125
X48.743 Y-17.092
X48.533 Y-17.169
Z5
G0 Z6
X51.77 Y-24.246
Z5
G1 Z0 F381
X51.761 Y-22.631
X51.699 Y-22.133
X51.584 Y-21.686
X51.34 Y-21.061
X50.987 Y-20.381
X50.555 Y-19.688
X49.988 Y-18.906
X49.204 Y-17.96
X48.547 Y-17.19
X48.533 Y-17.169
Z5
G0 Z6
X42.601 Y-22.396
Z5
G1 Z0 F381
X43.389 Y-22.264
X44.049 Y-22.088
X44.585 Y-21.873
X45.054 Y-21.618
X45.554 Y-21.274
X46.068 Y-20.844
X46.571 Y-20.347
X47.031 Y-19.817
X47.417 Y-19.295
X47.768 Y-18.706
X47.977 Y-18.228
X48.213 Y-17.552
X48.369 Y-17.309
X48.515 Y-17.178
X48.533 Y-17.169
Z5
G0 Z6
X41.494 Y-12.55
Z5
G1 Z0 F381
X41.499 Y-12.705
X41.603 Y-12.976
X41.885 Y-13.414
X42.419 Y-14.058
X43.093 Y-14.759
X43.707 Y-15.322
X44.218 Y-15.726
X44.756 Y-16.077
X45.336 Y-16.37
X45.964 Y-16.604
X46.625 Y-16.783
X47.419 Y-16.934
X48.141 Y-17.013
X48.294 Y-17.016
X48.46 Y-16.952
X48.076 Y-16.416
X47.842 Y-15.962
X47.625 Y-15.383
X47.464 Y-14.753
X47.383 Y-14.162
X47.38 Y-13.768
X47.441 Y-13.401
X47.614 Y-12.924
X47.601 Y-12.79
X47.59 Y-12.764
Z5
G0 Z6
X39.113 Y-12.505
Z5
G1 Z0 F381
Y-22.476
X37.692
Y-11.738
X39.113
Y-12.505
Z5
G0 Z16
M9
G28 G91 Z0
G90
G28 G91 X0 Y0
G90
M30
%
