%
(1001)
(T1  D=1.587 CR=0.381 - ZMIN=0 - bullnose end mill)
G90 G94
G17
G21
G28 G91 Z0
G90

(Trace3)
M9
T1 M6
S10000 M3
G54
M8
G0 X16.811 Y-15.73
Z16
Z5
G1 Z0 F381
X20.314 Y-16.841
X19.886 Y-18.084
X19.633 Y-18.681
X19.332 Y-19.247
X18.97 Y-19.775
X18.553 Y-20.269
X17.787 Y-21.046
X17.628 Y-21.198
X16.526 Y-21.828
X15.96 Y-22.094
X15.376 Y-22.301
X14.771 Y-22.44
X13.94 Y-22.548
X12.88 Y-22.615
X11.505 Y-22.477
X10.703 Y-22.339
X10.186 Y-22.206
X9.686 Y-22.029
X9.208 Y-21.804
X8.748 Y-21.534
X8.085 Y-21.064
X7.021 Y-20.185
X6.153 Y-18.936
X5.695 Y-18.165
X5.436 Y-17.634
X5.224 Y-17.085
X5.064 Y-16.519
X4.899 Y-15.642
X4.801 Y-14.741
X4.726 Y-13.52
X4.821 Y-11.941
X4.934 Y-11.013
X5.051 Y-10.409
X5.211 Y-9.82
X5.423 Y-9.249
X5.684 Y-8.695
X6.149 Y-7.89
X6.851 Y-6.846
X7.033 Y-6.587
X8.134 Y-5.68
X8.821 Y-5.198
X9.297 Y-4.921
X9.793 Y-4.691
X10.31 Y-4.513
X10.846 Y-4.379
X11.676 Y-4.241
X13.1 Y-4.109
X14.325 Y-4.207
X15.044 Y-4.311
X15.739 Y-4.479
X16.184 Y-4.637
X16.825 Y-4.95
X17.44 Y-5.331
X18.434 Y-6.05
X19.048 Y-6.785
X19.413 Y-7.3
X19.714 Y-7.852
X20.012 Y-8.586
X20.265 Y-9.345
X16.689 Y-10.2
X16.448 Y-9.469
X16.268 Y-9.077
X16.033 Y-8.719
X15.673 Y-8.312
X15.358 Y-8.003
X14.702 Y-7.6
X14.31 Y-7.421
X13.898 Y-7.305
X13.358 Y-7.229
X12.917 Y-7.197
X11.996 Y-7.303
X11.554 Y-7.398
X11.136 Y-7.544
X10.745 Y-7.753
X10.259 Y-8.111
X9.682 Y-8.625
X9.178 Y-9.517
X8.918 Y-10.064
X8.717 Y-10.628
X8.584 Y-11.213
X8.507 Y-11.814
X8.456 Y-12.838
X8.458 Y-13.896
X8.5 Y-14.747
X8.574 Y-15.374
X8.704 Y-15.984
X8.903 Y-16.575
X9.163 Y-17.149
X9.67 Y-18.086
X10.347 Y-18.699
X10.706 Y-18.962
X11.089 Y-19.173
X11.5 Y-19.321
X12.084 Y-19.442
X12.843 Y-19.526
X13.633 Y-19.44
X14.065 Y-19.338
X14.472 Y-19.168
X14.95 Y-18.876
X15.321 Y-18.611
X15.851 Y-17.975
X16.158 Y-17.526
X16.401 Y-17.043
X16.628 Y-16.398
X16.811 Y-15.73
Z5
G0 Z6
X23.427 Y-16.085
Z5
G1 Z0 F381
Y-4.414
X27.04
Y-11.457
X34.12
Y-4.414
X37.734
Y-22.309
X34.12
Y-14.485
X27.04
Y-22.309
X23.427
Y-16.085
Z5
G0 Z6
X27.183 Y-25.796
Z5
G1 Z0 F381
X27.925 Y-25.371
X28.367 Y-25.183
X28.83 Y-25.063
X29.432 Y-24.988
X29.923 Y-24.957
X30.697 Y-25.014
X31.196 Y-25.099
X31.554 Y-25.209
X32.005 Y-25.427
X32.648 Y-25.853
X32.753 Y-25.928
X33.19 Y-26.456
X33.432 Y-26.828
X33.568 Y-27.127
X33.684 Y-27.553
X33.772 Y-28.229
X33.776 Y-28.478
X33.72 Y-29.077
X33.59 Y-29.594
X33.452 Y-29.982
X33.113 Y-30.657
X32.735 Y-31.222
X32.434 Y-31.602
X31.754 Y-32.333
X29.965 Y-34.016
X29.537 Y-34.465
X29.24 Y-34.868
X29.15 Y-35.009
X33.782
Y-37.176
X25.606
X25.761 Y-36.364
X25.91 Y-35.873
X26.161 Y-35.31
X26.403 Y-34.852
X27.194 Y-33.805
X27.733 Y-33.189
X28.546 Y-32.379
X29.953 Y-31.055
X30.584 Y-30.378
X30.993 Y-29.882
X31.238 Y-29.434
X31.36 Y-29.078
X31.441 Y-28.51
X31.393 Y-28.021
X31.313 Y-27.768
X31.117 Y-27.447
X31.018 Y-27.315
X30.673 Y-27.071
X30.438 Y-26.968
X30.078 Y-26.906
X29.756 Y-26.899
X29.335 Y-26.959
X29.095 Y-27.055
X28.745 Y-27.298
X28.665 Y-27.386
X28.425 Y-27.777
X28.308 Y-28.077
X28.229 Y-28.527
X28.204 Y-28.792
X25.88 Y-28.56
X26.014 Y-27.774
X26.152 Y-27.274
X26.302 Y-26.921
X26.5 Y-26.594
X26.824 Y-26.186
X27.183 Y-25.796
Z5
G0 Z6
X35.673 Y-34.285
Z5
G1 Z0 F381
X35.518 Y-33.681
X35.423 Y-33.062
X35.365 Y-32.219
X35.357 Y-30.712
X35.403 Y-29.627
X35.476 Y-28.988
X35.603 Y-28.364
X35.798 Y-27.758
X36.052 Y-27.167
X36.547 Y-26.202
X37.13 Y-25.662
X37.44 Y-25.431
X37.772 Y-25.249
X38.13 Y-25.123
X38.639 Y-25.024
X39.302 Y-24.957
X40.099 Y-25.045
X40.602 Y-25.164
X40.953 Y-25.31
X41.278 Y-25.513
X41.681 Y-25.847
X42.067 Y-26.219
X42.559 Y-27.186
X42.812 Y-27.777
X43.006 Y-28.385
X43.132 Y-29.01
X43.219 Y-29.866
X43.254 Y-31.174
X43.218 Y-32.486
X43.13 Y-33.343
X43.002 Y-33.969
X42.807 Y-34.577
X42.553 Y-35.17
X42.058 Y-36.138
X41.475 Y-36.679
X41.165 Y-36.909
X40.833 Y-37.092
X40.474 Y-37.217
X39.965 Y-37.317
X39.302 Y-37.383
X38.474 Y-37.279
X38.079 Y-37.187
X37.706 Y-37.047
X37.362 Y-36.848
X36.938 Y-36.509
X36.439 Y-36.022
X35.976 Y-35.067
X35.74 Y-34.483
X35.673 Y-34.285
Z5
G0 Z6
X39.302 Y-26.891
Z5
G1 Z0 F381
X38.964 Y-26.94
X38.719 Y-27.05
X38.516 Y-27.2
X38.26 Y-27.526
X38.127 Y-27.816
X38.032 Y-28.128
X37.86 Y-29.263
X37.801 Y-30.153
X37.798 Y-32.162
X37.85 Y-33.023
X38.007 Y-34.121
X38.161 Y-34.602
X38.328 Y-34.907
X38.576 Y-35.203
X38.87 Y-35.371
X39.131 Y-35.433
X39.371 Y-35.444
X39.672 Y-35.393
X39.914 Y-35.278
X40.089 Y-35.149
X40.344 Y-34.819
X40.477 Y-34.527
X40.572 Y-34.213
X40.745 Y-33.081
X40.804 Y-32.194
X40.807 Y-30.189
X40.755 Y-29.331
X40.597 Y-28.236
X40.443 Y-27.75
X40.301 Y-27.484
X40.049 Y-27.165
X39.762 Y-26.985
X39.506 Y-26.913
X39.302 Y-26.891
Z5
G0 Z6
X41.359 Y-22.309
Z5
G1 Z0 F381
Y-4.414
X44.972
Y-22.309
X41.359
Z5
G0 Z6
X45.733 Y-26.186
Z5
G1 Z0 F381
X46.092 Y-25.796
X46.835 Y-25.371
X47.276 Y-25.183
X47.739 Y-25.063
X48.341 Y-24.988
X48.832 Y-24.957
X49.606 Y-25.014
X50.105 Y-25.099
X50.463 Y-25.209
X50.915 Y-25.427
X51.557 Y-25.853
X51.662 Y-25.928
X52.099 Y-26.456
X52.341 Y-26.828
X52.477 Y-27.127
X52.593 Y-27.553
X52.681 Y-28.229
X52.685 Y-28.478
X52.629 Y-29.077
X52.5 Y-29.594
X52.361 Y-29.982
X52.022 Y-30.657
X51.645 Y-31.222
X51.343 Y-31.602
X50.663 Y-32.333
X48.875 Y-34.016
X48.447 Y-34.465
X48.149 Y-34.868
X48.06 Y-35.009
X52.692
Y-37.176
X44.515
X44.671 Y-36.364
X44.819 Y-35.873
X45.07 Y-35.31
X45.312 Y-34.852
X46.104 Y-33.805
X46.642 Y-33.189
X47.455 Y-32.379
X48.862 Y-31.055
X49.493 Y-30.378
X49.903 Y-29.882
X50.147 Y-29.434
X50.269 Y-29.078
X50.351 Y-28.51
X50.303 Y-28.021
X50.223 Y-27.768
X50.027 Y-27.447
X49.927 Y-27.315
X49.582 Y-27.071
X49.347 Y-26.968
X48.987 Y-26.906
X48.665 Y-26.899
X48.244 Y-26.959
X48.004 Y-27.055
X47.654 Y-27.298
X47.574 Y-27.386
X47.334 Y-27.777
X47.218 Y-28.077
X47.138 Y-28.527
X47.113 Y-28.792
X44.789 Y-28.56
X44.923 Y-27.774
X45.061 Y-27.274
X45.211 Y-26.921
X45.409 Y-26.594
X45.733 Y-26.186
Z5
G0 Z6
X54.582 Y-34.285
Z5
G1 Z0 F381
X54.427 Y-33.681
X54.332 Y-33.062
X54.274 Y-32.219
X54.266 Y-30.712
X54.312 Y-29.627
X54.385 Y-28.988
X54.512 Y-28.364
X54.708 Y-27.758
X54.962 Y-27.167
X55.456 Y-26.202
X56.039 Y-25.662
X56.349 Y-25.431
X56.681 Y-25.249
X57.04 Y-25.123
X57.549 Y-25.024
X58.212 Y-24.957
X59.008 Y-25.045
X59.511 Y-25.164
X59.862 Y-25.31
X60.187 Y-25.513
X60.59 Y-25.847
X60.976 Y-26.219
X61.469 Y-27.186
X61.722 Y-27.777
X61.916 Y-28.385
X62.042 Y-29.01
X62.128 Y-29.866
X62.163 Y-31.174
X62.127 Y-32.486
X62.039 Y-33.343
X61.912 Y-33.969
X61.716 Y-34.577
X61.462 Y-35.17
X60.967 Y-36.138
X60.384 Y-36.679
X60.074 Y-36.909
X59.742 Y-37.092
X59.384 Y-37.217
X58.875 Y-37.317
X58.212 Y-37.383
X57.383 Y-37.279
X56.988 Y-37.187
X56.616 Y-37.047
X56.271 Y-36.848
X55.848 Y-36.509
X55.348 Y-36.022
X54.885 Y-35.067
X54.649 Y-34.483
X54.582 Y-34.285
Z5
G0 Z6
X58.936 Y-23.311
Z5
G1 Z0 F381
X60.055 Y-23.747
X60.868 Y-24.059
X60.987 Y-24.073
X61.084 Y-24.015
X61.174 Y-23.865
X61.314 Y-23.447
X61.524 Y-22.539
X61.732 Y-21.335
X61.84 Y-20.349
X61.87 Y-19.704
X61.856 Y-19.1
X61.799 Y-18.561
X61.705 Y-18.106
X61.533 Y-17.606
X61.419 Y-17.325
X61.417 Y-17.274
X61.438 Y-17.242
X61.56 Y-17.222
X62.471 Y-17.305
X62.881 Y-17.302
X63.312 Y-17.251
X63.754 Y-17.135
X64.205 Y-16.946
X64.663 Y-16.678
X65.129 Y-16.332
X65.603 Y-15.916
X66.319 Y-15.199
X68.158 Y-13.204
X68.634 Y-12.717
X68.67 Y-12.631
X68.618 Y-12.552
X68.24 Y-12.296
X67.467 Y-11.859
X66.63 Y-11.458
X65.623 Y-11.056
X64.548 Y-10.707
X63.534 Y-10.446
X62.49 Y-10.25
X62.05 Y-10.175
X61.974 Y-10.15
X61.932 Y-10.118
X61.919 Y-10.074
X61.966 Y-9.932
X62.226 Y-9.344
X62.371 Y-8.889
X62.485 Y-8.343
X62.548 Y-7.731
X62.541 Y-7.081
X62.457 Y-6.42
X62.297 Y-5.775
X62.072 Y-5.164
X61.802 Y-4.596
X61.363 Y-3.838
X60.641 Y-2.668
X60.352 Y-2.175
X60.286 Y-2.099
X60.214 Y-2.046
X60.132 Y-2.018
X60.035 Y-2.015
X59.921 Y-2.04
X59.633 Y-2.171
X59.056 Y-2.562
X58.35 Y-3.142
X57.603 Y-3.844
X56.915 Y-4.593
X56.531 Y-5.086
X56.223 Y-5.556
X55.995 Y-5.995
X55.839 Y-6.398
X55.711 Y-6.922
X55.622 Y-7.481
X55.602 Y-7.523
X55.575 Y-7.534
X55.497 Y-7.461
X55.106 Y-6.857
X54.857 Y-6.55
X54.548 Y-6.267
X54.371 Y-6.143
X54.178 Y-6.035
X53.969 Y-5.944
X53.744 Y-5.87
X53.503 Y-5.815
X52.976 Y-5.76
X52.393 Y-5.774
X51.762 Y-5.845
X50.756 Y-6.026
X48.51 Y-6.507
X47.593 Y-6.656
X47.094 Y-6.716
X46.996 Y-6.761
X46.978 Y-6.801
X46.993 Y-6.936
X47.259 Y-7.659
X47.667 Y-8.597
X48.076 Y-9.414
X48.559 Y-10.233
X48.911 Y-10.739
X49.275 Y-11.188
X49.638 Y-11.563
X49.984 Y-11.858
X50.429 Y-12.153
X50.717 Y-12.322
X50.765 Y-12.367
X50.785 Y-12.412
X50.776 Y-12.46
X50.673 Y-12.578
X49.673 Y-13.322
X49.316 Y-13.64
X48.973 Y-14.01
X48.662 Y-14.434
X48.396 Y-14.913
X48.183 Y-15.448
X48.026 Y-16.032
X47.923 Y-16.658
X47.852 Y-17.635
X47.822 Y-19.639
X47.773 Y-20.17
X47.713 Y-20.501
X47.723 Y-20.531
X47.806 Y-20.558
X48.435 Y-20.537
X49.451 Y-20.433
X50.523 Y-20.249
X51.669 Y-19.985
X52.514 Y-19.735
X53.162 Y-19.479
X53.624 Y-19.243
X54.021 Y-18.984
X54.362 Y-18.684
X54.441 Y-18.607
X54.397 Y-18.871
X54.404 Y-19.163
X54.489 Y-19.541
X54.571 Y-19.755
X54.681 Y-19.982
X54.82 Y-20.219
X55.183 Y-20.711
X55.651 Y-21.209
X56.202 Y-21.694
X56.808 Y-22.145
X57.44 Y-22.551
X58.067 Y-22.9
X58.936 Y-23.311
Z5
G0 Z6
X58.212 Y-26.891
Z5
G1 Z0 F381
X57.873 Y-26.94
X57.628 Y-27.05
X57.425 Y-27.2
X57.169 Y-27.526
X57.036 Y-27.816
X56.942 Y-28.128
X56.769 Y-29.263
X56.71 Y-30.153
X56.707 Y-32.162
X56.759 Y-33.023
X56.917 Y-34.121
X57.07 Y-34.602
X57.237 Y-34.907
X57.485 Y-35.203
X57.779 Y-35.371
X58.041 Y-35.433
X58.28 Y-35.444
X58.581 Y-35.393
X58.823 Y-35.278
X58.998 Y-35.149
X59.253 Y-34.819
X59.387 Y-34.527
X59.482 Y-34.213
X59.654 Y-33.081
X59.713 Y-32.194
X59.716 Y-30.189
X59.665 Y-29.331
X59.507 Y-28.236
X59.352 Y-27.75
X59.211 Y-27.484
X58.959 Y-27.165
X58.671 Y-26.985
X58.416 Y-26.913
X58.212 Y-26.891
Z5
G0 Z16
M9
G28 G91 Z0
G90
G28 G91 X0 Y0
G90
M30
%
