%
(1001)
(T1  D=1.587 CR=0.381 - ZMIN=0 - bullnose end mill)
G90 G94
G17
G21
G28 G91 Z0
G90

(Trace2)
M9
T1 M6
S10000 M3
G54
M8
G0 X23.447 Y-18.711
Z16
Z5
G1 Z0 F381
X24.868 Y-19.07
X24.828 Y-19.198
X24.787 Y-19.326
X24.746 Y-19.454
X24.704 Y-19.58
X24.661 Y-19.706
X24.615 Y-19.831
X24.568 Y-19.954
X24.518 Y-20.076
X24.465 Y-20.196
X24.408 Y-20.314
X24.348 Y-20.43
X24.284 Y-20.543
X24.216 Y-20.654
X24.143 Y-20.762
X24.066 Y-20.867
X23.985 Y-20.97
X23.901 Y-21.071
X23.814 Y-21.17
X23.725 Y-21.268
X23.634 Y-21.365
X23.541 Y-21.46
X23.447 Y-21.555
X23.351 Y-21.649
X23.256 Y-21.743
X23.148 Y-21.812
X23.04 Y-21.881
X22.932 Y-21.949
X22.823 Y-22.015
X22.714 Y-22.08
X22.604 Y-22.142
X22.493 Y-22.202
X22.381 Y-22.259
X22.267 Y-22.312
X22.153 Y-22.361
X22.037 Y-22.406
X21.92 Y-22.446
X21.801 Y-22.481
X21.68 Y-22.512
X21.558 Y-22.538
X21.435 Y-22.561
X21.31 Y-22.58
X21.185 Y-22.597
X21.059 Y-22.611
X20.933 Y-22.623
X20.805 Y-22.633
X20.678 Y-22.642
X20.55 Y-22.651
X20.422 Y-22.659
X20.297 Y-22.654
X20.173 Y-22.649
X20.049 Y-22.644
X19.926 Y-22.638
X19.802 Y-22.63
X19.679 Y-22.62
X19.557 Y-22.609
X19.435 Y-22.595
X19.314 Y-22.579
X19.193 Y-22.559
X19.074 Y-22.537
X18.955 Y-22.511
X18.838 Y-22.48
X18.721 Y-22.446
X18.606 Y-22.408
X18.491 Y-22.367
X18.377 Y-22.322
X18.264 Y-22.274
X18.152 Y-22.225
X18.04 Y-22.173
X17.928 Y-22.12
X17.817 Y-22.066
X17.705 Y-22.011
X17.594 Y-21.956
X17.506 Y-21.886
X17.418 Y-21.816
X17.33 Y-21.746
X17.244 Y-21.675
X17.158 Y-21.603
X17.074 Y-21.53
X16.991 Y-21.456
X16.911 Y-21.38
X16.832 Y-21.302
X16.756 Y-21.222
X16.683 Y-21.14
X16.613 Y-21.056
X16.546 Y-20.969
X16.482 Y-20.879
X16.42 Y-20.788
X16.361 Y-20.695
X16.303 Y-20.6
X16.248 Y-20.503
X16.194 Y-20.405
X16.142 Y-20.307
X16.09 Y-20.207
X16.039 Y-20.107
X15.989 Y-20.006
X15.939 Y-19.905
X15.898 Y-19.789
X15.856 Y-19.672
X15.815 Y-19.556
X15.775 Y-19.439
X15.736 Y-19.322
X15.698 Y-19.205
X15.662 Y-19.088
X15.627 Y-18.97
X15.595 Y-18.852
X15.565 Y-18.733
X15.537 Y-18.614
X15.512 Y-18.494
X15.49 Y-18.374
X15.471 Y-18.253
X15.455 Y-18.132
X15.44 Y-18.01
X15.428 Y-17.888
X15.417 Y-17.766
X15.408 Y-17.643
X15.4 Y-17.52
X15.393 Y-17.397
X15.387 Y-17.273
X15.381 Y-17.15
X15.375 Y-17.027
X15.38 Y-16.9
X15.386 Y-16.773
X15.392 Y-16.647
X15.399 Y-16.521
X15.407 Y-16.395
X15.416 Y-16.269
X15.427 Y-16.144
X15.44 Y-16.019
X15.456 Y-15.895
X15.474 Y-15.771
X15.495 Y-15.649
X15.519 Y-15.526
X15.547 Y-15.405
X15.578 Y-15.284
X15.613 Y-15.164
X15.65 Y-15.045
X15.69 Y-14.926
X15.732 Y-14.807
X15.776 Y-14.69
X15.821 Y-14.572
X15.868 Y-14.455
X15.915 Y-14.338
X15.964 Y-14.221
X16.013 Y-14.104
X16.07 Y-14.008
X16.129 Y-13.911
X16.187 Y-13.816
X16.247 Y-13.721
X16.307 Y-13.627
X16.369 Y-13.534
X16.432 Y-13.443
X16.497 Y-13.353
X16.564 Y-13.265
X16.633 Y-13.179
X16.705 Y-13.096
X16.779 Y-13.016
X16.857 Y-12.938
X16.937 Y-12.863
X17.019 Y-12.79
X17.104 Y-12.72
X17.191 Y-12.651
X17.28 Y-12.585
X17.371 Y-12.52
X17.462 Y-12.456
X17.555 Y-12.393
X17.648 Y-12.33
X17.742 Y-12.269
X17.836 Y-12.207
X17.94 Y-12.159
X18.043 Y-12.111
X18.147 Y-12.064
X18.25 Y-12.018
X18.355 Y-11.973
X18.459 Y-11.929
X18.564 Y-11.887
X18.67 Y-11.847
X18.775 Y-11.81
X18.882 Y-11.775
X18.99 Y-11.743
X19.098 Y-11.714
X19.207 Y-11.689
X19.317 Y-11.667
X19.427 Y-11.647
X19.539 Y-11.631
X19.651 Y-11.616
X19.763 Y-11.604
X19.876 Y-11.593
X19.989 Y-11.584
X20.102 Y-11.576
X20.216 Y-11.568
X20.33 Y-11.562
X20.444 Y-11.555
X20.565 Y-11.562
X20.686 Y-11.569
X20.808 Y-11.577
X20.928 Y-11.586
X21.049 Y-11.596
X21.168 Y-11.609
X21.287 Y-11.623
X21.406 Y-11.64
X21.523 Y-11.66
X21.639 Y-11.684
X21.754 Y-11.711
X21.868 Y-11.742
X21.98 Y-11.778
X22.091 Y-11.818
X22.201 Y-11.862
X22.31 Y-11.91
X22.418 Y-11.961
X22.524 Y-12.015
X22.63 Y-12.071
X22.736 Y-12.13
X22.841 Y-12.19
X22.945 Y-12.251
X23.049 Y-12.313
X23.154 Y-12.376
X23.242 Y-12.455
X23.329 Y-12.536
X23.416 Y-12.616
X23.502 Y-12.697
X23.587 Y-12.78
X23.67 Y-12.863
X23.75 Y-12.948
X23.829 Y-13.034
X23.904 Y-13.122
X23.977 Y-13.213
X24.046 Y-13.305
X24.111 Y-13.4
X24.172 Y-13.498
X24.23 Y-13.598
X24.285 Y-13.7
X24.337 Y-13.805
X24.386 Y-13.911
X24.433 Y-14.018
X24.477 Y-14.127
X24.521 Y-14.237
X24.563 Y-14.347
X24.604 Y-14.459
X24.644 Y-14.571
X24.684 Y-14.683
X23.285 Y-15.012
X23.227 Y-14.849
X23.197 Y-14.768
X23.167 Y-14.687
X23.135 Y-14.607
X23.103 Y-14.528
X23.069 Y-14.449
X23.034 Y-14.371
X22.997 Y-14.295
X22.959 Y-14.219
X22.918 Y-14.146
X22.875 Y-14.073
X22.829 Y-14.002
X22.781 Y-13.933
X22.73 Y-13.866
X22.677 Y-13.8
X22.622 Y-13.735
X22.565 Y-13.672
X22.507 Y-13.609
X22.447 Y-13.547
X22.387 Y-13.486
X22.325 Y-13.426
X22.264 Y-13.366
X22.201 Y-13.306
X22.133 Y-13.265
X22.064 Y-13.224
X21.995 Y-13.184
X21.926 Y-13.144
X21.856 Y-13.106
X21.787 Y-13.069
X21.716 Y-13.034
X21.645 Y-13
X21.573 Y-12.969
X21.501 Y-12.94
X21.428 Y-12.914
X21.354 Y-12.891
X21.278 Y-12.87
X21.202 Y-12.853
X21.126 Y-12.838
X21.049 Y-12.825
X20.971 Y-12.814
X20.892 Y-12.805
X20.813 Y-12.797
X20.734 Y-12.79
X20.654 Y-12.785
X20.574 Y-12.78
X20.414 Y-12.771
X20.322 Y-12.776
X20.23 Y-12.781
X20.138 Y-12.786
X20.046 Y-12.792
X19.955 Y-12.8
X19.863 Y-12.808
X19.773 Y-12.819
X19.683 Y-12.831
X19.593 Y-12.845
X19.505 Y-12.862
X19.417 Y-12.882
X19.33 Y-12.904
X19.244 Y-12.93
X19.159 Y-12.959
X19.074 Y-12.991
X18.991 Y-13.026
X18.908 Y-13.063
X18.826 Y-13.102
X18.745 Y-13.143
X18.663 Y-13.185
X18.583 Y-13.229
X18.502 Y-13.274
X18.422 Y-13.319
X18.342 Y-13.364
X18.277 Y-13.419
X18.213 Y-13.474
X18.149 Y-13.529
X18.085 Y-13.585
X18.023 Y-13.641
X17.962 Y-13.699
X17.902 Y-13.757
X17.844 Y-13.816
X17.787 Y-13.877
X17.733 Y-13.939
X17.68 Y-14.003
X17.631 Y-14.068
X17.583 Y-14.136
X17.539 Y-14.205
X17.496 Y-14.276
X17.456 Y-14.349
X17.417 Y-14.422
X17.38 Y-14.497
X17.344 Y-14.573
X17.309 Y-14.65
X17.275 Y-14.727
X17.242 Y-14.805
X17.21 Y-14.883
X17.177 Y-14.961
X17.128 Y-15.129
X17.104 Y-15.213
X17.08 Y-15.297
X17.057 Y-15.382
X17.035 Y-15.466
X17.013 Y-15.551
X16.993 Y-15.635
X16.973 Y-15.72
X16.955 Y-15.805
X16.939 Y-15.891
X16.924 Y-15.976
X16.911 Y-16.062
X16.899 Y-16.148
X16.889 Y-16.235
X16.88 Y-16.321
X16.873 Y-16.408
X16.866 Y-16.495
X16.861 Y-16.582
X16.856 Y-16.67
X16.851 Y-16.757
X16.847 Y-16.844
X16.844 Y-16.932
X16.84 Y-17.019
X16.843 Y-17.121
X16.846 Y-17.223
X16.85 Y-17.325
X16.854 Y-17.427
X16.859 Y-17.529
X16.864 Y-17.631
X16.871 Y-17.732
X16.879 Y-17.833
X16.889 Y-17.934
X16.9 Y-18.035
X16.913 Y-18.135
X16.928 Y-18.235
X16.945 Y-18.335
X16.964 Y-18.434
X16.986 Y-18.533
X17.009 Y-18.632
X17.034 Y-18.73
X17.06 Y-18.829
X17.087 Y-18.927
X17.116 Y-19.024
X17.145 Y-19.122
X17.175 Y-19.219
X17.205 Y-19.317
X17.236 Y-19.414
X17.272 Y-19.491
X17.308 Y-19.567
X17.345 Y-19.643
X17.382 Y-19.719
X17.42 Y-19.793
X17.459 Y-19.867
X17.5 Y-19.94
X17.542 Y-20.012
X17.586 Y-20.082
X17.632 Y-20.15
X17.68 Y-20.217
X17.73 Y-20.282
X17.783 Y-20.344
X17.838 Y-20.405
X17.896 Y-20.464
X17.956 Y-20.521
X18.017 Y-20.576
X18.081 Y-20.63
X18.145 Y-20.683
X18.211 Y-20.735
X18.278 Y-20.786
X18.345 Y-20.837
X18.413 Y-20.888
X18.481 Y-20.938
X18.552 Y-20.974
X18.624 Y-21.011
X18.696 Y-21.047
X18.768 Y-21.083
X18.84 Y-21.117
X18.913 Y-21.151
X18.986 Y-21.183
X19.059 Y-21.214
X19.133 Y-21.243
X19.207 Y-21.27
X19.282 Y-21.294
X19.358 Y-21.317
X19.434 Y-21.336
X19.511 Y-21.354
X19.589 Y-21.369
X19.667 Y-21.382
X19.745 Y-21.394
X19.824 Y-21.403
X19.904 Y-21.412
X19.984 Y-21.42
X20.064 Y-21.426
X20.144 Y-21.432
X20.305 Y-21.443
X20.396 Y-21.437
X20.488 Y-21.43
X20.58 Y-21.423
X20.671 Y-21.415
X20.762 Y-21.406
X20.853 Y-21.395
X20.943 Y-21.382
X21.032 Y-21.368
X21.12 Y-21.35
X21.207 Y-21.33
X21.293 Y-21.307
X21.378 Y-21.281
X21.462 Y-21.25
X21.545 Y-21.217
X21.626 Y-21.18
X21.706 Y-21.14
X21.786 Y-21.097
X21.864 Y-21.053
X21.942 Y-21.006
X22.02 Y-20.958
X22.097 Y-20.908
X22.173 Y-20.857
X22.25 Y-20.806
X22.326 Y-20.754
X22.395 Y-20.682
X22.463 Y-20.609
X22.531 Y-20.536
X22.598 Y-20.462
X22.663 Y-20.387
X22.727 Y-20.312
X22.789 Y-20.235
X22.849 Y-20.157
X22.906 Y-20.078
X22.96 Y-19.997
X23.011 Y-19.915
X23.059 Y-19.83
X23.103 Y-19.743
X23.144 Y-19.655
X23.182 Y-19.565
X23.218 Y-19.474
X23.251 Y-19.381
X23.283 Y-19.288
X23.313 Y-19.193
X23.341 Y-19.097
X23.369 Y-19.001
X23.395 Y-18.905
X23.421 Y-18.808
X23.447 Y-18.711
Z5
G0 Z6
X26.662 Y-18.641
Z5
G1 Z0 F381
Y-11.738
X28.083
Y-16.148
X33.664
Y-11.738
X35.085
Y-22.476
X33.664
Y-17.415
X28.083
Y-22.476
X26.662
Y-18.641
Z5
G0 Z6
X30.539 Y-25.809
Z5
G1 Z0 F381
X30.578 Y-25.765
X30.616 Y-25.721
X30.665 Y-25.688
X30.714 Y-25.655
X30.764 Y-25.623
X30.813 Y-25.591
X30.863 Y-25.56
X30.913 Y-25.53
X30.963 Y-25.502
X31.014 Y-25.475
X31.066 Y-25.45
X31.119 Y-25.427
X31.172 Y-25.406
X31.226 Y-25.388
X31.281 Y-25.372
X31.336 Y-25.358
X31.392 Y-25.346
X31.449 Y-25.336
X31.506 Y-25.327
X31.564 Y-25.32
X31.622 Y-25.314
X31.681 Y-25.309
X31.74 Y-25.305
X31.799 Y-25.302
X31.858 Y-25.298
X31.917 Y-25.295
X32.037 Y-25.302
X32.097 Y-25.306
X32.157 Y-25.311
X32.216 Y-25.316
X32.275 Y-25.323
X32.333 Y-25.331
X32.391 Y-25.34
X32.449 Y-25.351
X32.505 Y-25.364
X32.561 Y-25.378
X32.616 Y-25.396
X32.67 Y-25.415
X32.723 Y-25.438
X32.776 Y-25.462
X32.827 Y-25.489
X32.878 Y-25.518
X32.928 Y-25.548
X32.978 Y-25.58
X33.027 Y-25.613
X33.076 Y-25.647
X33.125 Y-25.682
X33.222 Y-25.752
X33.292 Y-25.834
X33.327 Y-25.875
X33.361 Y-25.916
X33.394 Y-25.958
X33.425 Y-26
X33.456 Y-26.043
X33.486 Y-26.086
X33.513 Y-26.13
X33.539 Y-26.175
X33.562 Y-26.221
X33.583 Y-26.267
X33.602 Y-26.315
X33.619 Y-26.364
X33.633 Y-26.413
X33.646 Y-26.464
X33.656 Y-26.515
X33.666 Y-26.567
X33.674 Y-26.619
X33.681 Y-26.672
X33.687 Y-26.725
X33.692 Y-26.778
X33.697 Y-26.832
X33.702 Y-26.885
X33.697 Y-26.972
X33.693 Y-27.03
X33.691 Y-27.059
X33.688 Y-27.088
X33.685 Y-27.117
X33.681 Y-27.145
X33.677 Y-27.174
X33.672 Y-27.202
X33.666 Y-27.23
X33.66 Y-27.258
X33.653 Y-27.286
X33.646 Y-27.314
X33.638 Y-27.342
X33.629 Y-27.369
X33.62 Y-27.397
X33.611 Y-27.424
X33.602 Y-27.452
X33.582 Y-27.507
X33.562 Y-27.561
X33.53 Y-27.624
X33.498 Y-27.687
X33.481 Y-27.718
X33.465 Y-27.749
X33.447 Y-27.78
X33.43 Y-27.81
X33.412 Y-27.841
X33.394 Y-27.871
X33.375 Y-27.9
X33.356 Y-27.93
X33.336 Y-27.958
X33.315 Y-27.987
X33.294 Y-28.015
X33.273 Y-28.043
X33.251 Y-28.071
X33.229 Y-28.098
X33.207 Y-28.125
X33.185 Y-28.153
X33.162 Y-28.18
X33.093 Y-28.26
X32.964 Y-28.393
X32.878 Y-28.481
X32.834 Y-28.525
X32.791 Y-28.569
X32.747 Y-28.612
X32.703 Y-28.655
X32.659 Y-28.698
X32.614 Y-28.74
X32.569 Y-28.782
X32.523 Y-28.823
X32.477 Y-28.865
X32.431 Y-28.906
X32.339 Y-28.987
X32.246 Y-29.068
X32.199 Y-29.108
X32.058 Y-29.228
X32.011 Y-29.268
X31.872 Y-29.384
X31.837 Y-29.413
X31.733 Y-29.501
X31.665 Y-29.561
X31.596 Y-29.62
X31.529 Y-29.681
X31.462 Y-29.742
X31.395 Y-29.803
X31.362 Y-29.834
X31.264 Y-29.928
X31.198 Y-29.991
X31.144 Y-30.05
X31.131 Y-30.065
X31.104 Y-30.095
X31.091 Y-30.11
X31.078 Y-30.126
X31.052 Y-30.156
X31.04 Y-30.172
X31.028 Y-30.188
X31.015 Y-30.204
X30.992 Y-30.236
X30.98 Y-30.253
X30.946 Y-30.303
X30.902 Y-30.37
X33.71
Y-31.045
X29.925
X29.926 Y-31.004
X29.927 Y-30.962
X29.929 Y-30.92
X29.931 Y-30.879
X29.933 Y-30.858
X29.936 Y-30.838
X29.938 Y-30.817
X29.941 Y-30.797
X29.945 Y-30.777
X29.949 Y-30.757
X29.954 Y-30.736
X29.959 Y-30.716
X29.964 Y-30.696
X29.975 Y-30.656
X29.988 Y-30.617
X30.007 Y-30.557
X30.037 Y-30.489
X30.068 Y-30.421
X30.083 Y-30.387
X30.099 Y-30.353
X30.116 Y-30.319
X30.132 Y-30.286
X30.15 Y-30.253
X30.167 Y-30.221
X30.186 Y-30.188
X30.205 Y-30.157
X30.224 Y-30.125
X30.244 Y-30.094
X30.265 Y-30.063
X30.287 Y-30.033
X30.308 Y-30.002
X30.33 Y-29.972
X30.353 Y-29.943
X30.375 Y-29.913
X30.398 Y-29.883
X30.468 Y-29.795
X30.576 Y-29.68
X30.649 Y-29.603
X30.685 Y-29.565
X30.722 Y-29.527
X30.759 Y-29.489
X30.796 Y-29.452
X30.834 Y-29.415
X30.872 Y-29.378
X30.91 Y-29.342
X30.949 Y-29.306
X30.988 Y-29.271
X31.027 Y-29.236
X31.067 Y-29.201
X31.107 Y-29.166
X31.147 Y-29.132
X31.187 Y-29.098
X31.268 Y-29.03
X31.39 Y-28.928
X31.503 Y-28.835
X31.559 Y-28.789
X31.616 Y-28.742
X31.672 Y-28.695
X31.727 Y-28.648
X31.783 Y-28.601
X31.838 Y-28.553
X31.893 Y-28.505
X31.947 Y-28.456
X32.001 Y-28.407
X32.054 Y-28.357
X32.107 Y-28.307
X32.159 Y-28.256
X32.21 Y-28.204
X32.261 Y-28.152
X32.311 Y-28.099
X32.361 Y-28.045
X32.41 Y-27.991
X32.459 Y-27.937
X32.507 Y-27.882
X32.555 Y-27.827
X32.652 Y-27.717
X32.695 Y-27.653
X32.717 Y-27.62
X32.738 Y-27.588
X32.759 Y-27.555
X32.779 Y-27.522
X32.799 Y-27.489
X32.818 Y-27.456
X32.836 Y-27.422
X32.853 Y-27.388
X32.869 Y-27.354
X32.883 Y-27.319
X32.897 Y-27.283
X32.909 Y-27.247
X32.92 Y-27.211
X32.929 Y-27.174
X32.938 Y-27.137
X32.945 Y-27.099
X32.952 Y-27.061
X32.959 Y-27.023
X32.964 Y-26.985
X32.97 Y-26.947
X32.98 Y-26.87
X32.973 Y-26.803
X32.97 Y-26.77
X32.966 Y-26.737
X32.961 Y-26.704
X32.956 Y-26.672
X32.951 Y-26.639
X32.944 Y-26.608
X32.936 Y-26.576
X32.927 Y-26.546
X32.917 Y-26.515
X32.905 Y-26.486
X32.891 Y-26.457
X32.877 Y-26.428
X32.861 Y-26.401
X32.843 Y-26.373
X32.825 Y-26.347
X32.806 Y-26.32
X32.786 Y-26.294
X32.765 Y-26.268
X32.744 Y-26.243
X32.723 Y-26.217
X32.679 Y-26.167
X32.622 Y-26.123
X32.593 Y-26.101
X32.564 Y-26.08
X32.535 Y-26.06
X32.505 Y-26.04
X32.476 Y-26.021
X32.445 Y-26.003
X32.415 Y-25.986
X32.384 Y-25.97
X32.352 Y-25.956
X32.32 Y-25.944
X32.287 Y-25.933
X32.254 Y-25.923
X32.22 Y-25.915
X32.186 Y-25.908
X32.151 Y-25.902
X32.116 Y-25.896
X32.081 Y-25.892
X32.045 Y-25.888
X32.009 Y-25.885
X31.974 Y-25.882
X31.938 Y-25.88
X31.902 Y-25.877
X31.826 Y-25.882
X31.788 Y-25.885
X31.751 Y-25.889
X31.714 Y-25.892
X31.677 Y-25.897
X31.64 Y-25.902
X31.604 Y-25.909
X31.568 Y-25.916
X31.532 Y-25.925
X31.497 Y-25.935
X31.463 Y-25.947
X31.43 Y-25.96
X31.396 Y-25.975
X31.364 Y-25.991
X31.332 Y-26.009
X31.301 Y-26.028
X31.27 Y-26.048
X31.239 Y-26.069
X31.209 Y-26.091
X31.179 Y-26.113
X31.149 Y-26.136
X31.089 Y-26.182
X31.042 Y-26.244
X31.019 Y-26.275
X30.996 Y-26.307
X30.974 Y-26.338
X30.952 Y-26.37
X30.932 Y-26.403
X30.913 Y-26.435
X30.895 Y-26.469
X30.878 Y-26.502
X30.863 Y-26.537
X30.85 Y-26.572
X30.838 Y-26.607
X30.828 Y-26.643
X30.819 Y-26.68
X30.812 Y-26.717
X30.805 Y-26.755
X30.8 Y-26.793
X30.795 Y-26.831
X30.792 Y-26.87
X30.788 Y-26.909
X30.785 Y-26.948
X30.78 Y-27.026
X30.058 Y-26.952
X30.075 Y-26.835
X30.084 Y-26.777
X30.094 Y-26.72
X30.104 Y-26.662
X30.116 Y-26.606
X30.128 Y-26.549
X30.142 Y-26.494
X30.158 Y-26.439
X30.175 Y-26.385
X30.195 Y-26.332
X30.216 Y-26.28
X30.24 Y-26.229
X30.266 Y-26.179
X30.295 Y-26.13
X30.326 Y-26.082
X30.358 Y-26.035
X30.392 Y-25.989
X30.427 Y-25.943
X30.464 Y-25.898
X30.501 Y-25.854
X30.539 Y-25.809
Z5
G0 Z6
X34.714 Y-29.911
Z5
G1 Z0 F381
X34.677 Y-29.818
X34.642 Y-29.724
X34.611 Y-29.629
X34.584 Y-29.533
X34.561 Y-29.435
X34.541 Y-29.338
X34.524 Y-29.239
X34.51 Y-29.139
X34.498 Y-29.039
X34.489 Y-28.938
X34.482 Y-28.837
X34.476 Y-28.735
X34.472 Y-28.632
X34.469 Y-28.53
X34.467 Y-28.427
X34.465 Y-28.324
X34.464 Y-28.221
X34.466 Y-28.083
X34.467 Y-28.014
X34.469 Y-27.945
X34.471 Y-27.876
X34.473 Y-27.807
X34.476 Y-27.738
X34.48 Y-27.67
X34.484 Y-27.601
X34.49 Y-27.533
X34.496 Y-27.464
X34.504 Y-27.396
X34.513 Y-27.328
X34.523 Y-27.26
X34.534 Y-27.193
X34.546 Y-27.125
X34.56 Y-27.058
X34.574 Y-26.99
X34.589 Y-26.923
X34.605 Y-26.856
X34.621 Y-26.789
X34.654 Y-26.655
X34.671 Y-26.588
X34.706 Y-26.498
X34.724 Y-26.453
X34.743 Y-26.408
X34.761 Y-26.363
X34.781 Y-26.319
X34.801 Y-26.275
X34.821 Y-26.232
X34.843 Y-26.189
X34.866 Y-26.147
X34.889 Y-26.106
X34.914 Y-26.065
X34.94 Y-26.026
X34.968 Y-25.987
X34.997 Y-25.949
X35.027 Y-25.912
X35.058 Y-25.875
X35.09 Y-25.84
X35.122 Y-25.804
X35.156 Y-25.769
X35.189 Y-25.734
X35.223 Y-25.7
X35.258 Y-25.666
X35.292 Y-25.631
X35.332 Y-25.606
X35.371 Y-25.58
X35.411 Y-25.555
X35.451 Y-25.531
X35.491 Y-25.507
X35.531 Y-25.484
X35.571 Y-25.462
X35.612 Y-25.441
X35.654 Y-25.421
X35.696 Y-25.403
X35.738 Y-25.387
X35.781 Y-25.372
X35.825 Y-25.359
X35.869 Y-25.348
X35.914 Y-25.338
X35.959 Y-25.33
X36.005 Y-25.323
X36.051 Y-25.317
X36.097 Y-25.312
X36.144 Y-25.308
X36.19 Y-25.304
X36.237 Y-25.301
X36.331 Y-25.295
X36.402 Y-25.299
X36.472 Y-25.302
X36.507 Y-25.305
X36.542 Y-25.308
X36.576 Y-25.311
X36.611 Y-25.315
X36.645 Y-25.32
X36.68 Y-25.325
X36.714 Y-25.331
X36.748 Y-25.338
X36.781 Y-25.347
X36.814 Y-25.356
X36.848 Y-25.366
X36.881 Y-25.377
X36.913 Y-25.389
X36.946 Y-25.401
X36.979 Y-25.414
X37.011 Y-25.427
X37.043 Y-25.441
X37.14 Y-25.483
X37.196 Y-25.518
X37.224 Y-25.536
X37.252 Y-25.554
X37.28 Y-25.572
X37.307 Y-25.591
X37.334 Y-25.61
X37.361 Y-25.629
X37.387 Y-25.649
X37.413 Y-25.67
X37.438 Y-25.691
X37.462 Y-25.713
X37.485 Y-25.736
X37.508 Y-25.759
X37.53 Y-25.783
X37.552 Y-25.808
X37.574 Y-25.833
X37.594 Y-25.858
X37.615 Y-25.885
X37.635 Y-25.911
X37.675 Y-25.964
X37.714 Y-26.018
X37.752 Y-26.085
X37.79 Y-26.153
X37.809 Y-26.187
X37.827 Y-26.221
X37.845 Y-26.255
X37.862 Y-26.289
X37.879 Y-26.324
X37.896 Y-26.359
X37.911 Y-26.394
X37.926 Y-26.429
X37.941 Y-26.465
X37.954 Y-26.501
X37.968 Y-26.537
X37.98 Y-26.573
X37.992 Y-26.61
X38.004 Y-26.647
X38.015 Y-26.684
X38.027 Y-26.721
X38.038 Y-26.758
X38.069 Y-26.87
X38.091 Y-26.981
X38.111 Y-27.093
X38.121 Y-27.149
X38.131 Y-27.205
X38.14 Y-27.26
X38.148 Y-27.316
X38.156 Y-27.373
X38.163 Y-27.429
X38.169 Y-27.485
X38.174 Y-27.541
X38.179 Y-27.598
X38.183 Y-27.654
X38.186 Y-27.711
X38.189 Y-27.767
X38.192 Y-27.824
X38.193 Y-27.881
X38.195 Y-27.937
X38.197 Y-28.051
X38.198 Y-28.164
Y-28.221
X38.196 Y-28.359
X38.195 Y-28.428
X38.194 Y-28.497
X38.192 Y-28.566
X38.189 Y-28.634
X38.186 Y-28.703
X38.182 Y-28.771
X38.178 Y-28.84
X38.172 Y-28.908
X38.166 Y-28.976
X38.158 Y-29.044
X38.15 Y-29.112
X38.139 Y-29.18
X38.128 Y-29.247
X38.116 Y-29.315
X38.102 Y-29.382
X38.088 Y-29.449
X38.073 Y-29.516
X38.058 Y-29.583
X38.041 Y-29.65
X38.025 Y-29.717
X37.991 Y-29.85
X37.956 Y-29.941
X37.938 Y-29.986
X37.92 Y-30.031
X37.901 Y-30.076
X37.882 Y-30.12
X37.862 Y-30.163
X37.841 Y-30.207
X37.82 Y-30.25
X37.797 Y-30.292
X37.774 Y-30.333
X37.749 Y-30.373
X37.722 Y-30.413
X37.695 Y-30.452
X37.666 Y-30.49
X37.636 Y-30.527
X37.605 Y-30.563
X37.573 Y-30.599
X37.54 Y-30.635
X37.507 Y-30.67
X37.473 Y-30.704
X37.439 Y-30.739
X37.37 Y-30.807
X37.331 Y-30.833
X37.291 Y-30.858
X37.252 Y-30.883
X37.212 Y-30.908
X37.172 Y-30.932
X37.132 Y-30.955
X37.091 Y-30.977
X37.05 Y-30.998
X37.009 Y-31.018
X36.967 Y-31.036
X36.924 Y-31.052
X36.881 Y-31.067
X36.838 Y-31.08
X36.793 Y-31.091
X36.749 Y-31.1
X36.703 Y-31.109
X36.658 Y-31.116
X36.612 Y-31.122
X36.565 Y-31.126
X36.519 Y-31.131
X36.472 Y-31.134
X36.425 Y-31.138
X36.378 Y-31.14
X36.331 Y-31.143
X36.205 Y-31.132
X36.142 Y-31.126
X36.08 Y-31.119
X36.018 Y-31.111
X35.957 Y-31.101
X35.896 Y-31.09
X35.836 Y-31.077
X35.778 Y-31.062
X35.72 Y-31.045
X35.664 Y-31.025
X35.608 Y-31.002
X35.555 Y-30.976
X35.503 Y-30.947
X35.452 Y-30.915
X35.402 Y-30.881
X35.353 Y-30.844
X35.306 Y-30.806
X35.258 Y-30.766
X35.212 Y-30.724
X35.166 Y-30.681
X35.121 Y-30.638
X35.076 Y-30.594
X35.03 Y-30.549
X34.982 Y-30.459
X34.934 Y-30.368
X34.887 Y-30.278
X34.841 Y-30.187
X34.797 Y-30.095
X34.754 Y-30.003
X34.714 Y-29.911
Z5
G0 Z6
X35.187 Y-28.221
Z5
G1 Z0 F381
X35.185 Y-28.384
Y-28.465
Y-28.546
X35.186 Y-28.627
X35.188 Y-28.708
X35.191 Y-28.788
X35.195 Y-28.868
X35.201 Y-28.948
X35.208 Y-29.028
X35.217 Y-29.107
X35.228 Y-29.186
X35.241 Y-29.264
X35.257 Y-29.342
X35.275 Y-29.42
X35.295 Y-29.497
X35.317 Y-29.573
X35.342 Y-29.649
X35.368 Y-29.725
X35.396 Y-29.8
X35.425 Y-29.875
X35.454 Y-29.95
X35.484 Y-30.025
X35.515 Y-30.1
X35.542 Y-30.132
X35.569 Y-30.164
X35.596 Y-30.196
X35.623 Y-30.227
X35.651 Y-30.258
X35.68 Y-30.288
X35.708 Y-30.316
X35.738 Y-30.344
X35.768 Y-30.37
X35.799 Y-30.394
X35.832 Y-30.417
X35.865 Y-30.438
X35.899 Y-30.456
X35.935 Y-30.473
X35.972 Y-30.487
X36.009 Y-30.5
X36.048 Y-30.512
X36.087 Y-30.522
X36.126 Y-30.531
X36.167 Y-30.539
X36.208 Y-30.546
X36.249 Y-30.553
X36.29 Y-30.559
X36.331 Y-30.565
X36.373 Y-30.559
X36.414 Y-30.552
X36.455 Y-30.546
X36.496 Y-30.539
X36.536 Y-30.531
X36.576 Y-30.521
X36.615 Y-30.511
X36.653 Y-30.5
X36.69 Y-30.487
X36.727 Y-30.472
X36.763 Y-30.455
X36.797 Y-30.436
X36.83 Y-30.415
X36.862 Y-30.392
X36.893 Y-30.368
X36.923 Y-30.342
X36.952 Y-30.314
X36.981 Y-30.285
X37.009 Y-30.255
X37.036 Y-30.225
X37.064 Y-30.193
X37.09 Y-30.161
X37.144 Y-30.096
X37.174 Y-30.022
X37.205 Y-29.947
X37.235 Y-29.872
X37.264 Y-29.797
X37.292 Y-29.722
X37.318 Y-29.647
X37.343 Y-29.571
X37.366 Y-29.494
X37.387 Y-29.418
X37.405 Y-29.34
X37.42 Y-29.263
X37.433 Y-29.184
X37.445 Y-29.106
X37.454 Y-29.027
X37.461 Y-28.947
X37.467 Y-28.867
X37.471 Y-28.787
X37.474 Y-28.707
X37.476 Y-28.626
X37.477 Y-28.545
Y-28.465
Y-28.383
X37.476 Y-28.221
X37.477 Y-28.14
Y-28.059
X37.478 Y-27.977
X37.477 Y-27.896
X37.476 Y-27.815
X37.474 Y-27.735
X37.471 Y-27.654
X37.467 Y-27.574
X37.461 Y-27.494
X37.454 Y-27.414
X37.445 Y-27.335
X37.434 Y-27.256
X37.421 Y-27.177
X37.405 Y-27.1
X37.387 Y-27.022
X37.367 Y-26.945
X37.344 Y-26.869
X37.319 Y-26.793
X37.292 Y-26.717
X37.264 Y-26.642
X37.235 Y-26.567
X37.205 Y-26.492
X37.175 Y-26.417
X37.144 Y-26.342
X37.117 Y-26.31
X37.09 Y-26.278
X37.063 Y-26.246
X37.035 Y-26.214
X37.007 Y-26.184
X36.979 Y-26.154
X36.95 Y-26.125
X36.92 Y-26.098
X36.889 Y-26.072
X36.858 Y-26.047
X36.826 Y-26.024
X36.792 Y-26.003
X36.758 Y-25.985
X36.722 Y-25.968
X36.685 Y-25.954
X36.647 Y-25.941
X36.609 Y-25.93
X36.569 Y-25.92
X36.529 Y-25.911
X36.489 Y-25.903
X36.448 Y-25.896
X36.407 Y-25.889
X36.323 Y-25.877
X36.246 Y-25.887
X36.207 Y-25.892
X36.169 Y-25.897
X36.131 Y-25.904
X36.094 Y-25.911
X36.057 Y-25.919
X36.02 Y-25.928
X35.985 Y-25.939
X35.95 Y-25.952
X35.917 Y-25.966
X35.884 Y-25.982
X35.852 Y-26
X35.821 Y-26.02
X35.792 Y-26.042
X35.763 Y-26.066
X35.735 Y-26.09
X35.707 Y-26.116
X35.68 Y-26.143
X35.653 Y-26.171
X35.627 Y-26.2
X35.601 Y-26.229
X35.576 Y-26.258
X35.55 Y-26.288
X35.517 Y-26.364
X35.485 Y-26.441
X35.453 Y-26.518
X35.422 Y-26.595
X35.392 Y-26.673
X35.363 Y-26.75
X35.337 Y-26.828
X35.312 Y-26.907
X35.29 Y-26.986
X35.27 Y-27.065
X35.253 Y-27.146
X35.238 Y-27.226
X35.226 Y-27.307
X35.215 Y-27.389
X35.207 Y-27.471
X35.2 Y-27.553
X35.195 Y-27.636
X35.192 Y-27.719
X35.189 Y-27.802
X35.187 Y-27.886
Y-27.97
X35.186 Y-28.053
X35.187 Y-28.221
Z5
G0 Z6
X38.956 Y-26.952
Z5
G1 Z0 F381
X38.965 Y-26.893
X38.973 Y-26.835
X38.982 Y-26.777
X38.992 Y-26.72
X39.003 Y-26.662
X39.014 Y-26.606
X39.027 Y-26.549
X39.041 Y-26.494
X39.056 Y-26.439
X39.074 Y-26.385
X39.093 Y-26.332
X39.114 Y-26.28
X39.138 Y-26.229
X39.165 Y-26.179
X39.193 Y-26.13
X39.224 Y-26.082
X39.256 Y-26.035
X39.29 Y-25.989
X39.326 Y-25.943
X39.362 Y-25.898
X39.4 Y-25.854
X39.438 Y-25.809
X39.476 Y-25.765
X39.515 Y-25.721
X39.613 Y-25.655
X39.662 Y-25.623
X39.711 Y-25.591
X39.761 Y-25.56
X39.811 Y-25.53
X39.862 Y-25.502
X39.913 Y-25.475
X39.965 Y-25.45
X40.017 Y-25.427
X40.07 Y-25.406
X40.124 Y-25.388
X40.179 Y-25.372
X40.235 Y-25.358
X40.291 Y-25.346
X40.347 Y-25.336
X40.405 Y-25.327
X40.463 Y-25.32
X40.521 Y-25.314
X40.579 Y-25.309
X40.638 Y-25.305
X40.697 Y-25.302
X40.816 Y-25.295
X40.936 Y-25.302
X40.995 Y-25.306
X41.055 Y-25.311
X41.114 Y-25.316
X41.173 Y-25.323
X41.232 Y-25.331
X41.29 Y-25.34
X41.347 Y-25.351
X41.404 Y-25.364
X41.46 Y-25.378
X41.515 Y-25.396
X41.569 Y-25.415
X41.622 Y-25.438
X41.674 Y-25.462
X41.726 Y-25.489
X41.777 Y-25.518
X41.827 Y-25.548
X41.876 Y-25.58
X41.926 Y-25.613
X41.975 Y-25.647
X42.023 Y-25.682
X42.12 Y-25.752
X42.155 Y-25.793
X42.19 Y-25.834
X42.225 Y-25.875
X42.259 Y-25.916
X42.292 Y-25.958
X42.324 Y-26
X42.355 Y-26.043
X42.384 Y-26.086
X42.411 Y-26.13
X42.437 Y-26.175
X42.461 Y-26.221
X42.482 Y-26.267
X42.501 Y-26.315
X42.517 Y-26.364
X42.531 Y-26.413
X42.544 Y-26.464
X42.555 Y-26.515
X42.564 Y-26.567
X42.572 Y-26.619
X42.579 Y-26.672
X42.585 Y-26.725
X42.591 Y-26.778
X42.596 Y-26.832
X42.601 Y-26.885
X42.598 Y-26.943
X42.594 Y-27.001
X42.592 Y-27.03
X42.589 Y-27.059
X42.586 Y-27.088
X42.583 Y-27.117
X42.579 Y-27.145
X42.575 Y-27.174
X42.57 Y-27.202
X42.565 Y-27.23
X42.558 Y-27.258
X42.552 Y-27.286
X42.544 Y-27.314
X42.536 Y-27.342
X42.528 Y-27.369
X42.519 Y-27.397
X42.5 Y-27.452
X42.48 Y-27.507
X42.46 Y-27.561
X42.412 Y-27.656
X42.396 Y-27.687
X42.38 Y-27.718
X42.363 Y-27.749
X42.346 Y-27.78
X42.329 Y-27.81
X42.311 Y-27.841
X42.292 Y-27.871
X42.274 Y-27.9
X42.254 Y-27.93
X42.234 Y-27.958
X42.214 Y-27.987
X42.193 Y-28.015
X42.172 Y-28.043
X42.15 Y-28.071
X42.128 Y-28.098
X42.105 Y-28.125
X42.083 Y-28.153
X42.06 Y-28.18
X41.991 Y-28.26
X41.863 Y-28.393
X41.82 Y-28.437
X41.776 Y-28.481
X41.733 Y-28.525
X41.689 Y-28.569
X41.646 Y-28.612
X41.601 Y-28.655
X41.557 Y-28.698
X41.512 Y-28.74
X41.467 Y-28.782
X41.422 Y-28.823
X41.376 Y-28.865
X41.33 Y-28.906
X41.284 Y-28.947
X41.237 Y-28.987
X41.191 Y-29.028
X41.097 Y-29.108
X40.956 Y-29.228
X40.909 Y-29.268
X40.805 Y-29.355
X40.701 Y-29.443
X40.632 Y-29.501
X40.563 Y-29.561
X40.495 Y-29.62
X40.461 Y-29.65
X40.427 Y-29.681
X40.394 Y-29.711
X40.36 Y-29.742
X40.327 Y-29.772
X40.261 Y-29.834
X40.195 Y-29.897
X40.097 Y-29.991
X40.042 Y-30.05
X40.016 Y-30.08
X40.002 Y-30.095
X39.976 Y-30.126
X39.963 Y-30.141
X39.951 Y-30.156
X39.938 Y-30.172
X39.926 Y-30.188
X39.914 Y-30.204
X39.902 Y-30.22
X39.879 Y-30.253
X39.867 Y-30.269
X39.833 Y-30.319
X39.811 Y-30.353
X39.8 Y-30.37
X42.609
Y-31.045
X38.823
X38.825 Y-30.983
Y-30.962
X38.827 Y-30.92
X38.828 Y-30.9
X38.83 Y-30.879
X38.832 Y-30.858
X38.834 Y-30.838
X38.837 Y-30.817
X38.84 Y-30.797
X38.843 Y-30.777
X38.848 Y-30.757
X38.852 Y-30.736
X38.857 Y-30.716
X38.862 Y-30.696
X38.868 Y-30.676
X38.88 Y-30.636
X38.893 Y-30.597
X38.905 Y-30.557
X38.951 Y-30.455
X38.966 Y-30.421
X38.982 Y-30.387
X38.998 Y-30.353
X39.014 Y-30.319
X39.031 Y-30.286
X39.048 Y-30.253
X39.066 Y-30.221
X39.084 Y-30.188
X39.103 Y-30.157
X39.123 Y-30.125
X39.143 Y-30.094
X39.164 Y-30.063
X39.185 Y-30.033
X39.207 Y-30.002
X39.229 Y-29.972
X39.251 Y-29.943
X39.274 Y-29.913
X39.297 Y-29.883
X39.343 Y-29.825
X39.366 Y-29.795
X39.474 Y-29.68
X39.511 Y-29.641
X39.547 Y-29.603
X39.584 Y-29.565
X39.62 Y-29.527
X39.657 Y-29.489
X39.695 Y-29.452
X39.732 Y-29.415
X39.77 Y-29.378
X39.809 Y-29.342
X39.847 Y-29.306
X39.887 Y-29.271
X39.926 Y-29.236
X39.965 Y-29.201
X40.005 Y-29.166
X40.045 Y-29.132
X40.085 Y-29.098
X40.166 Y-29.03
X40.288 Y-28.928
X40.401 Y-28.835
X40.458 Y-28.789
X40.514 Y-28.742
X40.57 Y-28.695
X40.626 Y-28.648
X40.681 Y-28.601
X40.737 Y-28.553
X40.791 Y-28.505
X40.846 Y-28.456
X40.9 Y-28.407
X40.953 Y-28.357
X41.005 Y-28.307
X41.057 Y-28.256
X41.109 Y-28.204
X41.159 Y-28.152
X41.209 Y-28.099
X41.259 Y-28.045
X41.308 Y-27.991
X41.357 Y-27.937
X41.405 Y-27.882
X41.454 Y-27.827
X41.55 Y-27.717
X41.594 Y-27.653
X41.615 Y-27.62
X41.637 Y-27.588
X41.657 Y-27.555
X41.678 Y-27.522
X41.697 Y-27.489
X41.716 Y-27.456
X41.734 Y-27.422
X41.751 Y-27.388
X41.767 Y-27.354
X41.782 Y-27.319
X41.795 Y-27.283
X41.807 Y-27.247
X41.818 Y-27.211
X41.828 Y-27.174
X41.836 Y-27.137
X41.844 Y-27.099
X41.851 Y-27.061
X41.857 Y-27.023
X41.863 Y-26.985
X41.868 Y-26.947
X41.878 Y-26.87
X41.872 Y-26.803
X41.868 Y-26.77
X41.864 Y-26.737
X41.86 Y-26.704
X41.855 Y-26.672
X41.849 Y-26.639
X41.842 Y-26.608
X41.834 Y-26.576
X41.825 Y-26.546
X41.815 Y-26.515
X41.803 Y-26.486
X41.79 Y-26.457
X41.775 Y-26.428
X41.759 Y-26.401
X41.742 Y-26.373
X41.724 Y-26.347
X41.704 Y-26.32
X41.685 Y-26.294
X41.664 Y-26.268
X41.643 Y-26.243
X41.621 Y-26.217
X41.577 Y-26.167
X41.52 Y-26.123
X41.491 Y-26.101
X41.462 Y-26.08
X41.433 Y-26.06
X41.404 Y-26.04
X41.374 Y-26.021
X41.344 Y-26.003
X41.313 Y-25.986
X41.282 Y-25.97
X41.251 Y-25.956
X41.218 Y-25.944
X41.186 Y-25.933
X41.152 Y-25.923
X41.119 Y-25.915
X41.084 Y-25.908
X41.05 Y-25.902
X41.015 Y-25.896
X40.979 Y-25.892
X40.944 Y-25.888
X40.908 Y-25.885
X40.836 Y-25.88
X40.8 Y-25.877
X40.724 Y-25.882
X40.687 Y-25.885
X40.649 Y-25.889
X40.612 Y-25.892
X40.575 Y-25.897
X40.538 Y-25.902
X40.502 Y-25.909
X40.466 Y-25.916
X40.431 Y-25.925
X40.396 Y-25.935
X40.362 Y-25.947
X40.328 Y-25.96
X40.295 Y-25.975
X40.263 Y-25.991
X40.231 Y-26.009
X40.199 Y-26.028
X40.168 Y-26.048
X40.138 Y-26.069
X40.107 Y-26.091
X40.077 Y-26.113
X40.047 Y-26.136
X40.017 Y-26.159
X39.987 Y-26.182
X39.94 Y-26.244
X39.917 Y-26.275
X39.894 Y-26.307
X39.872 Y-26.338
X39.851 Y-26.37
X39.83 Y-26.403
X39.811 Y-26.435
X39.793 Y-26.469
X39.777 Y-26.502
X39.762 Y-26.537
X39.748 Y-26.572
X39.736 Y-26.607
X39.726 Y-26.643
X39.718 Y-26.68
X39.71 Y-26.717
X39.704 Y-26.755
X39.699 Y-26.793
X39.694 Y-26.831
X39.69 Y-26.87
X39.687 Y-26.909
X39.684 Y-26.948
X39.679 Y-27.026
X38.956 Y-26.952
Z5
G0 Z6
X43.612 Y-29.911
Z5
G1 Z0 F381
X43.575 Y-29.818
X43.541 Y-29.724
X43.51 Y-29.629
X43.482 Y-29.533
X43.459 Y-29.435
X43.439 Y-29.338
X43.422 Y-29.239
X43.408 Y-29.139
X43.396 Y-29.039
X43.387 Y-28.938
X43.38 Y-28.837
X43.375 Y-28.735
X43.37 Y-28.632
X43.367 Y-28.53
X43.365 Y-28.427
X43.364 Y-28.324
X43.362 Y-28.221
X43.364 Y-28.083
X43.366 Y-28.014
X43.367 Y-27.945
X43.369 Y-27.876
X43.371 Y-27.807
X43.375 Y-27.738
X43.378 Y-27.67
X43.383 Y-27.601
X43.388 Y-27.533
X43.395 Y-27.464
X43.402 Y-27.396
X43.411 Y-27.328
X43.421 Y-27.26
X43.432 Y-27.193
X43.445 Y-27.125
X43.458 Y-27.058
X43.472 Y-26.99
X43.487 Y-26.923
X43.503 Y-26.856
X43.519 Y-26.789
X43.536 Y-26.722
X43.569 Y-26.588
X43.605 Y-26.498
X43.623 Y-26.453
X43.641 Y-26.408
X43.66 Y-26.363
X43.679 Y-26.319
X43.699 Y-26.275
X43.72 Y-26.232
X43.741 Y-26.189
X43.764 Y-26.147
X43.788 Y-26.106
X43.813 Y-26.065
X43.839 Y-26.026
X43.867 Y-25.987
X43.895 Y-25.949
X43.925 Y-25.912
X43.956 Y-25.875
X43.988 Y-25.84
X44.021 Y-25.804
X44.054 Y-25.769
X44.088 Y-25.734
X44.122 Y-25.7
X44.156 Y-25.666
X44.191 Y-25.631
X44.23 Y-25.606
X44.27 Y-25.58
X44.309 Y-25.555
X44.349 Y-25.531
X44.389 Y-25.507
X44.429 Y-25.484
X44.47 Y-25.462
X44.511 Y-25.441
X44.552 Y-25.421
X44.594 Y-25.403
X44.637 Y-25.387
X44.68 Y-25.372
X44.723 Y-25.359
X44.768 Y-25.348
X44.813 Y-25.338
X44.858 Y-25.33
X44.903 Y-25.323
X44.949 Y-25.317
X44.996 Y-25.312
X45.042 Y-25.308
X45.089 Y-25.304
X45.136 Y-25.301
X45.23 Y-25.295
X45.3 Y-25.299
X45.37 Y-25.302
X45.405 Y-25.305
X45.44 Y-25.308
X45.475 Y-25.311
X45.509 Y-25.315
X45.544 Y-25.32
X45.578 Y-25.325
X45.612 Y-25.331
X45.646 Y-25.338
X45.68 Y-25.347
X45.713 Y-25.356
X45.746 Y-25.366
X45.779 Y-25.377
X45.812 Y-25.389
X45.845 Y-25.401
X45.877 Y-25.414
X45.909 Y-25.427
X45.942 Y-25.441
X46.006 Y-25.469
X46.038 Y-25.483
X46.095 Y-25.518
X46.123 Y-25.536
X46.151 Y-25.554
X46.179 Y-25.572
X46.206 Y-25.591
X46.233 Y-25.61
X46.259 Y-25.629
X46.286 Y-25.649
X46.311 Y-25.67
X46.336 Y-25.691
X46.36 Y-25.713
X46.384 Y-25.736
X46.407 Y-25.759
X46.429 Y-25.783
X46.451 Y-25.808
X46.472 Y-25.833
X46.493 Y-25.858
X46.513 Y-25.885
X46.534 Y-25.911
X46.554 Y-25.937
X46.593 Y-25.991
X46.612 Y-26.018
X46.651 Y-26.085
X46.67 Y-26.119
X46.689 Y-26.153
X46.707 Y-26.187
X46.726 Y-26.221
X46.743 Y-26.255
X46.761 Y-26.289
X46.778 Y-26.324
X46.794 Y-26.359
X46.81 Y-26.394
X46.825 Y-26.429
X46.839 Y-26.465
X46.853 Y-26.501
X46.866 Y-26.537
X46.879 Y-26.573
X46.891 Y-26.61
X46.903 Y-26.647
X46.914 Y-26.684
X46.936 Y-26.758
X46.947 Y-26.795
X46.968 Y-26.87
X46.989 Y-26.981
X47.01 Y-27.093
X47.02 Y-27.149
X47.029 Y-27.205
X47.038 Y-27.26
X47.047 Y-27.316
X47.054 Y-27.373
X47.061 Y-27.429
X47.068 Y-27.485
X47.073 Y-27.541
X47.078 Y-27.598
X47.082 Y-27.654
X47.085 Y-27.711
X47.088 Y-27.767
X47.09 Y-27.824
X47.092 Y-27.881
X47.093 Y-27.937
X47.094 Y-27.994
X47.096 Y-28.164
X47.097 Y-28.221
X47.095 Y-28.359
X47.093 Y-28.428
X47.092 Y-28.497
X47.09 Y-28.566
X47.088 Y-28.634
X47.084 Y-28.703
X47.081 Y-28.771
X47.076 Y-28.84
X47.071 Y-28.908
X47.064 Y-28.976
X47.057 Y-29.044
X47.048 Y-29.112
X47.038 Y-29.18
X47.027 Y-29.247
X47.014 Y-29.315
X47.001 Y-29.382
X46.987 Y-29.449
X46.972 Y-29.516
X46.956 Y-29.583
X46.94 Y-29.65
X46.923 Y-29.717
X46.89 Y-29.85
X46.872 Y-29.896
X46.855 Y-29.941
X46.837 Y-29.986
X46.819 Y-30.031
X46.8 Y-30.076
X46.781 Y-30.12
X46.761 Y-30.163
X46.74 Y-30.207
X46.718 Y-30.25
X46.696 Y-30.292
X46.672 Y-30.333
X46.647 Y-30.373
X46.621 Y-30.413
X46.593 Y-30.452
X46.564 Y-30.49
X46.534 Y-30.527
X46.503 Y-30.563
X46.471 Y-30.599
X46.439 Y-30.635
X46.405 Y-30.67
X46.372 Y-30.704
X46.338 Y-30.739
X46.269 Y-30.807
X46.229 Y-30.833
X46.19 Y-30.858
X46.15 Y-30.883
X46.111 Y-30.908
X46.07 Y-30.932
X46.03 Y-30.955
X45.99 Y-30.977
X45.949 Y-30.998
X45.907 Y-31.018
X45.865 Y-31.036
X45.823 Y-31.052
X45.78 Y-31.067
X45.736 Y-31.08
X45.692 Y-31.091
X45.647 Y-31.1
X45.602 Y-31.109
X45.556 Y-31.116
X45.51 Y-31.122
X45.464 Y-31.126
X45.417 Y-31.131
X45.371 Y-31.134
X45.324 Y-31.138
X45.23 Y-31.143
X45.167 Y-31.138
X45.104 Y-31.132
X45.041 Y-31.126
X44.978 Y-31.119
X44.916 Y-31.111
X44.855 Y-31.101
X44.794 Y-31.09
X44.735 Y-31.077
X44.676 Y-31.062
X44.618 Y-31.045
X44.562 Y-31.025
X44.507 Y-31.002
X44.453 Y-30.976
X44.401 Y-30.947
X44.35 Y-30.915
X44.3 Y-30.881
X44.252 Y-30.844
X44.204 Y-30.806
X44.157 Y-30.766
X44.111 Y-30.724
X44.065 Y-30.681
X44.019 Y-30.638
X43.974 Y-30.594
X43.929 Y-30.549
X43.881 Y-30.459
X43.833 Y-30.368
X43.786 Y-30.278
X43.74 Y-30.187
X43.695 Y-30.095
X43.653 Y-30.003
X43.612 Y-29.911
Z5
G0 Z6
X44.085 Y-28.221
Z5
G1 Z0 F381
X44.084 Y-28.302
X44.083 Y-28.465
X44.084 Y-28.546
X44.085 Y-28.627
X44.087 Y-28.708
X44.09 Y-28.788
X44.094 Y-28.868
X44.099 Y-28.948
X44.107 Y-29.028
X44.116 Y-29.107
X44.127 Y-29.186
X44.14 Y-29.264
X44.155 Y-29.342
X44.173 Y-29.42
X44.193 Y-29.497
X44.216 Y-29.573
X44.24 Y-29.649
X44.267 Y-29.725
X44.294 Y-29.8
X44.323 Y-29.875
X44.353 Y-29.95
X44.383 Y-30.025
X44.413 Y-30.1
X44.44 Y-30.132
X44.467 Y-30.164
X44.494 Y-30.196
X44.522 Y-30.227
X44.55 Y-30.258
X44.578 Y-30.288
X44.607 Y-30.316
X44.636 Y-30.344
X44.667 Y-30.37
X44.698 Y-30.394
X44.73 Y-30.417
X44.763 Y-30.438
X44.798 Y-30.456
X44.833 Y-30.473
X44.87 Y-30.487
X44.908 Y-30.5
X44.946 Y-30.512
X44.985 Y-30.522
X45.025 Y-30.531
X45.065 Y-30.539
X45.106 Y-30.546
X45.147 Y-30.553
X45.188 Y-30.559
X45.23 Y-30.565
X45.312 Y-30.552
X45.353 Y-30.546
X45.394 Y-30.539
X45.434 Y-30.531
X45.474 Y-30.521
X45.513 Y-30.511
X45.551 Y-30.5
X45.589 Y-30.487
X45.625 Y-30.472
X45.661 Y-30.455
X45.695 Y-30.436
X45.728 Y-30.415
X45.76 Y-30.392
X45.791 Y-30.368
X45.821 Y-30.342
X45.851 Y-30.314
X45.879 Y-30.285
X45.907 Y-30.255
X45.935 Y-30.225
X45.962 Y-30.193
X45.989 Y-30.161
X46.042 Y-30.096
X46.073 Y-30.022
X46.103 Y-29.947
X46.133 Y-29.872
X46.162 Y-29.797
X46.19 Y-29.722
X46.217 Y-29.647
X46.242 Y-29.571
X46.264 Y-29.494
X46.285 Y-29.418
X46.303 Y-29.34
X46.319 Y-29.263
X46.332 Y-29.184
X46.343 Y-29.106
X46.352 Y-29.027
X46.36 Y-28.947
X46.365 Y-28.867
X46.369 Y-28.787
X46.373 Y-28.707
X46.374 Y-28.626
X46.375 Y-28.545
X46.376 Y-28.465
X46.375 Y-28.383
X46.374 Y-28.221
X46.375 Y-28.14
X46.376 Y-28.059
Y-27.977
Y-27.896
X46.375 Y-27.815
X46.373 Y-27.735
X46.37 Y-27.654
X46.366 Y-27.574
X46.36 Y-27.494
X46.353 Y-27.414
X46.344 Y-27.335
X46.333 Y-27.256
X46.319 Y-27.177
X46.304 Y-27.1
X46.286 Y-27.022
X46.265 Y-26.945
X46.242 Y-26.869
X46.217 Y-26.793
X46.191 Y-26.717
X46.163 Y-26.642
X46.134 Y-26.567
X46.104 Y-26.492
X46.073 Y-26.417
X46.042 Y-26.342
X46.015 Y-26.31
X45.988 Y-26.278
X45.961 Y-26.246
X45.933 Y-26.214
X45.905 Y-26.184
X45.877 Y-26.154
X45.848 Y-26.125
X45.818 Y-26.098
X45.788 Y-26.072
X45.756 Y-26.047
X45.724 Y-26.024
X45.691 Y-26.003
X45.656 Y-25.985
X45.62 Y-25.968
X45.584 Y-25.954
X45.546 Y-25.941
X45.507 Y-25.93
X45.468 Y-25.92
X45.428 Y-25.911
X45.387 Y-25.903
X45.346 Y-25.896
X45.305 Y-25.889
X45.222 Y-25.877
X45.144 Y-25.887
X45.106 Y-25.892
X45.067 Y-25.897
X45.029 Y-25.904
X44.992 Y-25.911
X44.955 Y-25.919
X44.919 Y-25.928
X44.883 Y-25.939
X44.849 Y-25.952
X44.815 Y-25.966
X44.782 Y-25.982
X44.751 Y-26
X44.72 Y-26.02
X44.69 Y-26.042
X44.661 Y-26.066
X44.633 Y-26.09
X44.605 Y-26.116
X44.578 Y-26.143
X44.552 Y-26.171
X44.526 Y-26.2
X44.5 Y-26.229
X44.448 Y-26.288
X44.416 Y-26.364
X44.383 Y-26.441
X44.351 Y-26.518
X44.32 Y-26.595
X44.29 Y-26.673
X44.262 Y-26.75
X44.235 Y-26.828
X44.21 Y-26.907
X44.188 Y-26.986
X44.168 Y-27.065
X44.151 Y-27.146
X44.136 Y-27.226
X44.124 Y-27.307
X44.114 Y-27.389
X44.105 Y-27.471
X44.099 Y-27.553
X44.094 Y-27.636
X44.09 Y-27.719
X44.088 Y-27.802
X44.086 Y-27.886
X44.085 Y-27.97
Y-28.053
Y-28.221
Z5
G0 Z6
X43.571 Y-22.456
Z5
G1 Z0 F381
X43.748 Y-22.432
X43.939 Y-22.4
X44.144 Y-22.36
X44.361 Y-22.31
X44.585 Y-22.252
X44.815 Y-22.185
X45.045 Y-22.112
X45.273 Y-22.031
X45.494 Y-21.946
X45.705 Y-21.856
X45.901 Y-21.763
X46.08 Y-21.669
X46.239 Y-21.575
X46.376 Y-21.485
X46.491 Y-21.399
X46.582 Y-21.321
X46.651 Y-21.253
X46.7 Y-21.198
X46.732 Y-21.159
X46.752 Y-21.138
X46.763
X46.769 Y-21.16
X46.772 Y-21.203
X46.775 Y-21.266
X46.778 Y-21.347
X46.782 Y-21.444
X46.788 Y-21.552
X46.796 Y-21.669
X46.807 Y-21.793
X46.822 Y-21.92
X46.844 Y-22.049
X46.873 Y-22.178
X46.911 Y-22.308
X46.962 Y-22.436
X47.028 Y-22.564
X47.109 Y-22.69
X47.209 Y-22.816
X47.328 Y-22.941
X47.467 Y-23.065
X47.628 Y-23.189
X47.808 Y-23.313
X48.008 Y-23.438
X48.225 Y-23.562
X48.457 Y-23.685
X48.7 Y-23.808
X48.951 Y-23.93
X49.207 Y-24.049
X49.463 Y-24.166
X49.715 Y-24.279
X50.191 Y-24.492
X50.409 Y-24.59
X50.608 Y-24.68
X50.787 Y-24.762
X50.944 Y-24.835
X51.188 Y-24.951
X51.275 Y-24.992
X51.342 Y-25.02
X51.391 Y-25.035
X51.428 Y-25.036
X51.456 Y-25.023
X51.479 Y-24.996
X51.503 Y-24.954
X51.528 Y-24.896
X51.557 Y-24.825
X51.591 Y-24.739
X51.629 Y-24.638
X51.672 Y-24.525
X51.717 Y-24.398
X51.765 Y-24.259
X51.814 Y-24.109
X51.862 Y-23.948
X51.909 Y-23.779
X51.953 Y-23.601
X51.994 Y-23.416
X52.029 Y-23.225
X52.06 Y-23.03
X52.084 Y-22.832
X52.102 Y-22.632
X52.112 Y-22.432
X52.116 Y-22.232
X52.112 Y-22.035
X52.102 Y-21.841
X52.085 Y-21.652
X52.063 Y-21.469
X52.035 Y-21.292
X52.004 Y-21.124
X51.97 Y-20.965
X51.936 Y-20.815
X51.903 Y-20.677
X51.872 Y-20.549
X51.845 Y-20.433
X51.824 Y-20.33
X51.809 Y-20.239
X51.802 Y-20.162
X51.803 Y-20.097
X51.812 Y-20.045
X51.828 Y-20.007
X51.852 Y-19.981
X51.881 Y-19.968
X51.917 Y-19.966
X51.958 Y-19.974
X52.005 Y-19.991
X52.058 Y-20.015
X52.12 Y-20.044
X52.19 Y-20.074
X52.27 Y-20.106
X52.36 Y-20.135
X52.463 Y-20.159
X52.578 Y-20.176
X52.706 Y-20.184
X52.847 Y-20.18
X53.003 Y-20.163
X53.172 Y-20.131
X53.354 Y-20.082
X53.55 Y-20.017
X53.757 Y-19.934
X53.974 Y-19.833
X54.2 Y-19.715
X54.432 Y-19.581
X54.668 Y-19.432
X54.905 Y-19.27
X55.141 Y-19.097
X55.372 Y-18.914
X55.596 Y-18.725
X55.81 Y-18.531
X56.011 Y-18.335
X56.197 Y-18.139
X56.366 Y-17.947
X56.514 Y-17.759
X56.643 Y-17.578
X56.748 Y-17.406
X56.831 Y-17.245
X56.891 Y-17.096
X56.928 Y-16.96
X56.944 Y-16.837
X56.94 Y-16.727
X56.919 Y-16.63
X56.884 Y-16.545
X56.838 Y-16.471
X56.784 Y-16.406
X56.725 Y-16.348
X56.662 Y-16.297
X56.597 Y-16.25
X56.529 Y-16.207
X56.457 Y-16.165
X56.379 Y-16.124
X56.293 Y-16.082
X56.195 Y-16.04
X56.084 Y-15.996
X55.955 Y-15.95
X55.808 Y-15.902
X55.64 Y-15.852
X55.452 Y-15.8
X55.246 Y-15.745
X55.021 Y-15.689
X54.783 Y-15.632
X54.534 Y-15.575
X54.279 Y-15.517
X54.021 Y-15.459
X53.767 Y-15.403
X53.521 Y-15.348
X53.287 Y-15.295
X53.071 Y-15.244
X52.875 Y-15.195
X52.705 Y-15.148
X52.562 Y-15.103
X52.448 Y-15.06
X52.364 Y-15.017
X52.31 Y-14.974
X52.283 Y-14.929
X52.28 Y-14.881
X52.298 Y-14.828
X52.331 Y-14.767
X52.425 Y-14.619
X52.478 Y-14.528
X52.53 Y-14.427
X52.577 Y-14.313
X52.619 Y-14.188
X52.652 Y-14.05
X52.675 Y-13.902
X52.687 Y-13.743
X52.688 Y-13.574
X52.676 Y-13.396
X52.653 Y-13.211
X52.619 Y-13.018
X52.573 Y-12.819
X52.517 Y-12.616
X52.452 Y-12.408
X52.38 Y-12.198
X52.301 Y-11.986
X52.217 Y-11.773
X52.129 Y-11.56
X52.04 Y-11.349
X51.949 Y-11.14
X51.86 Y-10.934
X51.772 Y-10.734
X51.687 Y-10.539
X51.606 Y-10.352
X51.529 Y-10.173
X51.456 Y-10.004
X51.388 Y-9.846
X51.324 Y-9.7
X51.263 Y-9.569
X51.203 Y-9.453
X51.144 Y-9.354
X51.083 Y-9.273
X51.019 Y-9.212
X50.951 Y-9.17
X50.876 Y-9.148
X50.795 Y-9.147
X50.707 Y-9.164
X50.612 Y-9.199
X50.511 Y-9.249
X50.406 Y-9.313
X50.297 Y-9.387
X50.187 Y-9.47
X50.077 Y-9.558
X49.969 Y-9.649
X49.864 Y-9.741
X49.764 Y-9.833
X49.67 Y-9.923
X49.581 Y-10.012
X49.497 Y-10.099
X49.418 Y-10.187
X49.343 Y-10.277
X49.27 Y-10.37
X49.198 Y-10.468
X49.125 Y-10.574
X49.051 Y-10.689
X48.973 Y-10.813
X48.891 Y-10.948
X48.805 Y-11.094
X48.618 Y-11.412
X48.518 Y-11.579
X48.416 Y-11.748
X48.312 Y-11.916
X48.208 Y-12.077
X48.105 Y-12.23
X48.005 Y-12.369
X47.908 Y-12.492
X47.816 Y-12.596
X47.729 Y-12.678
X47.648 Y-12.736
X47.572 Y-12.771
X47.501 Y-12.781
X47.433 Y-12.77
X47.367 Y-12.74
X47.301 Y-12.692
X47.232 Y-12.632
X47.081 Y-12.487
X46.995 Y-12.409
X46.902 Y-12.332
X46.8 Y-12.257
X46.69 Y-12.186
X46.572 Y-12.121
X46.447 Y-12.063
X46.316 Y-12.012
X46.18 Y-11.969
X46.039 Y-11.935
X45.894 Y-11.907
X45.746 Y-11.888
X45.596 Y-11.875
X45.444 Y-11.868
X45.29 Y-11.867
X45.134 Y-11.871
X44.975 Y-11.879
X44.814 Y-11.889
X44.65 Y-11.903
X44.483 Y-11.917
X44.138 Y-11.948
X43.96 Y-11.964
X43.778 Y-11.979
X43.593 Y-11.994
X43.216 Y-12.023
X43.027 Y-12.039
X42.839 Y-12.056
X42.655 Y-12.076
X42.475 Y-12.1
X42.304 Y-12.129
X42.141 Y-12.164
X41.99 Y-12.208
X41.853 Y-12.26
X41.731 Y-12.323
X41.627 Y-12.396
X41.542 Y-12.482
X41.478 Y-12.579
X41.434 Y-12.69
X41.412 Y-12.813
Y-12.948
X41.433 Y-13.095
X41.476 Y-13.252
X41.538 Y-13.419
X41.62 Y-13.595
X41.719 Y-13.777
X41.835 Y-13.965
X41.965 Y-14.156
X42.107 Y-14.35
X42.259 Y-14.545
X42.419 Y-14.738
X42.585 Y-14.928
X42.754 Y-15.113
X42.923 Y-15.292
X43.089 Y-15.464
X43.251 Y-15.626
X43.405 Y-15.778
X43.681 Y-16.046
X43.798 Y-16.162
X43.898 Y-16.265
X43.982 Y-16.354
X44.046 Y-16.432
X44.09 Y-16.497
X44.115 Y-16.553
X44.121 Y-16.599
X44.108 Y-16.639
X44.079 Y-16.675
X44.035 Y-16.71
X43.978 Y-16.746
X43.912 Y-16.787
X43.838 Y-16.835
X43.758 Y-16.891
X43.675 Y-16.957
X43.589 Y-17.033
X43.502 Y-17.119
X43.414 Y-17.214
X43.326 Y-17.318
X43.238 Y-17.428
X43.152 Y-17.546
X43.066 Y-17.667
X42.982 Y-17.793
X42.9 Y-17.921
X42.819 Y-18.05
X42.741 Y-18.179
X42.666 Y-18.309
X42.594 Y-18.438
X42.526 Y-18.567
X42.461 Y-18.695
X42.402 Y-18.823
X42.347 Y-18.95
X42.296 Y-19.078
X42.251 Y-19.206
X42.211 Y-19.335
X42.175 Y-19.466
X42.144 Y-19.6
X42.117 Y-19.737
X42.092 Y-19.878
X42.071 Y-20.022
X42.051 Y-20.172
X42.033 Y-20.327
X42.016 Y-20.487
X41.963 Y-20.992
X41.907 Y-21.51
X41.89 Y-21.676
X41.875 Y-21.833
X41.864 Y-21.978
X41.858 Y-22.107
X41.857 Y-22.218
X41.864 Y-22.309
X41.879 Y-22.378
X41.902 Y-22.425
X41.934 Y-22.45
X41.974 Y-22.458
X42.022 Y-22.45
X42.076 Y-22.434
X42.135 Y-22.413
X42.198 Y-22.393
X42.262 Y-22.377
X42.328 Y-22.367
X42.395 Y-22.365
X42.462 Y-22.37
X42.53 Y-22.38
X42.6 Y-22.395
X42.672 Y-22.412
X42.749 Y-22.43
X42.832 Y-22.447
X42.924 Y-22.462
X43.025 Y-22.473
X43.14 Y-22.479
X43.268 Y-22.478
X43.412 Y-22.471
X43.571 Y-22.456
Z5
G0 Z6
X49.721 Y-9.873
Z5
G1 Z0 F381
X49.68 Y-9.93
X49.639 Y-9.988
X49.599 Y-10.047
X49.56 Y-10.106
X49.522 Y-10.168
X49.486 Y-10.23
X49.45 Y-10.294
X49.415 Y-10.358
X49.382 Y-10.424
X49.349 Y-10.491
X49.317 Y-10.56
X49.285 Y-10.629
X49.255 Y-10.7
X49.225 Y-10.771
X49.195 Y-10.845
X49.166 Y-10.919
X49.138 Y-10.994
X49.109 Y-11.071
X49.051 Y-11.227
X48.963 Y-11.47
X48.902 Y-11.637
X48.87 Y-11.722
X48.838 Y-11.808
X48.805 Y-11.895
X48.738 Y-12.07
X48.669 Y-12.247
X48.635 Y-12.336
X48.601 Y-12.425
X48.568 Y-12.514
X48.535 Y-12.603
X48.503 Y-12.693
X48.473 Y-12.782
X48.444 Y-12.87
X48.416 Y-12.959
X48.391 Y-13.048
X48.367 Y-13.137
X48.346 Y-13.226
X48.327 Y-13.316
X48.31 Y-13.406
X48.296 Y-13.497
X48.285 Y-13.589
X48.276 Y-13.682
X48.27 Y-13.778
X48.266 Y-13.875
X48.264 Y-13.974
X48.265 Y-14.076
X48.269 Y-14.18
X48.275 Y-14.287
X48.282 Y-14.398
X48.292 Y-14.511
X48.303 Y-14.627
X48.316 Y-14.746
X48.331 Y-14.867
X48.346 Y-14.991
X48.363 Y-15.117
X48.38 Y-15.244
X48.45 Y-15.754
X48.467 Y-15.877
X48.483 Y-15.998
X48.498 Y-16.115
X48.511 Y-16.228
X48.523 Y-16.334
X48.534 Y-16.435
X48.542 Y-16.528
X48.548 Y-16.614
X48.552 Y-16.691
X48.554 Y-16.759
X48.553 Y-16.818
X48.549 Y-16.868
X48.542 Y-16.907
X48.533 Y-16.936
Z5
G0 Z6
X48.46 Y-16.952
Z5
G1 Z0 F381
X48.454 Y-16.934
X48.443 Y-16.914
X48.427 Y-16.891
X48.406 Y-16.864
X48.381 Y-16.834
X48.321 Y-16.761
X48.286 Y-16.718
X48.248 Y-16.669
X48.208 Y-16.615
X48.166 Y-16.555
X48.122 Y-16.489
X48.076 Y-16.416
X48.03 Y-16.338
X47.983 Y-16.253
X47.936 Y-16.162
X47.889 Y-16.065
X47.842 Y-15.962
X47.796 Y-15.854
X47.751 Y-15.742
X47.707 Y-15.626
X47.665 Y-15.506
X47.625 Y-15.383
X47.587 Y-15.258
X47.552 Y-15.132
X47.52 Y-15.005
X47.49 Y-14.879
X47.464 Y-14.753
X47.44 Y-14.629
X47.421 Y-14.507
X47.404 Y-14.388
X47.392 Y-14.273
X47.383 Y-14.162
X47.377 Y-14.055
X47.375 Y-13.954
X47.376 Y-13.858
X47.38 Y-13.768
X47.388 Y-13.683
X47.398 Y-13.604
X47.41 Y-13.531
X47.425 Y-13.464
X47.441 Y-13.401
X47.458 Y-13.344
X47.476 Y-13.291
X47.494 Y-13.243
X47.513 Y-13.198
X47.531 Y-13.156
X47.563 Y-13.081
X47.578 Y-13.047
X47.59 Y-13.014
X47.6 Y-12.983
X47.608 Y-12.953
X47.614 Y-12.924
X47.617 Y-12.896
Y-12.868
X47.614 Y-12.841
X47.609 Y-12.815
X47.601 Y-12.79
X47.59 Y-12.764
Z5
G0 Z6
X45.358 Y-11.867
Z5
G1 Z0 F381
X45.291 Y-11.699
X45.258 Y-11.618
X45.113 Y-11.253
X45.086 Y-11.187
X45.06 Y-11.123
X45.034 Y-11.06
X45.008 Y-10.999
X44.981 Y-10.94
X44.954 Y-10.881
X44.924 Y-10.823
X44.892 Y-10.764
X44.858 Y-10.705
X44.82 Y-10.646
X44.779 Y-10.585
X44.733 Y-10.521
X44.682 Y-10.457
X44.627 Y-10.389
X44.567 Y-10.319
X44.501 Y-10.246
X44.431 Y-10.17
X44.357 Y-10.092
X44.279 Y-10.01
X44.198 Y-9.927
X44.031 Y-9.756
X43.947 Y-9.67
X43.865 Y-9.583
X43.785 Y-9.498
X43.71 Y-9.414
X43.64 Y-9.334
X43.577 Y-9.257
X43.521 Y-9.184
X43.475 Y-9.118
X43.439 Y-9.059
X43.415 Y-9.008
X43.403 Y-8.966
X43.404 Y-8.935
X43.419 Y-8.915
X43.449 Y-8.908
X43.493 Y-8.915
X43.551 Y-8.936
X43.625 Y-8.971
X43.712 Y-9.021
X43.814 Y-9.086
X43.929 Y-9.166
X44.056 Y-9.259
X44.195 Y-9.366
X44.345 Y-9.485
X44.503 Y-9.616
X44.669 Y-9.756
X44.841 Y-9.905
X45.019 Y-10.062
X45.199 Y-10.224
X45.381 Y-10.391
X45.564 Y-10.56
X45.745 Y-10.73
X45.924 Y-10.899
X46.098 Y-11.066
X46.267 Y-11.23
X46.429 Y-11.389
X46.584 Y-11.541
X46.729 Y-11.686
X46.865 Y-11.822
X46.991 Y-11.949
X47.105 Y-12.066
X47.209 Y-12.172
X47.384 Y-12.351
X47.455 Y-12.424
X47.517 Y-12.487
X47.569 Y-12.54
X47.613 Y-12.584
X47.649 Y-12.618
X47.678 Y-12.645
X47.7 Y-12.663
X47.717 Y-12.675
X47.728 Y-12.679
Z5
G0 Z6
X52.335 Y-12.077
Z5
G1 Z0 F381
X52.354 Y-12.063
X52.374 Y-12.045
X52.398 Y-12.024
X52.425 Y-12
X52.454 Y-11.974
X52.486 Y-11.944
X52.521 Y-11.911
X52.558 Y-11.875
X52.599 Y-11.837
X52.641 Y-11.795
X52.687 Y-11.75
X52.735 Y-11.701
X52.785 Y-11.65
X52.838 Y-11.596
X52.893 Y-11.539
X52.95 Y-11.478
X53.009 Y-11.415
X53.069 Y-11.349
X53.131 Y-11.28
X53.194 Y-11.208
X53.259 Y-11.134
X53.324 Y-11.057
X53.389 Y-10.979
X53.454 Y-10.899
X53.52 Y-10.818
X53.584 Y-10.736
X53.647 Y-10.653
X53.709 Y-10.571
X53.769 Y-10.49
X53.826 Y-10.409
X53.881 Y-10.33
X53.932 Y-10.253
X53.98 Y-10.178
X54.025 Y-10.106
X54.065 Y-10.037
X54.101 Y-9.971
X54.133 Y-9.909
X54.16 Y-9.85
X54.184 Y-9.794
X54.203 Y-9.741
X54.218 Y-9.691
X54.23 Y-9.644
X54.238 Y-9.598
X54.244 Y-9.554
X54.247 Y-9.511
X54.249 Y-9.469
Y-9.428
Y-9.349
X54.25 Y-9.311
X54.252 Y-9.276
X54.257 Y-9.243
X54.264 Y-9.215
X54.274 Y-9.191
X54.287 Y-9.172
X54.304 Y-9.159
X54.324 Y-9.153
X54.347
X54.372 Y-9.16
X54.398 Y-9.173
X54.426 Y-9.192
X54.452 Y-9.216
X54.478 Y-9.246
X54.501 Y-9.281
X54.521 Y-9.319
X54.538 Y-9.362
X54.55 Y-9.408
X54.559 Y-9.459
X54.562 Y-9.513
X54.561 Y-9.57
X54.555 Y-9.632
X54.545 Y-9.698
X54.531 Y-9.768
X54.512 Y-9.842
X54.49 Y-9.921
X54.465 Y-10.005
X54.437 Y-10.093
X54.405 Y-10.186
X54.372 Y-10.284
X54.336 Y-10.386
X54.298 Y-10.493
X54.258 Y-10.603
X54.217 Y-10.717
X54.174 Y-10.834
X54.13 Y-10.954
X54.084 Y-11.076
X54.038 Y-11.2
X53.99 Y-11.325
X53.942 Y-11.451
X53.893 Y-11.578
X53.843 Y-11.705
X53.792 Y-11.831
X53.741 Y-11.956
X53.689 Y-12.08
X53.637 Y-12.202
X53.584 Y-12.321
X53.53 Y-12.439
X53.476 Y-12.553
X53.422 Y-12.665
X53.368 Y-12.773
X53.313 Y-12.878
X53.257 Y-12.979
X53.201 Y-13.077
X53.145 Y-13.171
X53.089 Y-13.261
X53.032 Y-13.347
X52.975 Y-13.429
X52.918 Y-13.507
X52.86 Y-13.581
X52.802 Y-13.651
X52.744 Y-13.717
X52.685 Y-13.778
Z5
G0 Z6
X52.606 Y-14.23
Z5
G1 Z0 F381
X52.692 Y-14.222
X52.776 Y-14.214
X52.859 Y-14.205
X52.941 Y-14.196
X53.021 Y-14.188
X53.101 Y-14.178
X53.179 Y-14.169
X53.257 Y-14.159
X53.333 Y-14.15
X53.558 Y-14.12
X53.633 Y-14.111
X53.707 Y-14.102
X53.782 Y-14.093
X53.857 Y-14.085
X53.933 Y-14.077
X54.011 Y-14.071
X54.09 Y-14.065
X54.171 Y-14.061
X54.255 Y-14.058
X54.341 Y-14.057
X54.43
X54.522 Y-14.059
X54.618 Y-14.063
X54.716 Y-14.068
X54.818 Y-14.075
X54.923 Y-14.084
X55.029 Y-14.094
X55.139 Y-14.105
X55.25 Y-14.116
X55.362 Y-14.129
X55.588 Y-14.154
X55.7 Y-14.166
X55.811 Y-14.178
X55.92 Y-14.189
X56.026 Y-14.198
X56.13 Y-14.207
X56.231 Y-14.214
X56.328 Y-14.221
X56.421 Y-14.226
X56.51 Y-14.23
X56.677 Y-14.236
X56.756 Y-14.24
X56.831 Y-14.244
X56.904 Y-14.25
X56.975 Y-14.257
X57.044 Y-14.267
X57.113 Y-14.28
X57.18 Y-14.297
X57.247 Y-14.317
X57.314 Y-14.342
X57.381 Y-14.37
X57.446 Y-14.402
X57.511 Y-14.437
X57.574 Y-14.475
X57.634 Y-14.515
X57.69 Y-14.556
X57.741 Y-14.597
X57.787 Y-14.637
X57.826 Y-14.676
X57.857 Y-14.711
X57.88 Y-14.743
X57.894 Y-14.771
X57.899 Y-14.794
X57.895 Y-14.813
X57.883 Y-14.826
X57.863 Y-14.834
X57.836 Y-14.839
X57.803
X57.765 Y-14.835
X57.723 Y-14.829
X57.677 Y-14.82
X57.629 Y-14.809
X57.578 Y-14.796
X57.526 Y-14.783
X57.472 Y-14.769
X57.418 Y-14.755
X57.363 Y-14.741
X57.306 Y-14.727
X57.25 Y-14.715
X57.192 Y-14.704
X57.132 Y-14.695
X57.071 Y-14.688
X57.008 Y-14.682
X56.942 Y-14.679
X56.872 Y-14.678
X56.798 Y-14.68
X56.72 Y-14.684
X56.637 Y-14.691
X56.549 Y-14.701
X56.455 Y-14.713
X56.355 Y-14.727
X56.249 Y-14.744
X56.138 Y-14.764
X56.022 Y-14.786
X55.901 Y-14.809
X55.777 Y-14.835
X55.65 Y-14.863
X55.522 Y-14.893
X55.393 Y-14.923
X55.265 Y-14.955
X55.139 Y-14.988
X55.016 Y-15.022
X54.898 Y-15.057
X54.785 Y-15.091
X54.68 Y-15.126
X54.582 Y-15.16
X54.492 Y-15.194
X54.411 Y-15.227
X54.339 Y-15.259
X54.277 Y-15.29
X54.224 Y-15.32
X54.181 Y-15.347
X54.145 Y-15.373
X54.117 Y-15.397
X54.096 Y-15.419
X54.08 Y-15.438
X54.071 Y-15.455
X54.067 Y-15.469
Z5
G0 Z6
X55.701 Y-15.87
Z5
G1 Z0 F381
X55.615 Y-15.878
X55.53 Y-15.884
X55.446 Y-15.889
X55.363 Y-15.893
X55.281 Y-15.895
X55.201 Y-15.896
X55.122
X55.044 Y-15.894
X54.968 Y-15.892
X54.892 Y-15.888
X54.817 Y-15.883
X54.743 Y-15.877
X54.669 Y-15.869
X54.595 Y-15.861
X54.521 Y-15.853
X54.447 Y-15.843
X54.372 Y-15.833
X54.219 Y-15.813
X54.139 Y-15.802
X54.058 Y-15.792
X53.975 Y-15.782
X53.888 Y-15.773
X53.799 Y-15.764
X53.708 Y-15.756
X53.612 Y-15.749
X53.514 Y-15.743
X53.413 Y-15.739
X53.31 Y-15.736
X53.203 Y-15.735
X53.094
X52.984 Y-15.738
X52.871 Y-15.741
X52.758 Y-15.748
X52.643 Y-15.755
X52.528 Y-15.766
X52.414 Y-15.778
X52.299 Y-15.792
X52.185 Y-15.809
X52.072 Y-15.827
X51.96 Y-15.848
X51.85 Y-15.871
X51.741 Y-15.896
X51.633 Y-15.923
X51.528 Y-15.953
X51.423 Y-15.984
X51.32 Y-16.017
X51.218 Y-16.051
X51.117 Y-16.088
X51.017 Y-16.125
X50.917 Y-16.165
X50.817 Y-16.205
X50.718 Y-16.247
X50.618 Y-16.29
X50.518 Y-16.333
X50.418 Y-16.378
X50.013 Y-16.558
X49.911 Y-16.603
X49.811 Y-16.647
X49.71 Y-16.69
X49.612 Y-16.733
X49.515 Y-16.774
X49.42 Y-16.815
X49.328 Y-16.854
X49.239 Y-16.891
X49.154 Y-16.926
X49.072 Y-16.959
X48.996 Y-16.991
X48.924 Y-17.02
X48.798 Y-17.07
X48.743 Y-17.092
X48.652 Y-17.127
X48.615 Y-17.14
X48.585 Y-17.152
X48.562 Y-17.16
X48.544 Y-17.166
X48.533 Y-17.169
Z5
G0 Z6
X46.764 Y-21.14
Z5
G1 Z0 F381
X46.817 Y-21.114
X46.871 Y-21.086
X46.925 Y-21.056
X46.979 Y-21.024
X47.034 Y-20.989
X47.09 Y-20.952
X47.146 Y-20.914
X47.202 Y-20.873
X47.259 Y-20.83
X47.316 Y-20.784
X47.373 Y-20.737
X47.43 Y-20.687
X47.488 Y-20.635
X47.545 Y-20.581
X47.603 Y-20.525
X47.66 Y-20.466
X47.716 Y-20.405
X47.772 Y-20.342
X47.827 Y-20.277
X47.881 Y-20.21
X47.933 Y-20.14
X47.984 Y-20.068
X48.033 Y-19.995
X48.08 Y-19.919
X48.124 Y-19.841
X48.166 Y-19.762
X48.206 Y-19.68
X48.242 Y-19.597
X48.276 Y-19.513
X48.306 Y-19.427
X48.334 Y-19.339
X48.358 Y-19.251
X48.379 Y-19.161
X48.397 Y-19.071
X48.412 Y-18.98
X48.424 Y-18.889
X48.433 Y-18.798
X48.44 Y-18.707
X48.445 Y-18.617
X48.448 Y-18.527
X48.45 Y-18.438
Y-18.351
X48.449 Y-18.265
X48.447 Y-18.181
X48.442 Y-18.02
X48.439 Y-17.942
X48.438 Y-17.868
X48.436 Y-17.796
Y-17.728
Y-17.662
X48.438 Y-17.6
X48.441 Y-17.541
X48.445 Y-17.486
X48.45 Y-17.434
X48.458 Y-17.385
X48.466 Y-17.341
X48.476 Y-17.299
X48.488 Y-17.261
X48.502 Y-17.227
X48.516 Y-17.196
X48.533 Y-17.169
Z5
G0 Z6
X52.332 Y-14.995
Z5
G1 Z0 F381
X52.288 Y-14.983
X52.244 Y-14.974
X52.201 Y-14.967
X52.158 Y-14.962
X52.114 Y-14.958
X52.071 Y-14.957
X52.027
X51.984 Y-14.96
X51.94 Y-14.964
X51.897 Y-14.97
X51.853 Y-14.978
X51.81 Y-14.988
X51.765 Y-14.999
X51.721 Y-15.013
X51.676 Y-15.028
X51.631 Y-15.044
X51.585 Y-15.062
X51.539 Y-15.082
X51.492 Y-15.103
X51.444 Y-15.126
X51.394 Y-15.149
X51.344 Y-15.174
X51.293 Y-15.2
X51.187 Y-15.255
X50.903 Y-15.404
X50.72 Y-15.499
X50.534 Y-15.596
X50.409 Y-15.661
X50.347 Y-15.694
X50.285 Y-15.727
X50.223 Y-15.76
X50.162 Y-15.794
X50.102 Y-15.828
X50.042 Y-15.862
X49.983 Y-15.897
X49.924 Y-15.932
X49.866 Y-15.969
X49.808 Y-16.006
X49.751 Y-16.044
X49.695 Y-16.083
X49.639 Y-16.124
X49.583 Y-16.165
X49.528 Y-16.208
X49.472 Y-16.252
X49.418 Y-16.297
X49.363 Y-16.343
X49.309 Y-16.39
X49.256 Y-16.438
X49.203 Y-16.487
X49.151 Y-16.535
X49.1 Y-16.583
X48.908 Y-16.767
X48.864 Y-16.808
X48.822 Y-16.846
X48.783 Y-16.881
X48.745 Y-16.913
X48.711 Y-16.941
X48.679 Y-16.965
X48.65 Y-16.985
Z5
G0 Z6
X51.803 Y-20.099
Z5
G1 Z0 F381
X51.789 Y-20.083
X51.775 Y-20.064
X51.761 Y-20.042
X51.747 Y-20.017
X51.733 Y-19.99
X51.719 Y-19.96
X51.705 Y-19.927
X51.691 Y-19.891
X51.676 Y-19.852
X51.662 Y-19.811
X51.647 Y-19.767
X51.599 Y-19.622
X51.581 Y-19.569
X51.562 Y-19.515
X51.542 Y-19.458
X51.52 Y-19.401
X51.497 Y-19.342
X51.471 Y-19.282
X51.444 Y-19.222
X51.414 Y-19.161
X51.381 Y-19.1
X51.346 Y-19.038
X51.308 Y-18.977
X51.267 Y-18.916
X51.223 Y-18.855
X51.175 Y-18.795
X51.125 Y-18.736
X51.071 Y-18.678
X51.015 Y-18.62
X50.956 Y-18.564
X50.894 Y-18.508
X50.829 Y-18.453
X50.761 Y-18.399
X50.692 Y-18.346
X50.62 Y-18.294
X50.546 Y-18.243
X50.47 Y-18.192
X50.393 Y-18.143
X50.314 Y-18.094
X50.234 Y-18.045
X50.152 Y-17.998
X50.07 Y-17.951
X49.987 Y-17.904
X49.903 Y-17.858
X49.819 Y-17.813
X49.735 Y-17.767
X49.649 Y-17.722
X49.564 Y-17.678
X49.479 Y-17.634
X49.393 Y-17.59
X49.221 Y-17.504
X49.049 Y-17.418
X48.963 Y-17.376
X48.791 Y-17.292
X48.705 Y-17.251
X48.533 Y-17.169
Z5
G0 Z6
X44.121 Y-16.597
Z5
G1 Z0 F381
X44.149 Y-16.642
X44.181 Y-16.686
X44.215 Y-16.729
X44.253 Y-16.772
X44.293 Y-16.814
X44.337 Y-16.855
X44.384 Y-16.896
X44.433 Y-16.935
X44.486 Y-16.974
X44.542 Y-17.013
X44.601 Y-17.05
X44.663 Y-17.087
X44.728 Y-17.122
X44.796 Y-17.157
X44.866 Y-17.19
X44.94 Y-17.222
X45.016 Y-17.253
X45.095 Y-17.283
X45.176 Y-17.311
X45.259 Y-17.337
X45.345 Y-17.362
X45.433 Y-17.384
X45.522 Y-17.405
X45.613 Y-17.424
X45.706 Y-17.44
X45.8 Y-17.454
X45.895 Y-17.466
X45.991 Y-17.475
X46.088 Y-17.482
X46.186 Y-17.486
X46.284 Y-17.488
X46.382 Y-17.487
X46.479 Y-17.484
X46.577 Y-17.479
X46.674 Y-17.472
X46.771 Y-17.462
X46.866 Y-17.451
X46.96 Y-17.439
X47.054 Y-17.425
X47.145 Y-17.41
X47.236 Y-17.393
X47.324 Y-17.377
X47.41 Y-17.359
X47.494 Y-17.342
X47.576 Y-17.324
X47.878 Y-17.258
X47.946 Y-17.243
X48.012 Y-17.23
X48.075 Y-17.217
X48.134 Y-17.206
X48.191 Y-17.196
X48.244 Y-17.188
X48.295 Y-17.181
X48.342 Y-17.175
X48.387 Y-17.171
X48.428 Y-17.168
X48.466 Y-17.167
X48.501
X48.533 Y-17.169
Z5
G0 Z6
X51.77 Y-24.246
Z5
G1 Z0 F381
X51.767 Y-24.155
X51.765 Y-24.065
X51.764 Y-23.975
X51.763 Y-23.885
Y-23.796
Y-23.707
Y-23.618
X51.764 Y-23.529
X51.766 Y-23.353
X51.769 Y-23.176
X51.77 Y-23.087
Y-22.997
Y-22.907
X51.768 Y-22.816
X51.765 Y-22.724
X51.761 Y-22.631
X51.754 Y-22.535
X51.745 Y-22.438
X51.732 Y-22.339
X51.717 Y-22.237
X51.699 Y-22.133
X51.676 Y-22.026
X51.65 Y-21.916
X51.619 Y-21.802
X51.584 Y-21.686
X51.545 Y-21.567
X51.5 Y-21.444
X51.451 Y-21.319
X51.398 Y-21.191
X51.34 Y-21.061
X51.278 Y-20.928
X51.211 Y-20.793
X51.14 Y-20.657
X51.066 Y-20.519
X50.987 Y-20.381
X50.906 Y-20.242
X50.822 Y-20.102
X50.735 Y-19.963
X50.646 Y-19.825
X50.555 Y-19.688
X50.462 Y-19.552
X50.368 Y-19.418
X50.273 Y-19.286
X50.178 Y-19.156
X50.083 Y-19.03
X49.988 Y-18.906
X49.894 Y-18.785
X49.801 Y-18.668
X49.709 Y-18.555
X49.619 Y-18.446
X49.531 Y-18.34
X49.445 Y-18.239
X49.362 Y-18.141
X49.282 Y-18.048
X49.13 Y-17.875
X48.873 Y-17.583
X48.819 Y-17.521
X48.769 Y-17.464
X48.724 Y-17.411
X48.683 Y-17.363
X48.647 Y-17.319
X48.615 Y-17.28
X48.588 Y-17.246
X48.565 Y-17.215
X48.547 Y-17.19
X48.533 Y-17.169
Z5
G0 Z6
X42.601 Y-22.396
Z5
G1 Z0 F381
X42.672 Y-22.387
X42.745 Y-22.377
X42.819 Y-22.366
X42.895 Y-22.355
X42.973 Y-22.342
X43.053 Y-22.329
X43.134 Y-22.314
X43.217 Y-22.299
X43.302 Y-22.282
X43.389 Y-22.264
X43.477 Y-22.245
X43.568 Y-22.224
X43.66 Y-22.201
X43.754 Y-22.176
X43.85 Y-22.149
X43.949 Y-22.12
X44.049 Y-22.088
X44.152 Y-22.053
X44.257 Y-22.014
X44.364 Y-21.971
X44.473 Y-21.924
X44.585 Y-21.873
X44.699 Y-21.817
X44.815 Y-21.756
X44.934 Y-21.69
X45.054 Y-21.618
X45.177 Y-21.54
X45.301 Y-21.457
X45.427 Y-21.368
X45.554 Y-21.274
X45.682 Y-21.174
X45.811 Y-21.069
X45.939 Y-20.958
X46.068 Y-20.844
X46.196 Y-20.724
X46.323 Y-20.601
X46.448 Y-20.475
X46.571 Y-20.347
X46.692 Y-20.216
X46.808 Y-20.083
X46.922 Y-19.95
X47.031 Y-19.817
X47.135 Y-19.684
X47.235 Y-19.553
X47.329 Y-19.423
X47.417 Y-19.295
X47.5 Y-19.17
X47.576 Y-19.048
X47.646 Y-18.93
X47.71 Y-18.816
X47.768 Y-18.706
X47.82 Y-18.601
X47.867 Y-18.5
X47.908 Y-18.405
X47.945 Y-18.314
X47.977 Y-18.228
X48.006 Y-18.147
X48.031 Y-18.071
X48.055 Y-17.998
X48.096 Y-17.866
X48.115 Y-17.806
X48.134 Y-17.749
X48.153 Y-17.695
X48.172 Y-17.645
X48.192 Y-17.597
X48.213 Y-17.552
X48.234 Y-17.51
X48.256 Y-17.471
X48.278 Y-17.434
X48.3 Y-17.399
X48.323 Y-17.367
X48.346 Y-17.337
X48.369 Y-17.309
X48.391 Y-17.284
X48.413 Y-17.261
X48.434 Y-17.24
X48.455 Y-17.221
X48.476 Y-17.205
X48.495 Y-17.191
X48.515 Y-17.178
X48.533 Y-17.169
Z5
G0 Z6
X41.494 Y-12.55
Z5
G1 Z0 F381
X41.489 Y-12.597
X41.491 Y-12.648
X41.499 Y-12.705
X41.514 Y-12.766
X41.537 Y-12.831
X41.566 Y-12.901
X41.603 Y-12.976
X41.646 Y-13.055
X41.696 Y-13.139
X41.752 Y-13.226
X41.816 Y-13.318
X41.885 Y-13.414
X41.961 Y-13.514
X42.042 Y-13.617
X42.129 Y-13.724
X42.221 Y-13.833
X42.318 Y-13.944
X42.419 Y-14.058
X42.524 Y-14.173
X42.632 Y-14.29
X42.744 Y-14.407
X42.858 Y-14.524
X42.975 Y-14.642
X43.093 Y-14.759
X43.214 Y-14.875
X43.335 Y-14.989
X43.458 Y-15.102
X43.582 Y-15.213
X43.707 Y-15.322
X43.833 Y-15.427
X43.96 Y-15.53
X44.088 Y-15.63
X44.218 Y-15.726
X44.349 Y-15.819
X44.482 Y-15.909
X44.618 Y-15.995
X44.756 Y-16.077
X44.896 Y-16.156
X45.04 Y-16.231
X45.186 Y-16.302
X45.336 Y-16.37
X45.488 Y-16.434
X45.644 Y-16.494
X45.803 Y-16.551
X45.964 Y-16.604
X46.128 Y-16.654
X46.293 Y-16.701
X46.459 Y-16.744
X46.625 Y-16.783
X46.79 Y-16.82
X46.953 Y-16.853
X47.113 Y-16.883
X47.269 Y-16.91
X47.419 Y-16.934
X47.562 Y-16.955
X47.697 Y-16.972
X47.824 Y-16.987
X47.941 Y-16.999
X48.047 Y-17.007
X48.141 Y-17.013
X48.224 Y-17.016
X48.294
Z5
G0 Z6
X39.113 Y-17.107
Z5
G1 Z0 F381
Y-22.476
X37.692
Y-11.738
X39.113
Y-17.107
Z5
G0 Z16
M9
G28 G91 Z0
G90
G28 G91 X0 Y0
G90
M30
%
