(1001)
(T2  D=1.587 CR=0.381 - ZMIN=0 - bullnose end mill)
G90 G94
G17
G21
G28 G91 Z0
G90

(Trace2)
T2 M6
S10000 M3
G54
M8
G0 X15.16 Y-22.809
Z15
Z5
G1 Z0 F381
X15.639 Y-22.876
X16.073 Y-23.066
X16.444 Y-23.361
X16.736 Y-23.743
X16.934 Y-24.196
X17.022 Y-24.701
X17.064 Y-25.222
X17.219 Y-25.699
X17.475 Y-26.112
X17.816 Y-26.444
X18.226 Y-26.679
X18.689 Y-26.798
X19.177 Y-26.785
X19.631 Y-26.644
X20.03 Y-26.39
X20.357 Y-26.041
X20.595 Y-25.615
X20.729 Y-25.129
X20.763 Y-24.605
X20.872 Y-24.108
X21.088 Y-23.667
X21.396 Y-23.299
X21.78 Y-23.023
X22.223 Y-22.854
X22.708 Y-22.812
X23.181 Y-22.903
X23.604 Y-23.113
X23.962 Y-23.425
X24.238 Y-23.821
X24.417 Y-24.285
X24.482 Y-24.799
X24.542 Y-25.314
X24.717 Y-25.78
X24.989 Y-26.179
X25.344 Y-26.495
X25.765 Y-26.71
X26.236 Y-26.806
X26.722 Y-26.769
X27.167 Y-26.605
X27.554 Y-26.333
X27.865 Y-25.968
X28.086 Y-25.53
X28.199 Y-25.035
X28.232 Y-24.51
X28.362 Y-24.022
X28.596 Y-23.593
X28.92 Y-23.241
X29.316 Y-22.983
X29.768 Y-22.837
X30.256 Y-22.819
X30.721 Y-22.933
X31.133 Y-23.163
X31.477 Y-23.492
X31.737 Y-23.902
X31.896 Y-24.376
X31.942 Y-24.896
X32.024 Y-25.403
X32.218 Y-25.859
X32.507 Y-26.244
X32.875 Y-26.543
X33.306 Y-26.737
X33.784 Y-26.809
X34.265 Y-26.747
X34.701 Y-26.563
X35.075 Y-26.272
X35.371 Y-25.893
X35.573 Y-25.443
X35.665 Y-24.939
X35.705 Y-24.417
X35.855 Y-23.938
X36.107 Y-23.522
X36.445 Y-23.186
X36.853 Y-22.947
X37.313 Y-22.823
X37.803 Y-22.83
X38.259 Y-22.967
X38.66 Y-23.216
X38.99 Y-23.562
X39.232 Y-23.985
X39.371 Y-24.469
X39.406 Y-24.992
X39.51 Y-25.492
X39.722 Y-25.935
X40.027 Y-26.306
X40.408 Y-26.587
X40.849 Y-26.76
X41.333 Y-26.808
X41.807 Y-26.722
X42.233 Y-26.517
X42.593 Y-26.208
X42.874 Y-25.815
X43.057 Y-25.354
X43.127 Y-24.842
X43.182 Y-24.325
X43.352 Y-23.857
X43.621 Y-23.454
X43.973 Y-23.135
X44.392 Y-22.916
X44.861 Y-22.814
X45.347 Y-22.846
X45.795 Y-23.005
X46.184 Y-23.273
X46.499 Y-23.634
X46.723 Y-24.07
X46.841 Y-24.563
X46.874 Y-25.087
X46.999 Y-25.578
X47.229 Y-26.009
X47.549 Y-26.365
X47.943 Y-26.627
X48.393 Y-26.778
X48.881 Y-26.802
X49.347 Y-26.693
X49.762 Y-26.467
X50.109 Y-26.142
X50.373 Y-25.735
X50.536 Y-25.263
X50.585 Y-24.744
X50.663 Y-24.235
X50.852 Y-23.778
X51.138 Y-23.389
X51.503 Y-23.086
X51.932 Y-22.888
X52.409 Y-22.81
X52.891 Y-22.866
X53.329 Y-23.046
X53.706 Y-23.333
X54.005 Y-23.709
X54.211 Y-24.156
X54.308 Y-24.659
X54.346 Y-25.181
X54.492 Y-25.662
X54.74 Y-26.081
X55.075 Y-26.421
X55.479 Y-26.664
X55.938 Y-26.793
X56.427 Y-26.792
X56.886 Y-26.66
X57.289 Y-26.414
X57.622 Y-26.073
X57.869 Y-25.653
X58.012 Y-25.171
X58.049 Y-24.648
X58.148 Y-24.147
X58.356 Y-23.7
X58.657 Y-23.326
X59.036 Y-23.042
X59.474 Y-22.864
X60.08 Y-22.804
X60.852 Y-22.64
X61.494 Y-22.275
X62.003 Y-21.749
X62.376 Y-21.102
X62.61 Y-20.374
X62.702 Y-19.607
X62.648 Y-18.839
X62.447 Y-18.112
X62.094 Y-17.465
X61.586 Y-16.939
X60.921 Y-16.573
X60.096 Y-16.409
X59.474 Y-16.35
X59.036 Y-16.172
X58.657 Y-15.887
X58.356 Y-15.513
X58.148 Y-15.067
X58.049 Y-14.566
X58.012 Y-14.043
X57.869 Y-13.561
X57.622 Y-13.141
X57.289 Y-12.799
X56.886 Y-12.554
X56.427 Y-12.422
X55.938 Y-12.421
X55.479 Y-12.55
X55.075 Y-12.793
X54.74 Y-13.133
X54.492 Y-13.552
X54.346 Y-14.033
X54.308 Y-14.555
X54.211 Y-15.057
X54.005 Y-15.505
X53.706 Y-15.881
X53.329 Y-16.167
X52.891 Y-16.347
X52.409 Y-16.404
X51.932 Y-16.326
X51.503 Y-16.127
X51.138 Y-15.825
X50.852 Y-15.436
X50.663 Y-14.978
X50.585 Y-14.469
X50.536 Y-13.95
X50.373 Y-13.479
X50.109 Y-13.071
X49.762 Y-12.746
X49.347 Y-12.521
X48.881 Y-12.412
X48.393 Y-12.435
X47.943 Y-12.587
X47.549 Y-12.849
X47.229 Y-13.204
X46.999 Y-13.636
X46.874 Y-14.126
X46.841 Y-14.651
X46.723 Y-15.144
X46.499 Y-15.58
X46.184 Y-15.94
X45.795 Y-16.209
X45.347 Y-16.368
X44.861 Y-16.399
X44.392 Y-16.298
X43.973 Y-16.079
X43.621 Y-15.759
X43.352 Y-15.357
X43.182 Y-14.888
X43.127 Y-14.372
X43.057 Y-13.86
X42.874 Y-13.399
X42.593 Y-13.005
X42.233 Y-12.697
X41.807 Y-12.491
X41.333 Y-12.406
X40.849 Y-12.454
X40.408 Y-12.627
X40.027 Y-12.908
X39.722 Y-13.278
X39.51 Y-13.722
X39.406 Y-14.221
X39.371 Y-14.745
X39.232 Y-15.229
X38.99 Y-15.652
X38.66 Y-15.997
X38.259 Y-16.247
X37.803 Y-16.383
X37.313 Y-16.39
X36.853 Y-16.266
X36.445 Y-16.027
X36.107 Y-15.691
X35.855 Y-15.275
X35.705 Y-14.796
X35.665 Y-14.275
X35.573 Y-13.771
X35.371 Y-13.321
X35.075 Y-12.941
X34.701 Y-12.651
X34.265 Y-12.466
X33.784 Y-12.404
X33.306 Y-12.477
X32.875 Y-12.671
X32.507 Y-12.969
X32.218 Y-13.355
X32.024 Y-13.81
X31.942 Y-14.318
X31.896 Y-14.837
X31.737 Y-15.312
X31.477 Y-15.722
X31.133 Y-16.051
X30.721 Y-16.281
X30.256 Y-16.395
X29.768 Y-16.377
X29.316 Y-16.23
X28.92 Y-15.972
X28.596 Y-15.62
X28.362 Y-15.191
X28.232 Y-14.703
X28.199 Y-14.179
X28.086 Y-13.684
X27.865 Y-13.245
X27.554 Y-12.881
X27.167 Y-12.608
X26.722 Y-12.445
X26.236 Y-12.408
X25.765 Y-12.504
X25.344 Y-12.718
X24.989 Y-13.034
X24.717 Y-13.434
X24.542 Y-13.9
X24.482 Y-14.415
X24.417 Y-14.929
X24.238 Y-15.392
X23.962 Y-15.789
X23.604 Y-16.101
X23.181 Y-16.311
X22.708 Y-16.402
X22.223 Y-16.359
X21.78 Y-16.191
X21.396 Y-15.914
X21.088 Y-15.547
X20.872 Y-15.106
X20.763 Y-14.608
X20.729 Y-14.084
X20.595 Y-13.598
X20.357 Y-13.172
X20.03 Y-12.824
X19.631 Y-12.57
X19.177 Y-12.428
X18.689 Y-12.416
X18.226 Y-12.535
X17.816 Y-12.769
X17.475 Y-13.102
X17.219 Y-13.515
X17.064 Y-13.991
X17.022 Y-14.512
X16.934 Y-15.018
X16.736 Y-15.471
X16.444 Y-15.853
X16.073 Y-16.148
X15.639 Y-16.337
X15.16 Y-16.404
Z5
G0 Z15
M9
G28 G91 Z0
G90
G28 G91 X0 Y0
G90
M5
M30
