%
(1001)
(T1  D=1.587 CR=0.381 - ZMIN=0 - bullnose end mill)
G90 G94
G17
G21
G28 G91 Z0
G90

(Trace10)
M9
T1 M6
S10000 M3
G54
M8
G0 X9.5 Y-7
Z16
Z5
G1 Z0 F381
Y-17
Z5
G0 Z6
Y-22
Z5
G1 Z0 F381
Y-32
Z5
G0 Z6
X14.5
Z5
G1 Z0 F381
Y-22
Z5
G0 Z6
Y-17
Z5
G1 Z0 F381
Y-7
Z5
G0 Z6
X19.5
Z5
G1 Z0 F381
Y-17
Z5
G0 Z6
Y-22
Z5
G1 Z0 F381
Y-32
Z5
G0 Z6
X24.5
Z5
G1 Z0 F381
Y-22
Z5
G0 Z6
Y-17
Z5
G1 Z0 F381
Y-7
Z5
G0 Z6
X29.5
Z5
G1 Z0 F381
Y-17
Z5
G0 Z6
Y-22
Z5
G1 Z0 F381
Y-32
Z5
G0 Z6
X34.5
Z5
G1 Z0 F381
Y-22
Z5
G0 Z6
Y-17
Z5
G1 Z0 F381
Y-7
Z5
G0 Z6
X39.5
Z5
G1 Z0 F381
X49.5
Z5
G0 Z6
X54.5
Z5
G1 Z0 F381
X64.5
Z5
G0 Z6
Y-12
Z5
G1 Z0 F381
X54.5
Z5
G0 Z6
X49.5
Z5
G1 Z0 F381
X39.5
Z5
G0 Z6
Y-17
Z5
G1 Z0 F381
X49.5
Z5
G0 Z6
X54.5
Z5
G1 Z0 F381
X64.5
Z5
G0 Z6
Y-22
Z5
G1 Z0 F381
X54.5
Z5
G0 Z6
X49.5
Z5
G1 Z0 F381
X39.5
Z5
G0 Z6
Y-27
Z5
G1 Z0 F381
X49.5
Z5
G0 Z6
X54.5
Z5
G1 Z0 F381
X64.5
Z5
G0 Z6
Y-32
Z5
G1 Z0 F381
X54.5
Z5
G0 Z6
X49.5
Z5
G1 Z0 F381
X39.5
Z5
G0 Z16
M9
G28 G91 Z0
G90
G28 G91 X0 Y0
G90
M30
%
