%
(1001)
(T1  D=1.587 CR=0.381 - ZMIN=0 - bullnose end mill)
G90 G94
G17
G21
G28 G91 Z0
G90

(Trace12)
M9
T1 M6
S10000 M3
G54
M8
G0 X32 Y-5
Z16
Z5
G1 Z0 F381
X42
Z5
G0 Z6
X47 Y-10
Z5
G1 Z0 F381
X27
Z5
G0 Z6
X22 Y-15
Z5
G1 Z0 F381
X52
Z5
G0 Z6
X57 Y-20
Z5
G1 Z0 F381
X17
Z5
G0 Z6
X12 Y-25
Z5
G1 Z0 F381
X62
Z5
G0 Z6
X67 Y-30
Z5
G1 Z0 F381
X7
Z5
G0 Z6
X2 Y-35
Z5
G1 Z0 F381
X72
Z5
G0 Z16
M9
G28 G91 Z0
G90
G28 G91 X0 Y0
G90
M30
%
