%
(1001)
(T1  D=1.587 CR=0.381 - ZMIN=0 - bullnose end mill)
G90 G94
G17
G21
G28 G91 Z0
G90

(Face3)
M9
T1 M6
S10000 M3
G54
M8
G0 X41.042 Y-32.517
Z11
Z6
G1 Z0 F381
X40.665
X32.012
X30.318
G2 Y-31.747 J0.385
G1 X42.359
X43.586
G3 Y-30.978 J0.385
G1 X29.092
X28.121
G2 Y-30.209 J0.385
G1 X44.556
X45.36
G3 Y-29.44 J0.385
G1 X27.317
X26.636
G2 Y-28.67 J0.385
G1 X46.042
X46.618
G3 Y-27.901 J0.385
G1 X26.06
X25.57
G2 Y-27.132 J0.385
G1 X47.107
X47.526
G3 Y-26.362 J0.385
G1 X25.152
X24.797
G2 Y-25.593 J0.385
G1 X47.88
X48.169
G3 Y-24.824 J0.385
G1 X24.509
X24.276
G2 Y-24.055 J0.385
G1 X48.402
X48.583
G3 Y-23.285 J0.385
G1 X24.095
X23.963
G2 Y-22.516 J0.385
G1 X48.715
X48.798
G3 Y-21.747 J0.385
G1 X23.88
X23.844
G2 Y-20.978 J0.385
G1 X48.834
X48.839
G3 Y-20.208 J0.385
G1 X23.839
G2 Y-19.439 J0.385
G1 X48.839
G3 Y-18.67 J0.385
G1 X48.824
X23.854
G2 Y-17.9 J0.385
G1 X23.909
X48.768
G3 Y-17.131 J0.385
G1 X48.665
X24.013
G2 Y-16.362 J0.385
G1 X24.168
X48.509
G3 Y-15.593 J0.385
G1 X48.301
X24.376
G2 Y-14.823 J0.385
G1 X24.637
X48.04
G3 Y-14.054 J0.385
G1 X47.722
X24.955
G2 Y-13.285 J0.385
G1 X25.334
X47.344
G3 Y-12.516 J0.385
G1 X46.896
X25.782
G2 Y-11.746 J0.385
G1 X26.315
X46.363
G3 Y-10.977 J0.385
G1 X45.744
X26.934
G2 Y-10.208 J0.385
G1 X27.669
X45.009
G3 Y-9.438 J0.385
G1 X44.139
X28.539
G2 Y-8.669 J0.385
G1 X29.618
X43.06
G3 Y-7.9 J0.385
G1 X41.664
X31.014
G0 Z11
M9
G28 G91 Z0
G90
G28 G91 X0 Y0
G90
M30
%
