%
(1001)
(T1  D=0.1 CR=0.05 - ZMIN=0 - ball end mill)
G90 G94
G17
G21
G28 G91 Z0
G90

(2D Contour4)
M9
T1 M6
S10000 M3
G54
M8
G0 X14.621 Y-10.097
Z16
Z6
G1 Z2 F762
Z0.01
X14.618 Z0.003
X14.611 Z0
X14.601 F381
X14.594 Y-10.1
X14.591 Y-10.107
G3 X16.491 I0.95
G2 X18.591 I1.05
G3 X20.491 I0.95
G2 X22.591 I1.05
G3 X24.491 I0.95
G2 X26.591 I1.05
G3 X28.491 I0.95
G2 X30.591 I1.05
G1 X30.594 Y-10.114
X30.601 Y-10.117
X30.611
X30.618 Z0.003
X30.621 Z0.01
G0 Z6
X30.461 Y-12.717
G1 Z2 F762
Z0.01
X30.464 Z0.003
X30.471 Z0
X30.481 F381
X30.488 Y-12.714
X30.491 Y-12.707
G3 X28.591 I-0.95
G2 X26.491 I-1.05
G3 X24.591 I-0.95
G2 X22.491 I-1.05
G3 X20.591 I-0.95
G2 X18.491 I-1.05
G3 X16.591 I-0.95
G2 X14.491 I-1.05
G1 X14.488 Y-12.7
X14.481 Y-12.697
X14.471
X14.464 Z0.003
X14.461 Z0.01
G0 Z16
M9
G28 G91 Z0
G90
G28 G91 X0 Y0
G90
M30
%
