%
(1001)
(T1  D=1.587 CR=0.381 - ZMIN=0 - bullnose end mill)
G90 G94
G17
G21
G28 G91 Z0
G90

(Trace9)
M9
T1 M6
S10000 M3
G54
M8
G0 X2 Y-37
Z16
Z5
G1 Z0 F381
Y-17
Z5
G0 Z6
Y-12
Z5
G1 Z0 F381
Y-2
Z5
G0 Z6
X8.25
Z5
G1 Z0 F381
Y-12
Z5
G0 Z6
Y-17
Z5
G1 Z0 F381
Y-37
Z5
G0 Z6
X14.5
Z5
G1 Z0 F381
Y-17
Z5
G0 Z6
Y-12
Z5
G1 Z0 F381
Y-2
Z5
G0 Z6
X20.75
Z5
G1 Z0 F381
Y-12
Z5
G0 Z6
Y-17
Z5
G1 Z0 F381
Y-37
Z5
G0 Z6
X27
Z5
G1 Z0 F381
Y-17
Z5
G0 Z6
Y-12
Z5
G1 Z0 F381
Y-2
Z5
G0 Z6
X32
Z5
G1 Z0 F381
X72
Z5
G0 Z6
Y-8.25
Z5
G1 Z0 F381
X32
Z5
G0 Z6
Y-14.5
Z5
G1 Z0 F381
X72
Z5
G0 Z6
Y-20.75
Z5
G1 Z0 F381
X32
Z5
G0 Z6
Y-27
Z5
G1 Z0 F381
X72
Z5
G0 Z16
M9
G28 G91 Z0
G90
G28 G91 X0 Y0
G90
M30
%
