%
(1001)
(T9  D=2 CR=0 TAPER=60deg - ZMIN=0.1 - chamfer mill)
G90 G94
G17
G21
G28 G91 Z0
G90

(2D Contour7)
M9
T9 M6
S1750 M3
G54
M8
G0 X9.603 Y18.564
Z15.1
Z5.1
G1 Z1.1 F30
Z0.3
G18 G3 X9.403 Z0.1 I-0.2
G1 X9.203 F0
G17 G3 X9.003 Y18.364 J-0.2
X12.803 I1.9 F350
G2 X17.003 I2.1
G3 X20.803 I1.9
G2 X25.003 I2.1
G3 X28.803 I1.9
G2 X33.003 I2.1
G3 X36.803 I1.9
G2 X41.003 I2.1
G3 X44.803 I1.9
G2 X49.003 I2.1
G3 X52.803 I1.9
G2 X57.003 I2.1
G3 X60.803 I1.9
G2 X65.003 I2.1
G3 X65.203 Y18.164 I0.2 F0
G1 X65.403
G18 G2 X65.603 Z0.3 K0.2
G0 Z15.1
G17
M9
G28 G91 Z0
G90
G28 G91 X0 Y0
G90
M30
%
