%
(path05)
(T9  D=1 CR=0 TAPER=60deg - ZMIN=0.1 - chamfer mill)
G90 G94
G17
G21
G28 G91 Z0
G90

(2D Contour5)
M9
T9 M6
S1750 M3
G54
Z5
G0 X10.212 Y20.13
M8
Z16.1
Z6.1
G1 Z2.1 F30
Z0.2
X10.218 Y20.126 Z0.162
X10.237 Y20.114 Z0.129
X10.264 Y20.096 Z0.108
X10.296 Y20.075 Z0.1
X10.379 Y20.02 F350
X10.415 Y20.005
X10.454
X10.49 Y20.02
X10.518 Y20.048
X11.154 Y21.011
Y21.012
X11.763 Y21.913
Y21.914
X12.345 Y22.753
X12.346 Y22.755
X12.9 Y23.532
X12.901 Y23.534
X13.429 Y24.249
X13.43 Y24.251
X13.931 Y24.904
X13.933 Y24.906
X14.408 Y25.497
X14.41 Y25.499
X14.86 Y26.028
X14.862 Y26.03
X15.288 Y26.495
X15.291 Y26.499
X15.695 Y26.9
X15.699 Y26.904
X16.081 Y27.24
X16.088 Y27.245
X16.451 Y27.516
X16.46 Y27.522
X16.807 Y27.727
X16.82 Y27.733
X17.154 Y27.87
X17.172 Y27.875
X17.496 Y27.942
X17.517 Y27.945
X17.835 Y27.942
X17.857 Y27.939
X18.173 Y27.866
X18.192 Y27.859
X18.511 Y27.715
X18.524 Y27.707
X18.85 Y27.494
X18.859 Y27.487
X19.193 Y27.208
X19.199 Y27.203
X19.547 Y26.864
X19.55 Y26.86
X19.913 Y26.47
X19.914 Y26.468
X20.293 Y26.038
X20.689 Y25.578
X21.531 Y24.631
X21.974 Y24.173
X22.433 Y23.745
X22.904 Y23.359
X23.386 Y23.029
X23.878 Y22.765
X24.125 Y22.662
X24.375 Y22.578
X24.626 Y22.514
X24.879 Y22.471
X25.133 Y22.448
X25.389
X25.646 Y22.469
X25.904 Y22.513
X26.164 Y22.578
X26.426 Y22.666
X26.689 Y22.775
X26.953 Y22.907
X27.218 Y23.059
X27.482 Y23.232
X28.017 Y23.638
X28.55 Y24.116
X29.083 Y24.658
X29.614 Y25.252
X30.141 Y25.885
X30.663 Y26.543
X31.69 Y27.872
X32.193 Y28.51
X32.194 Y28.512
X32.687 Y29.111
X32.689 Y29.114
X33.172 Y29.658
X33.176 Y29.662
X33.647 Y30.138
X33.652 Y30.142
X33.883 Y30.35
X33.886 Y30.353
X34.114 Y30.539
X34.119 Y30.542
X34.343 Y30.705
X34.349 Y30.709
X34.57 Y30.847
X34.577 Y30.851
X34.794 Y30.964
X34.803 Y30.968
X35.016 Y31.054
X35.026 Y31.057
X35.235 Y31.116
X35.247 Y31.119
X35.452 Y31.15
X35.465 Y31.151
X35.665 Y31.154
X35.68 Y31.153
X35.875 Y31.127
X35.889 Y31.124
X36.079 Y31.07
X36.093 Y31.065
X36.277 Y30.982
X36.289 Y30.976
X36.468 Y30.865
X36.478 Y30.858
X36.651 Y30.72
X36.659 Y30.713
X36.826 Y30.547
X36.832 Y30.54
X36.993 Y30.349
X36.998 Y30.342
X37.152 Y30.125
X37.156 Y30.119
X37.304 Y29.878
X37.307 Y29.873
X37.448 Y29.608
X37.45 Y29.603
X37.585 Y29.316
X37.587 Y29.312
X37.715 Y29.005
X37.716 Y29.001
X37.837 Y28.674
X37.839 Y28.67
X38.061 Y27.964
X38.063 Y27.959
X38.26 Y27.195
X38.261 Y27.192
X38.436 Y26.384
Y26.381
X38.592 Y25.543
Y25.541
X38.732 Y24.69
X38.733 Y24.689
X38.99 Y23.006
X39.119 Y22.206
X39.257 Y21.455
X39.411 Y20.766
X39.495 Y20.45
X39.585 Y20.154
X39.682 Y19.88
X39.786 Y19.63
X39.898 Y19.405
X40.018 Y19.206
X40.146 Y19.034
X40.281 Y18.89
X40.426 Y18.773
X40.579 Y18.684
X40.742 Y18.621
X40.917 Y18.584
X41.106 Y18.574
X41.308 Y18.592
X41.525 Y18.637
X41.756 Y18.71
X42.002 Y18.812
X42.262 Y18.941
X42.535 Y19.099
X42.821 Y19.283
X43.12 Y19.493
X43.431 Y19.728
X43.754 Y19.988
X44.088 Y20.271
X44.434 Y20.575
X44.789 Y20.901
X45.155 Y21.246
X45.53 Y21.609
X46.306 Y22.385
X47.112 Y23.215
X47.943 Y24.089
X48.793 Y24.994
X49.656 Y25.916
X51.397 Y27.76
X51.398 Y27.761
X52.262 Y28.657
X52.263 Y28.658
X53.115 Y29.521
X53.116 Y29.522
X53.949 Y30.339
X53.95 Y30.34
X54.757 Y31.101
X54.759 Y31.103
X55.535 Y31.797
X55.537 Y31.799
X55.911 Y32.117
X55.913 Y32.119
X56.277 Y32.417
X56.279 Y32.418
X56.633 Y32.696
X56.635 Y32.697
X56.978 Y32.952
X56.98 Y32.954
X57.311 Y33.186
X57.314 Y33.188
X57.632 Y33.395
X57.636 Y33.397
X57.942 Y33.581
X57.946 Y33.583
X58.239 Y33.741
X58.243 Y33.743
X58.523 Y33.876
X58.528 Y33.878
X58.794 Y33.984
X58.801 Y33.986
X59.052 Y34.066
X59.061 Y34.068
X59.297 Y34.121
X59.308 Y34.122
X59.53 Y34.148
X59.542 Y34.149
X59.75 Y34.147
X59.764 Y34.146
X59.957 Y34.118
X59.972 Y34.115
X60.15 Y34.06
X60.165 Y34.054
X60.329 Y33.973
X60.343 Y33.965
X60.493 Y33.858
X60.504 Y33.848
X60.64 Y33.717
X60.649 Y33.706
X60.771 Y33.55
X60.778 Y33.54
X60.887 Y33.361
X60.892 Y33.352
X60.988 Y33.15
X60.991 Y33.142
X61.075 Y32.918
X61.077 Y32.912
X61.149 Y32.668
X61.15 Y32.662
X61.211 Y32.399
X61.212 Y32.394
X61.263 Y32.113
X61.264 Y32.107
X61.336 Y31.498
X61.337 Y31.492
X61.376 Y30.828
Y30.824
X61.388 Y30.116
Y30.113
X61.38 Y29.374
Y29.371
X61.322 Y27.841
Y27.839
X61.244 Y26.303
X61.178 Y24.82
X61.156 Y24.111
X61.145 Y23.43
Y22.778
X61.157 Y22.157
X61.182 Y21.568
X61.221 Y21.013
X61.273 Y20.491
X61.339 Y20.001
X61.352 Y19.964
X61.378 Y19.935
X61.413 Y19.918
X61.452 Y19.916
X61.551 Y19.929
X61.589 Y19.934 Z0.108
X61.621 Y19.938 Z0.129
X61.643 Y19.941 Z0.162
X61.65 Y19.942 Z0.2
M9
G0 Z6.1
X62.08 Y13.293
G1 Z2.1 F30
Z0.2
M8
X62.072 Y13.294 Z0.162
X62.05 Y13.296 Z0.129
X62.018 Y13.3 Z0.108
X61.98 Y13.304 Z0.1
X61.881 Y13.314 F350
X61.842 Y13.31
X61.807 Y13.292
X61.782 Y13.262
X61.771 Y13.225
X61.687 Y12.415
X61.6 Y11.637
X61.512 Y10.889
X61.421 Y10.173
X61.328 Y9.488
X61.233 Y8.835
Y8.834
X61.136 Y8.212
Y8.211
X61.036 Y7.621
Y7.62
X60.934 Y7.061
Y7.06
X60.83 Y6.532
Y6.531
X60.724 Y6.034
Y6.033
X60.615 Y5.568
Y5.566
X60.504 Y5.131
Y5.129
X60.391 Y4.726
X60.39 Y4.723
X60.275 Y4.351
X60.274 Y4.348
X60.156 Y4.006
X60.155 Y4.002
X60.035 Y3.691
X60.033 Y3.687
X59.91 Y3.405
X59.908 Y3.401
X59.783 Y3.149
X59.78 Y3.144
X59.652 Y2.922
X59.648 Y2.916
X59.518 Y2.723
X59.512 Y2.716
X59.379 Y2.553
X59.372 Y2.545
X59.236 Y2.41
X59.226 Y2.401
X59.087 Y2.295
X59.074 Y2.287
X58.932 Y2.208
X58.917 Y2.201
X58.771 Y2.149
X58.754 Y2.145
X58.605 Y2.119
X58.588 Y2.118
X58.435 Y2.119
X58.419 Y2.12
X58.263 Y2.146
X58.249 Y2.15
X58.089 Y2.201
X58.078 Y2.205
X57.914 Y2.28
X57.905 Y2.284
X57.736 Y2.382
X57.73 Y2.387
X57.557 Y2.507
X57.551 Y2.511
X57.374 Y2.653
X57.37 Y2.656
X57.188 Y2.818
X57.185 Y2.821
X56.997 Y3.003
X56.994 Y3.006
X56.603 Y3.423
X56.6 Y3.426
X56.187 Y3.908
X56.185 Y3.91
X55.747 Y4.448
X55.746 Y4.449
X55.282 Y5.033
X54.79 Y5.654
X54.27 Y6.301
X53.721 Y6.965
X53.143 Y7.637
X52.536 Y8.308
X51.901 Y8.969
X51.239 Y9.612
X50.552 Y10.23
X49.843 Y10.816
X49.116 Y11.364
X48.374 Y11.87
X47.623 Y12.33
X46.869 Y12.74
X46.116 Y13.097
X45.371 Y13.4
X44.64 Y13.647
X43.928 Y13.837
X43.24 Y13.969
X42.582 Y14.043
X41.959 Y14.06
X41.373 Y14.019
X40.827 Y13.922
X40.323 Y13.769
X39.861 Y13.562
X39.44 Y13.299
X39.056 Y12.982
X38.708 Y12.611
X38.39 Y12.186
X38.1 Y11.71
X37.834 Y11.185
X37.587 Y10.614
X37.356 Y10.004
X37.135 Y9.361
X36.922 Y8.692
X36.503 Y7.321
X36.291 Y6.643
Y6.641
X36.076 Y5.987
X36.075 Y5.985
X35.856 Y5.369
X35.854 Y5.366
X35.628 Y4.803
X35.626 Y4.797
X35.393 Y4.301
X35.39 Y4.296
X35.27 Y4.077
X35.268 Y4.072
X35.146 Y3.875
X35.143 Y3.869
X35.019 Y3.695
X35.014 Y3.688
X34.888 Y3.538
X34.881 Y3.53
X34.753 Y3.405
X34.743 Y3.397
X34.613 Y3.298
X34.6 Y3.29
X34.466 Y3.218
X34.45 Y3.211
X34.314 Y3.167
X34.294 Y3.162
X34.155 Y3.147
X34.135 Y3.146
X33.993 Y3.159
X33.975 Y3.162
X33.829 Y3.203
X33.814 Y3.208
X33.666 Y3.277
X33.654 Y3.283
X33.501 Y3.38
X33.493 Y3.386
X33.336 Y3.509
X33.33 Y3.515
X33.169 Y3.665
X33.165 Y3.669
X32.999 Y3.845
X32.996 Y3.849
X32.825 Y4.049
X32.823 Y4.052
X32.647 Y4.275
X32.646 Y4.277
X32.465 Y4.522
X32.464 Y4.524
X32.277 Y4.789
X32.276 Y4.791
X31.885 Y5.377
X31.884 Y5.379
X31.469 Y6.027
X31.026 Y6.724
X30.557 Y7.453
X30.06 Y8.2
X29.537 Y8.951
X28.987 Y9.691
X28.413 Y10.408
X27.819 Y11.089
X27.208 Y11.725
X26.586 Y12.307
X25.957 Y12.827
X25.328 Y13.282
X24.706 Y13.665
X24.097 Y13.974
X23.507 Y14.208
X23.223 Y14.296
X22.944 Y14.365
X22.674 Y14.415
X22.412 Y14.447
X22.158 Y14.46
X21.915 Y14.455
X21.68 Y14.432
X21.458 Y14.392
X21.038 Y14.261
X20.66 Y14.066
X20.321 Y13.811
X20.017 Y13.499
X19.747 Y13.136
X19.507 Y12.725
X19.294 Y12.275
X19.104 Y11.792
X18.931 Y11.284
X18.618 Y10.227
X18.319 Y9.179
Y9.177
X18.165 Y8.681
X18.164 Y8.678
X18.003 Y8.212
X18.002 Y8.208
X17.831 Y7.783
X17.828 Y7.777
X17.644 Y7.403
X17.639 Y7.393
X17.441 Y7.078
X17.432 Y7.066
X17.217 Y6.818
X17.206 Y6.807
X17.092 Y6.711
X17.082 Y6.704
X16.963 Y6.627
X16.95 Y6.62
X16.826 Y6.564
X16.811 Y6.559
X16.683 Y6.524
X16.666 Y6.521
X16.532 Y6.509
X16.516
X16.377 Y6.519
X16.361 Y6.521
X16.217 Y6.555
X16.204 Y6.559
X16.054 Y6.617
X16.043 Y6.622
X15.887 Y6.704
X15.879 Y6.709
X15.718 Y6.816
X15.711 Y6.821
X15.544 Y6.954
X15.538 Y6.959
X15.366 Y7.117
X15.361 Y7.121
X15.182 Y7.306
X15.179 Y7.31
X14.994 Y7.521
X14.991 Y7.524
X14.801 Y7.762
X14.798 Y7.765
X14.601 Y8.03
X14.6 Y8.033
X14.396 Y8.326
X14.395 Y8.328
X14.186 Y8.648
X14.184 Y8.65
X13.969 Y8.998
X13.968 Y9
X13.746 Y9.375
X13.745 Y9.377
X13.517 Y9.781
X13.516 Y9.782
X13.282 Y10.214
X13.281 Y10.215
X13.04 Y10.675
Y10.676
X12.793 Y11.164
X12.792 Y11.165
X12.539 Y11.682
Y11.683
X12.279 Y12.228
X12.278
X12.012 Y12.802
X11.74 Y13.404
X11.461 Y14.035
X11.175 Y14.694
X10.884 Y15.381
X10.586 Y16.097
X10.564 Y16.129
X10.532 Y16.151
X10.493 Y16.158
X10.455 Y16.15
X10.363 Y16.112
X10.327 Y16.097 Z0.108
X10.298 Y16.085 Z0.129
X10.278 Y16.077 Z0.162
X10.27 Y16.074 Z0.2
M9
G0 Z16.1
M9
G28 G91 Z11
G90
G28 G91 X0 Y0
G90
M30
%
