(1001)
(T2  D=1.587 CR=0.381 - ZMIN=0 - bullnose end mill)
G90 G94
G17
G21
G28 G91 Z0
G90

(Trace7)
T2 M6
S10000 M3
G54
M8
G0 X2.032 Y-16.952
Z15
Z5
G1 Z0 F381
X8.536 Y-16.947
X11.567 Y-16.944
X13.627
X14.298 Y-16.943
X14.504 Y-16.937
X14.705 Y-16.916
X14.903 Y-16.882
X15.096 Y-16.836
X15.283 Y-16.778
X15.466 Y-16.708
X15.642 Y-16.626
X15.812 Y-16.534
X15.975 Y-16.431
X16.131 Y-16.318
X16.279 Y-16.196
X16.419 Y-16.065
X16.55 Y-15.925
X16.672 Y-15.776
X16.785 Y-15.621
X16.888 Y-15.458
X16.98 Y-15.288
X17.062 Y-15.111
X17.132 Y-14.929
X17.19 Y-14.741
X17.236 Y-14.548
X17.27 Y-14.351
X17.29 Y-14.149
X17.297 Y-13.943
Y-7.613
X17.304 Y-7.408
X17.324 Y-7.206
X17.358 Y-7.009
X17.404 Y-6.816
X17.463 Y-6.628
X17.533 Y-6.446
X17.614 Y-6.269
X17.707 Y-6.099
X17.809 Y-5.936
X17.922 Y-5.78
X18.045 Y-5.632
X18.176 Y-5.492
X18.316 Y-5.361
X18.464 Y-5.238
X18.62 Y-5.126
X18.783 Y-5.023
X18.953 Y-4.931
X19.129 Y-4.849
X19.312 Y-4.779
X19.5 Y-4.721
X19.692 Y-4.674
X19.89 Y-4.641
X20.092 Y-4.62
X20.297 Y-4.613
X20.308
X20.464 Y-4.619
X20.617 Y-4.635
X20.767 Y-4.662
X20.912 Y-4.698
X21.054 Y-4.744
X21.19 Y-4.799
X21.322 Y-4.863
X21.448 Y-4.936
X21.681 Y-5.104
X21.888 Y-5.301
X21.98 Y-5.41
X22.064 Y-5.524
X22.139 Y-5.645
X22.206 Y-5.77
X22.264 Y-5.901
X22.312 Y-6.036
X22.351 Y-6.175
X22.378 Y-6.318
X22.424 Y-6.909
X22.451 Y-7.052
X22.49 Y-7.191
X22.538 Y-7.326
X22.596 Y-7.457
X22.663 Y-7.582
X22.738 Y-7.702
X22.822 Y-7.817
X22.914 Y-7.926
X23.121 Y-8.123
X23.354 Y-8.291
X23.48 Y-8.364
X23.612 Y-8.428
X23.748 Y-8.483
X23.89 Y-8.529
X24.035 Y-8.565
X24.185 Y-8.592
X24.338 Y-8.608
X24.494 Y-8.613
X24.65 Y-8.608
X24.803 Y-8.592
X24.953 Y-8.565
X25.099 Y-8.529
X25.24 Y-8.483
X25.377 Y-8.428
X25.508 Y-8.364
X25.634 Y-8.291
X25.868 Y-8.123
X26.074 Y-7.926
X26.166 Y-7.817
X26.25 Y-7.702
X26.326 Y-7.582
X26.393 Y-7.457
X26.451 Y-7.326
X26.499 Y-7.191
X26.537 Y-7.052
X26.565 Y-6.909
X26.61 Y-6.318
X26.638 Y-6.175
X26.676 Y-6.036
X26.724 Y-5.901
X26.782 Y-5.77
X26.849 Y-5.645
X26.925 Y-5.524
X27.009 Y-5.41
X27.101 Y-5.301
X27.307 Y-5.104
X27.541 Y-4.936
X27.667 Y-4.863
X27.798 Y-4.799
X27.935 Y-4.744
X28.076 Y-4.698
X28.222 Y-4.662
X28.371 Y-4.635
X28.524 Y-4.619
X28.681 Y-4.613
X28.837 Y-4.619
X28.99 Y-4.635
X29.14 Y-4.662
X29.285 Y-4.698
X29.427 Y-4.744
X29.563 Y-4.799
X29.695 Y-4.863
X29.82 Y-4.936
X30.054 Y-5.104
X30.261 Y-5.301
X30.353 Y-5.41
X30.437 Y-5.524
X30.513 Y-5.645
X30.579 Y-5.77
X30.637 Y-5.901
X30.685 Y-6.036
X30.723 Y-6.175
X30.751 Y-6.318
X30.797 Y-6.909
X30.824 Y-7.052
X30.863 Y-7.191
X30.911 Y-7.326
X30.969 Y-7.457
X31.035 Y-7.582
X31.111 Y-7.702
X31.195 Y-7.817
X31.287 Y-7.926
X31.494 Y-8.123
X31.727 Y-8.291
X31.853 Y-8.364
X31.985 Y-8.428
X32.121 Y-8.483
X32.263 Y-8.529
X32.408 Y-8.565
X32.558 Y-8.592
X32.711 Y-8.608
X32.867 Y-8.613
X33.023 Y-8.608
X33.177 Y-8.592
X33.326 Y-8.565
X33.472 Y-8.529
X33.613 Y-8.483
X33.75 Y-8.428
X33.881 Y-8.364
X34.007 Y-8.291
X34.241 Y-8.123
X34.447 Y-7.926
X34.539 Y-7.817
X34.623 Y-7.702
X34.699 Y-7.582
X34.766 Y-7.457
X34.824 Y-7.326
X34.872 Y-7.191
X34.91 Y-7.052
X34.938 Y-6.909
X34.983 Y-6.318
X35.011 Y-6.175
X35.049 Y-6.036
X35.097 Y-5.901
X35.155 Y-5.77
X35.222 Y-5.645
X35.298 Y-5.524
X35.382 Y-5.41
X35.474 Y-5.301
X35.68 Y-5.104
X35.914 Y-4.936
X36.04 Y-4.863
X36.171 Y-4.799
X36.308 Y-4.744
X36.449 Y-4.698
X36.595 Y-4.662
X36.744 Y-4.635
X36.897 Y-4.619
X37.054 Y-4.613
X37.21 Y-4.619
X37.363 Y-4.635
X37.513 Y-4.662
X37.658 Y-4.698
X37.8 Y-4.744
X37.936 Y-4.799
X38.068 Y-4.863
X38.194 Y-4.936
X38.427 Y-5.104
X38.634 Y-5.301
X38.726 Y-5.41
X38.81 Y-5.524
X38.886 Y-5.645
X38.952 Y-5.77
X39.01 Y-5.901
X39.058 Y-6.036
X39.097 Y-6.175
X39.124 Y-6.318
X39.17 Y-6.909
X39.197 Y-7.052
X39.236 Y-7.191
X39.284 Y-7.326
X39.342 Y-7.457
X39.409 Y-7.582
X39.484 Y-7.702
X39.568 Y-7.817
X39.66 Y-7.926
X39.867 Y-8.123
X40.1 Y-8.291
X40.226 Y-8.364
X40.358 Y-8.428
X40.494 Y-8.483
X40.636 Y-8.529
X40.781 Y-8.565
X40.931 Y-8.592
X41.084 Y-8.608
X41.24 Y-8.613
X41.396 Y-8.608
X41.55 Y-8.592
X41.699 Y-8.565
X41.845 Y-8.529
X41.986 Y-8.483
X42.123 Y-8.428
X42.254 Y-8.364
X42.38 Y-8.291
X42.614 Y-8.123
X42.82 Y-7.926
X42.912 Y-7.817
X42.996 Y-7.702
X43.072 Y-7.582
X43.139 Y-7.457
X43.197 Y-7.326
X43.245 Y-7.191
X43.283 Y-7.052
X43.311 Y-6.909
X43.356 Y-6.318
X43.384 Y-6.175
X43.422 Y-6.036
X43.47 Y-5.901
X43.528 Y-5.77
X43.595 Y-5.645
X43.671 Y-5.524
X43.755 Y-5.41
X43.847 Y-5.301
X44.054 Y-5.104
X44.287 Y-4.936
X44.413 Y-4.863
X44.544 Y-4.799
X44.681 Y-4.744
X44.822 Y-4.698
X44.968 Y-4.662
X45.118 Y-4.635
X45.271 Y-4.619
X45.427 Y-4.613
X45.583 Y-4.619
X45.736 Y-4.635
X45.886 Y-4.662
X46.031 Y-4.698
X46.173 Y-4.744
X46.309 Y-4.799
X46.441 Y-4.863
X46.567 Y-4.936
X46.8 Y-5.104
X47.007 Y-5.301
X47.099 Y-5.41
X47.183 Y-5.524
X47.258 Y-5.645
X47.326 Y-5.77
X47.383 Y-5.901
X47.431 Y-6.036
X47.47 Y-6.175
X47.497 Y-6.318
X47.543 Y-6.909
X47.57 Y-7.052
X47.609 Y-7.191
X47.657 Y-7.326
X47.715 Y-7.457
X47.782 Y-7.582
X47.857 Y-7.702
X47.941 Y-7.817
X48.034 Y-7.926
X48.24 Y-8.123
X48.473 Y-8.291
X48.599 Y-8.364
X48.731 Y-8.428
X48.867 Y-8.483
X49.009 Y-8.529
X49.154 Y-8.565
X49.304 Y-8.592
X49.457 Y-8.608
X49.613 Y-8.613
X49.77 Y-8.608
X49.923 Y-8.592
X50.072 Y-8.565
X50.218 Y-8.529
X50.359 Y-8.483
X50.496 Y-8.428
X50.627 Y-8.364
X50.753 Y-8.291
X50.987 Y-8.123
X51.193 Y-7.926
X51.285 Y-7.817
X51.369 Y-7.702
X51.445 Y-7.582
X51.512 Y-7.457
X51.57 Y-7.326
X51.618 Y-7.191
X51.656 Y-7.052
X51.684 Y-6.909
X51.729 Y-6.318
X51.757 Y-6.175
X51.795 Y-6.036
X51.843 Y-5.901
X51.901 Y-5.77
X51.968 Y-5.645
X52.044 Y-5.524
X52.128 Y-5.41
X52.22 Y-5.301
X52.426 Y-5.104
X52.66 Y-4.936
X52.786 Y-4.863
X52.917 Y-4.799
X53.054 Y-4.744
X53.195 Y-4.698
X53.341 Y-4.662
X53.491 Y-4.635
X53.644 Y-4.619
X53.8 Y-4.613
X53.956 Y-4.619
X54.109 Y-4.635
X54.259 Y-4.662
X54.404 Y-4.698
X54.546 Y-4.744
X54.682 Y-4.799
X54.814 Y-4.863
X54.94 Y-4.936
X55.173 Y-5.104
X55.38 Y-5.301
X55.472 Y-5.41
X55.556 Y-5.524
X55.632 Y-5.645
X55.699 Y-5.77
X55.756 Y-5.901
X55.805 Y-6.036
X55.843 Y-6.175
X55.87 Y-6.318
X55.916 Y-6.909
X55.944 Y-7.052
X55.982 Y-7.191
X56.03 Y-7.326
X56.088 Y-7.457
X56.155 Y-7.582
X56.23 Y-7.702
X56.314 Y-7.817
X56.407 Y-7.926
X56.613 Y-8.123
X56.847 Y-8.291
X56.972 Y-8.364
X57.104 Y-8.428
X57.241 Y-8.483
X57.382 Y-8.529
X57.527 Y-8.565
X57.677 Y-8.592
X57.83 Y-8.608
X57.986 Y-8.613
X58.143 Y-8.608
X58.296 Y-8.592
X58.445 Y-8.565
X58.591 Y-8.529
X58.732 Y-8.483
X58.869 Y-8.428
X59 Y-8.364
X59.126 Y-8.291
X59.36 Y-8.123
X59.566 Y-7.926
X59.658 Y-7.817
X59.742 Y-7.702
X59.818 Y-7.582
X59.885 Y-7.457
X59.943 Y-7.326
X59.991 Y-7.191
X60.029 Y-7.052
X60.057 Y-6.909
X60.102 Y-6.318
X60.13 Y-6.175
X60.168 Y-6.036
X60.216 Y-5.901
X60.274 Y-5.77
X60.341 Y-5.645
X60.417 Y-5.524
X60.501 Y-5.41
X60.593 Y-5.301
X60.799 Y-5.104
X61.033 Y-4.936
X61.159 Y-4.863
X61.29 Y-4.799
X61.427 Y-4.744
X61.568 Y-4.698
X61.714 Y-4.662
X61.863 Y-4.635
X62.017 Y-4.619
X62.173 Y-4.613
X62.329 Y-4.619
X62.482 Y-4.635
X62.632 Y-4.662
X62.777 Y-4.698
X62.919 Y-4.744
X63.055 Y-4.799
X63.187 Y-4.863
X63.313 Y-4.936
X63.546 Y-5.104
X63.753 Y-5.301
X63.845 Y-5.41
X63.929 Y-5.524
X64.005 Y-5.645
X64.072 Y-5.77
X64.129 Y-5.901
X64.177 Y-6.036
X64.216 Y-6.175
X64.243 Y-6.318
X64.288 Y-6.906
X64.315 Y-7.047
X64.353 Y-7.185
X64.4 Y-7.319
X64.456 Y-7.448
X64.522 Y-7.572
X64.596 Y-7.692
X64.769 Y-7.914
X64.971 Y-8.11
X65.2 Y-8.279
X65.453 Y-8.417
X65.726 Y-8.52
X65.869 Y-8.558
X66.016 Y-8.587
X66.167 Y-8.605
X66.321 Y-8.613
X66.548 Y-8.622
X66.773 Y-8.642
X66.997 Y-8.672
X67.218 Y-8.713
X67.435 Y-8.763
X67.649 Y-8.824
X67.859 Y-8.894
X68.065 Y-8.975
X68.265 Y-9.065
X68.46 Y-9.165
X68.648 Y-9.274
X68.831 Y-9.393
X69.006 Y-9.521
X69.173 Y-9.659
X69.333 Y-9.805
X69.484 Y-9.961
X69.627 Y-10.125
X69.76 Y-10.299
X69.883 Y-10.481
X69.996 Y-10.671
X70.098 Y-10.87
X70.188 Y-11.078
X70.331 Y-11.487
X70.434 Y-11.892
X70.498 Y-12.293
X70.525 Y-12.688
X70.516 Y-13.074
X70.472 Y-13.451
X70.396 Y-13.817
X70.288 Y-14.17
X70.151 Y-14.509
X69.986 Y-14.833
X69.794 Y-15.14
X69.577 Y-15.428
X69.336 Y-15.696
X69.073 Y-15.942
X68.789 Y-16.165
X68.487 Y-16.363
X68.167 Y-16.535
X67.831 Y-16.679
X67.481 Y-16.794
X67.118 Y-16.878
X66.744 Y-16.929
X66.359 Y-16.947
X66.203 Y-16.941
X66.05 Y-16.925
X65.9 Y-16.899
X65.755 Y-16.862
X65.614 Y-16.816
X65.477 Y-16.761
X65.345 Y-16.697
X65.22 Y-16.625
X64.986 Y-16.456
X64.78 Y-16.259
X64.688 Y-16.15
X64.603 Y-16.036
X64.528 Y-15.915
X64.461 Y-15.79
X64.403 Y-15.659
X64.355 Y-15.524
X64.317 Y-15.385
X64.289 Y-15.242
X64.243 Y-14.651
X64.216 Y-14.508
X64.177 Y-14.369
X64.129 Y-14.234
X64.072 Y-14.104
X64.005 Y-13.978
X63.929 Y-13.858
X63.845 Y-13.743
X63.753 Y-13.635
X63.546 Y-13.437
X63.313 Y-13.269
X63.187 Y-13.197
X63.055 Y-13.133
X62.919 Y-13.077
X62.777 Y-13.031
X62.632 Y-12.995
X62.482 Y-12.968
X62.329 Y-12.952
X62.173 Y-12.947
X62.017 Y-12.952
X61.863 Y-12.968
X61.714 Y-12.995
X61.568 Y-13.031
X61.427 Y-13.077
X61.29 Y-13.133
X61.159 Y-13.197
X61.033 Y-13.269
X60.799 Y-13.437
X60.593 Y-13.635
X60.501 Y-13.743
X60.417 Y-13.858
X60.341 Y-13.978
X60.274 Y-14.104
X60.216 Y-14.234
X60.168 Y-14.369
X60.13 Y-14.508
X60.102 Y-14.651
X60.057 Y-15.242
X60.029 Y-15.385
X59.991 Y-15.524
X59.943 Y-15.659
X59.885 Y-15.79
X59.818 Y-15.915
X59.742 Y-16.036
X59.658 Y-16.15
X59.566 Y-16.259
X59.36 Y-16.456
X59.126 Y-16.625
X59 Y-16.697
X58.869 Y-16.761
X58.732 Y-16.816
X58.591 Y-16.862
X58.445 Y-16.899
X58.296 Y-16.925
X58.143 Y-16.941
X57.986 Y-16.947
X57.83 Y-16.941
X57.677 Y-16.925
X57.527 Y-16.899
X57.382 Y-16.862
X57.241 Y-16.816
X57.104 Y-16.761
X56.972 Y-16.697
X56.847 Y-16.625
X56.613 Y-16.456
X56.407 Y-16.259
X56.314 Y-16.15
X56.23 Y-16.036
X56.155 Y-15.915
X56.088 Y-15.79
X56.03 Y-15.659
X55.982 Y-15.524
X55.944 Y-15.385
X55.916 Y-15.242
X55.87 Y-14.651
X55.843 Y-14.508
X55.805 Y-14.369
X55.756 Y-14.234
X55.699 Y-14.104
X55.632 Y-13.978
X55.556 Y-13.858
X55.472 Y-13.743
X55.38 Y-13.635
X55.173 Y-13.437
X54.94 Y-13.269
X54.814 Y-13.197
X54.682 Y-13.133
X54.546 Y-13.077
X54.404 Y-13.031
X54.259 Y-12.995
X54.109 Y-12.968
X53.956 Y-12.952
X53.8 Y-12.947
X53.644 Y-12.952
X53.491 Y-12.968
X53.341 Y-12.995
X53.195 Y-13.031
X53.054 Y-13.077
X52.917 Y-13.133
X52.786 Y-13.197
X52.66 Y-13.269
X52.426 Y-13.437
X52.22 Y-13.635
X52.128 Y-13.743
X52.044 Y-13.858
X51.968 Y-13.978
X51.901 Y-14.104
X51.843 Y-14.234
X51.795 Y-14.369
X51.757 Y-14.508
X51.729 Y-14.651
X51.684 Y-15.242
X51.656 Y-15.385
X51.618 Y-15.524
X51.57 Y-15.659
X51.512 Y-15.79
X51.445 Y-15.915
X51.369 Y-16.036
X51.285 Y-16.15
X51.193 Y-16.259
X50.987 Y-16.456
X50.753 Y-16.625
X50.627 Y-16.697
X50.496 Y-16.761
X50.359 Y-16.816
X50.218 Y-16.862
X50.072 Y-16.899
X49.923 Y-16.925
X49.77 Y-16.941
X49.613 Y-16.947
X49.457 Y-16.941
X49.304 Y-16.925
X49.154 Y-16.899
X49.009 Y-16.862
X48.867 Y-16.816
X48.731 Y-16.761
X48.599 Y-16.697
X48.473 Y-16.625
X48.24 Y-16.456
X48.034 Y-16.259
X47.941 Y-16.15
X47.857 Y-16.036
X47.782 Y-15.915
X47.715 Y-15.79
X47.657 Y-15.659
X47.609 Y-15.524
X47.57 Y-15.385
X47.543 Y-15.242
X47.497 Y-14.651
X47.47 Y-14.508
X47.431 Y-14.369
X47.383 Y-14.234
X47.326 Y-14.104
X47.258 Y-13.978
X47.183 Y-13.858
X47.099 Y-13.743
X47.007 Y-13.635
X46.8 Y-13.437
X46.567 Y-13.269
X46.441 Y-13.197
X46.309 Y-13.133
X46.173 Y-13.077
X46.031 Y-13.031
X45.886 Y-12.995
X45.736 Y-12.968
X45.583 Y-12.952
X45.427 Y-12.947
X45.271 Y-12.952
X45.118 Y-12.968
X44.968 Y-12.995
X44.822 Y-13.031
X44.681 Y-13.077
X44.544 Y-13.133
X44.413 Y-13.197
X44.287 Y-13.269
X44.054 Y-13.437
X43.847 Y-13.635
X43.755 Y-13.743
X43.671 Y-13.858
X43.595 Y-13.978
X43.528 Y-14.104
X43.47 Y-14.234
X43.422 Y-14.369
X43.384 Y-14.508
X43.356 Y-14.651
X43.311 Y-15.242
X43.283 Y-15.385
X43.245 Y-15.524
X43.197 Y-15.659
X43.139 Y-15.79
X43.072 Y-15.915
X42.996 Y-16.036
X42.912 Y-16.15
X42.82 Y-16.259
X42.614 Y-16.456
X42.38 Y-16.625
X42.254 Y-16.697
X42.123 Y-16.761
X41.986 Y-16.816
X41.845 Y-16.862
X41.699 Y-16.899
X41.55 Y-16.925
X41.396 Y-16.941
X41.24 Y-16.947
X41.084 Y-16.941
X40.931 Y-16.925
X40.781 Y-16.899
X40.636 Y-16.862
X40.494 Y-16.816
X40.358 Y-16.761
X40.226 Y-16.697
X40.1 Y-16.625
X39.867 Y-16.456
X39.66 Y-16.259
X39.568 Y-16.15
X39.484 Y-16.036
X39.409 Y-15.915
X39.342 Y-15.79
X39.284 Y-15.659
X39.236 Y-15.524
X39.197 Y-15.385
X39.17 Y-15.242
X39.124 Y-14.651
X39.097 Y-14.508
X39.058 Y-14.369
X39.01 Y-14.234
X38.952 Y-14.104
X38.886 Y-13.978
X38.81 Y-13.858
X38.726 Y-13.743
X38.634 Y-13.635
X38.427 Y-13.437
X38.194 Y-13.269
X38.068 Y-13.197
X37.936 Y-13.133
X37.8 Y-13.077
X37.658 Y-13.031
X37.513 Y-12.995
X37.363 Y-12.968
X37.21 Y-12.952
X37.054 Y-12.947
X36.897 Y-12.952
X36.744 Y-12.968
X36.595 Y-12.995
X36.449 Y-13.031
X36.308 Y-13.077
X36.171 Y-13.133
X36.04 Y-13.197
X35.914 Y-13.269
X35.68 Y-13.437
X35.474 Y-13.635
X35.382 Y-13.743
X35.298 Y-13.858
X35.222 Y-13.978
X35.155 Y-14.104
X35.097 Y-14.234
X35.049 Y-14.369
X35.011 Y-14.508
X34.983 Y-14.651
X34.938 Y-15.242
X34.91 Y-15.385
X34.872 Y-15.524
X34.824 Y-15.659
X34.766 Y-15.79
X34.699 Y-15.915
X34.623 Y-16.036
X34.539 Y-16.15
X34.447 Y-16.259
X34.241 Y-16.456
X34.007 Y-16.625
X33.881 Y-16.697
X33.75 Y-16.761
X33.613 Y-16.816
X33.472 Y-16.862
X33.326 Y-16.899
X33.177 Y-16.925
X33.023 Y-16.941
X32.867 Y-16.947
X32.711 Y-16.941
X32.558 Y-16.925
X32.408 Y-16.899
X32.263 Y-16.862
X32.121 Y-16.816
X31.985 Y-16.761
X31.853 Y-16.697
X31.727 Y-16.625
X31.494 Y-16.456
X31.287 Y-16.259
X31.195 Y-16.15
X31.111 Y-16.036
X31.035 Y-15.915
X30.969 Y-15.79
X30.911 Y-15.659
X30.863 Y-15.524
X30.824 Y-15.385
X30.797 Y-15.242
X30.751 Y-14.651
X30.723 Y-14.508
X30.685 Y-14.369
X30.637 Y-14.234
X30.579 Y-14.104
X30.513 Y-13.978
X30.437 Y-13.858
X30.353 Y-13.743
X30.261 Y-13.635
X30.054 Y-13.437
X29.82 Y-13.269
X29.695 Y-13.197
X29.563 Y-13.133
X29.427 Y-13.077
X29.285 Y-13.031
X29.14 Y-12.995
X28.99 Y-12.968
X28.837 Y-12.952
X28.681 Y-12.947
X28.524 Y-12.952
X28.371 Y-12.968
X28.222 Y-12.995
X28.076 Y-13.031
X27.935 Y-13.077
X27.798 Y-13.133
X27.667 Y-13.197
X27.541 Y-13.269
X27.307 Y-13.437
X27.101 Y-13.635
X27.009 Y-13.743
X26.925 Y-13.858
X26.849 Y-13.978
X26.782 Y-14.104
X26.724 Y-14.234
X26.676 Y-14.369
X26.638 Y-14.508
X26.61 Y-14.651
X26.565 Y-15.242
X26.537 Y-15.385
X26.499 Y-15.524
X26.451 Y-15.659
X26.393 Y-15.79
X26.326 Y-15.915
X26.25 Y-16.036
X26.166 Y-16.15
X26.074 Y-16.259
X25.868 Y-16.456
X25.634 Y-16.625
X25.508 Y-16.697
X25.377 Y-16.761
X25.24 Y-16.816
X25.099 Y-16.862
X24.953 Y-16.899
X24.803 Y-16.925
X24.65 Y-16.941
X24.494 Y-16.947
X24.474
X24.251 Y-16.953
X24.031 Y-16.97
X23.812 Y-16.998
X23.597 Y-17.038
X23.384 Y-17.088
X23.175 Y-17.149
X22.971 Y-17.22
X22.771 Y-17.302
X22.575 Y-17.392
X22.385 Y-17.493
X22.201 Y-17.603
X22.023 Y-17.722
X21.851 Y-17.85
X21.687 Y-17.987
X21.529 Y-18.132
X21.38 Y-18.286
X21.239 Y-18.447
X21.106 Y-18.616
X20.983 Y-18.793
X20.868 Y-18.976
X20.764 Y-19.167
X20.67 Y-19.365
X20.587 Y-19.569
X20.515 Y-19.78
X20.419 Y-20.137
X20.353 Y-20.49
X20.316 Y-20.84
X20.308 Y-21.183
X20.327 Y-21.52
X20.372 Y-21.849
X20.443 Y-22.17
X20.537 Y-22.48
X20.655 Y-22.781
X20.794 Y-23.069
X20.954 Y-23.344
X21.135 Y-23.605
X21.334 Y-23.852
X21.551 Y-24.083
X21.785 Y-24.296
X22.035 Y-24.491
X22.299 Y-24.668
X22.577 Y-24.824
X22.868 Y-24.959
X23.17 Y-25.072
X23.483 Y-25.161
X23.805 Y-25.227
X24.136 Y-25.267
X24.474 Y-25.28
X24.494
X24.78 Y-25.261
X25.055 Y-25.208
X25.315 Y-25.121
X25.558 Y-25.003
X25.781 Y-24.857
X25.983 Y-24.686
X26.16 Y-24.491
X26.31 Y-24.276
X26.43 Y-24.042
X26.518 Y-23.792
X26.571 Y-23.529
X26.588 Y-23.255
X26.611 Y-22.982
X26.67 Y-22.721
X26.764 Y-22.474
X26.89 Y-22.244
X27.045 Y-22.032
X27.227 Y-21.841
X27.433 Y-21.674
X27.66 Y-21.534
X27.906 Y-21.421
X28.169 Y-21.34
X28.446 Y-21.292
X28.733 Y-21.281
X29.018 Y-21.306
X29.29 Y-21.366
X29.547 Y-21.459
X29.787 Y-21.582
X30.006 Y-21.732
X30.204 Y-21.908
X30.376 Y-22.107
X30.521 Y-22.326
X30.635 Y-22.562
X30.717 Y-22.815
X30.764 Y-23.08
X30.775 Y-23.356
X30.805 Y-23.626
X30.871 Y-23.885
X30.971 Y-24.129
X31.103 Y-24.357
X31.263 Y-24.565
X31.449 Y-24.751
X31.659 Y-24.913
X31.89 Y-25.049
X32.139 Y-25.156
X32.405 Y-25.231
X32.684 Y-25.272
X32.972 Y-25.278
X33.255 Y-25.246
X33.524 Y-25.18
X33.778 Y-25.081
X34.014 Y-24.953
X34.23 Y-24.798
X34.423 Y-24.618
X34.591 Y-24.415
X34.73 Y-24.193
X34.839 Y-23.953
X34.915 Y-23.698
X34.955 Y-23.431
X34.965 Y-23.154
X35.001 Y-22.886
X35.074 Y-22.63
X35.18 Y-22.388
X35.316 Y-22.164
X35.481 Y-21.96
X35.672 Y-21.778
X35.886 Y-21.62
X36.12 Y-21.489
X36.373 Y-21.388
X36.641 Y-21.319
X36.922 Y-21.284
X37.211 Y-21.286
X37.491 Y-21.324
X37.758 Y-21.396
X38.009 Y-21.5
X38.242 Y-21.633
X38.454 Y-21.793
X38.642 Y-21.978
X38.805 Y-22.184
X38.939 Y-22.41
X39.042 Y-22.653
X39.111 Y-22.91
X39.144 Y-23.18
X39.155 Y-23.455
X39.198 Y-23.722
X39.277 Y-23.975
X39.389 Y-24.214
X39.531 Y-24.435
X39.701 Y-24.635
X39.896 Y-24.813
X40.114 Y-24.966
X40.352 Y-25.091
X40.607 Y-25.187
X40.878 Y-25.25
X41.161 Y-25.279
X41.45 Y-25.27
X41.727 Y-25.226
X41.992 Y-25.147
X42.239 Y-25.038
X42.469 Y-24.9
X42.676 Y-24.735
X42.86 Y-24.547
X43.018 Y-24.337
X43.146 Y-24.108
X43.244 Y-23.862
X43.306 Y-23.602
X43.333 Y-23.33
X43.347 Y-23.056
X43.396 Y-22.791
X43.481 Y-22.54
X43.599 Y-22.305
X43.746 Y-22.088
X43.921 Y-21.891
X44.12 Y-21.717
X44.342 Y-21.569
X44.583 Y-21.449
X44.842 Y-21.359
X45.115 Y-21.302
X45.4 Y-21.28
X45.687 Y-21.295
X45.963 Y-21.346
X46.224 Y-21.43
X46.469 Y-21.545
X46.694 Y-21.688
X46.898 Y-21.858
X47.078 Y-22.05
X47.23 Y-22.264
X47.353 Y-22.496
X47.444 Y-22.744
X47.501 Y-23.007
X47.539 Y-23.553
X47.596 Y-23.816
X47.687 Y-24.064
X47.81 Y-24.296
X47.963 Y-24.51
X48.142 Y-24.703
X48.346 Y-24.872
X48.571 Y-25.015
X48.816 Y-25.13
X49.077 Y-25.214
X49.353 Y-25.265
X49.64 Y-25.28
X49.925 Y-25.258
X50.198 Y-25.201
X50.457 Y-25.111
X50.698 Y-24.991
X50.92 Y-24.843
X51.119 Y-24.669
X51.294 Y-24.473
X51.441 Y-24.255
X51.559 Y-24.02
X51.644 Y-23.769
X51.694 Y-23.504
X51.707 Y-23.23
X51.734 Y-22.958
X51.797 Y-22.698
X51.894 Y-22.453
X52.022 Y-22.224
X52.18 Y-22.014
X52.364 Y-21.825
X52.571 Y-21.66
X52.801 Y-21.522
X53.049 Y-21.413
X53.313 Y-21.334
X53.591 Y-21.29
X53.879 Y-21.281
X54.162 Y-21.31
X54.433 Y-21.373
X54.688 Y-21.469
X54.926 Y-21.594
X55.144 Y-21.747
X55.34 Y-21.925
X55.509 Y-22.126
X55.651 Y-22.346
X55.763 Y-22.585
X55.842 Y-22.838
X55.885 Y-23.105
X55.896 Y-23.381
X55.929 Y-23.65
X55.998 Y-23.908
X56.101 Y-24.15
X56.235 Y-24.376
X56.398 Y-24.583
X56.586 Y-24.767
X56.798 Y-24.927
X57.031 Y-25.06
X57.282 Y-25.164
X57.549 Y-25.236
X57.829 Y-25.274
X58.118 Y-25.276
X58.399 Y-25.241
X58.667 Y-25.172
X58.92 Y-25.071
X59.154 Y-24.94
X59.368 Y-24.782
X59.559 Y-24.6
X59.724 Y-24.396
X59.861 Y-24.172
X59.966 Y-23.93
X60.039 Y-23.674
X60.076 Y-23.406
X60.085 Y-23.13
X60.125 Y-22.862
X60.201 Y-22.607
X60.31 Y-22.367
X60.449 Y-22.145
X60.617 Y-21.942
X60.81 Y-21.762
X61.026 Y-21.607
X61.262 Y-21.479
X61.516 Y-21.381
X61.785 Y-21.314
X62.068 Y-21.283
X62.356 Y-21.288
X62.635 Y-21.329
X62.901 Y-21.404
X63.15 Y-21.511
X63.381 Y-21.647
X63.591 Y-21.809
X63.777 Y-21.996
X63.937 Y-22.204
X64.069 Y-22.431
X64.169 Y-22.675
X64.235 Y-22.934
X64.265 Y-23.205
X64.276 Y-23.478
X64.322 Y-23.74
X64.402 Y-23.99
X64.514 Y-24.225
X64.656 Y-24.442
X64.825 Y-24.64
X65.018 Y-24.816
X65.234 Y-24.967
X65.469 Y-25.091
X65.722 Y-25.186
X65.989 Y-25.249
X66.269 Y-25.278
X66.663 Y-25.298
X67.076 Y-25.352
X67.48 Y-25.441
X67.87 Y-25.565
X68.245 Y-25.722
X68.601 Y-25.912
X68.936 Y-26.135
X69.094 Y-26.258
X69.245 Y-26.389
X69.39 Y-26.528
X69.527 Y-26.674
X69.656 Y-26.828
X69.777 Y-26.99
X69.89 Y-27.159
X69.994 Y-27.335
X70.089 Y-27.519
X70.174 Y-27.709
X70.3 Y-28.054
X70.406 Y-28.43
X70.478 Y-28.802
X70.517 Y-29.168
X70.525 Y-29.529
X70.504 Y-29.883
X70.453 Y-30.228
X70.375 Y-30.563
X70.27 Y-30.887
X70.141 Y-31.199
X69.987 Y-31.498
X69.811 Y-31.782
X69.613 Y-32.05
X69.395 Y-32.301
X69.157 Y-32.534
X68.902 Y-32.748
X68.63 Y-32.941
X68.343 Y-33.112
X68.041 Y-33.26
X67.726 Y-33.384
X67.399 Y-33.483
X67.062 Y-33.555
X66.715 Y-33.598
X66.359 Y-33.613
X66.073 Y-33.595
X65.799 Y-33.541
X65.539 Y-33.454
X65.296 Y-33.336
X65.072 Y-33.191
X64.871 Y-33.019
X64.693 Y-32.825
X64.544 Y-32.609
X64.423 Y-32.375
X64.335 Y-32.126
X64.282 Y-31.862
X64.266 Y-31.588
X64.243 Y-31.316
X64.183 Y-31.055
X64.089 Y-30.808
X63.964 Y-30.577
X63.808 Y-30.365
X63.627 Y-30.174
X63.421 Y-30.008
X63.194 Y-29.867
X62.947 Y-29.755
X62.685 Y-29.674
X62.408 Y-29.626
X62.12 Y-29.614
X61.836 Y-29.639
X61.564 Y-29.699
X61.307 Y-29.792
X61.067 Y-29.915
X60.847 Y-30.066
X60.65 Y-30.241
X60.478 Y-30.44
X60.333 Y-30.659
X60.218 Y-30.896
X60.137 Y-31.148
X60.09 Y-31.413
X60.078 Y-31.689
X60.048 Y-31.959
X59.982 Y-32.218
X59.882 Y-32.462
X59.751 Y-32.69
X59.591 Y-32.898
X59.404 Y-33.084
X59.195 Y-33.247
X58.964 Y-33.382
X58.714 Y-33.489
X58.449 Y-33.564
X58.17 Y-33.606
X57.881 Y-33.611
X57.599 Y-33.579
X57.329 Y-33.513
X57.075 Y-33.415
X56.839 Y-33.286
X56.623 Y-33.131
X56.43 Y-32.951
X56.263 Y-32.749
X56.123 Y-32.526
X56.014 Y-32.286
X55.939 Y-32.031
X55.899 Y-31.764
X55.889 Y-31.488
X55.853 Y-31.219
X55.78 Y-30.963
X55.674 Y-30.722
X55.537 Y-30.498
X55.372 Y-30.293
X55.182 Y-30.111
X54.968 Y-29.953
X54.733 Y-29.823
X54.48 Y-29.722
X54.212 Y-29.652
X53.931 Y-29.617
X53.642 Y-29.619
X53.362 Y-29.657
X53.096 Y-29.729
X52.845 Y-29.833
X52.612 Y-29.967
X52.4 Y-30.127
X52.211 Y-30.311
X52.049 Y-30.517
X51.915 Y-30.743
X51.812 Y-30.986
X51.742 Y-31.243
X51.709 Y-31.513
X51.699 Y-31.789
X51.655 Y-32.055
X51.577 Y-32.309
X51.465 Y-32.547
X51.323 Y-32.768
X51.153 Y-32.968
X50.958 Y-33.146
X50.74 Y-33.299
X50.502 Y-33.425
X50.246 Y-33.52
X49.976 Y-33.584
X49.692 Y-33.612
X49.404 Y-33.604
X49.126 Y-33.559
X48.862 Y-33.481
X48.614 Y-33.371
X48.385 Y-33.233
X48.177 Y-33.069
X47.993 Y-32.88
X47.836 Y-32.67
X47.707 Y-32.441
X47.61 Y-32.195
X47.547 Y-31.935
X47.521 Y-31.664
X47.507 Y-31.389
X47.457 Y-31.125
X47.372 Y-30.874
X47.255 Y-30.638
X47.107 Y-30.421
X46.933 Y-30.224
X46.733 Y-30.051
X46.512 Y-29.903
X46.27 Y-29.782
X46.012 Y-29.692
X45.738 Y-29.635
X45.453 Y-29.614
X45.166 Y-29.629
X44.891 Y-29.68
X44.629 Y-29.764
X44.384 Y-29.879
X44.159 Y-30.022
X43.955 Y-30.191
X43.776 Y-30.383
X43.624 Y-30.597
X43.5 Y-30.829
X43.409 Y-31.078
X43.353 Y-31.34
X43.314 Y-31.887
X43.258 Y-32.149
X43.167 Y-32.397
X43.044 Y-32.63
X42.891 Y-32.843
X42.712 Y-33.036
X42.508 Y-33.205
X42.283 Y-33.348
X42.038 Y-33.463
X41.776 Y-33.547
X41.501 Y-33.598
X41.214 Y-33.613
X40.929 Y-33.591
X40.655 Y-33.534
X40.397 Y-33.444
X40.155 Y-33.324
X39.934 Y-33.176
X39.734 Y-33.002
X39.56 Y-32.806
X39.412 Y-32.589
X39.295 Y-32.353
X39.21 Y-32.102
X39.16 Y-31.838
X39.146 Y-31.563
X39.12 Y-31.291
X39.057 Y-31.032
X38.96 Y-30.786
X38.831 Y-30.557
X38.674 Y-30.347
X38.49 Y-30.158
X38.282 Y-29.994
X38.053 Y-29.855
X37.805 Y-29.746
X37.541 Y-29.668
X37.263 Y-29.623
X36.975 Y-29.615
X36.692 Y-29.643
X36.421 Y-29.706
X36.165 Y-29.802
X35.927 Y-29.927
X35.709 Y-30.08
X35.514 Y-30.258
X35.344 Y-30.459
X35.202 Y-30.68
X35.09 Y-30.918
X35.012 Y-31.172
X34.968 Y-31.438
X34.958 Y-31.714
X34.925 Y-31.984
X34.855 Y-32.241
X34.752 Y-32.484
X34.618 Y-32.71
X34.456 Y-32.916
X34.267 Y-33.1
X34.055 Y-33.26
X33.823 Y-33.393
X33.571 Y-33.497
X33.305 Y-33.57
X33.025 Y-33.608
X32.736 Y-33.61
X32.455 Y-33.575
X32.187 Y-33.505
X31.934 Y-33.404
X31.699 Y-33.273
X31.486 Y-33.116
X31.295 Y-32.934
X31.13 Y-32.729
X30.993 Y-32.505
X30.887 Y-32.264
X30.815 Y-32.007
X30.778 Y-31.739
X30.768 Y-31.463
X30.728 Y-31.195
X30.653 Y-30.941
X30.544 Y-30.701
X30.404 Y-30.478
X30.237 Y-30.276
X30.044 Y-30.096
X29.828 Y-29.94
X29.592 Y-29.812
X29.338 Y-29.714
X29.068 Y-29.648
X28.786 Y-29.616
X28.497 Y-29.621
X28.218 Y-29.662
X27.953 Y-29.738
X27.703 Y-29.844
X27.472 Y-29.98
X27.263 Y-30.142
X27.076 Y-30.329
X26.916 Y-30.537
X26.785 Y-30.764
X26.685 Y-31.009
X26.619 Y-31.267
X26.589 Y-31.538
X26.577 Y-31.813
X26.531 Y-32.079
X26.449 Y-32.331
X26.334 Y-32.568
X26.189 Y-32.787
X26.017 Y-32.986
X25.82 Y-33.161
X25.6 Y-33.312
X25.36 Y-33.435
X25.103 Y-33.528
X24.831 Y-33.588
X24.547 Y-33.613
X24.259 Y-33.601
X23.983 Y-33.553
X23.72 Y-33.472
X23.473 Y-33.36
X23.246 Y-33.219
X23.04 Y-33.052
X22.859 Y-32.862
X22.704 Y-32.65
X22.578 Y-32.419
X22.484 Y-32.172
X22.424 Y-31.911
X22.401 Y-31.639
X22.385 Y-31.364
X22.332 Y-31.101
X22.244 Y-30.851
X22.123 Y-30.618
X21.973 Y-30.402
X21.796 Y-30.208
X21.595 Y-30.036
X21.371 Y-29.89
X21.128 Y-29.773
X20.868 Y-29.686
X20.594 Y-29.632
X20.308 Y-29.613
X20.297
X20.092 Y-29.607
X19.89 Y-29.586
X19.692 Y-29.552
X19.5 Y-29.506
X19.312 Y-29.448
X19.129 Y-29.378
X18.953 Y-29.296
X18.783 Y-29.204
X18.62 Y-29.101
X18.464 Y-28.988
X18.316 Y-28.866
X18.176 Y-28.735
X18.045 Y-28.595
X17.922 Y-28.447
X17.809 Y-28.291
X17.707 Y-28.128
X17.614 Y-27.958
X17.533 Y-27.781
X17.463 Y-27.599
X17.404 Y-27.411
X17.358 Y-27.218
X17.324 Y-27.021
X17.304 Y-26.819
X17.297 Y-26.613
Y-24.113
X17.29 Y-23.908
X17.27 Y-23.706
X17.236 Y-23.509
X17.19 Y-23.316
X17.132 Y-23.128
X17.061 Y-22.946
X16.98 Y-22.769
X16.888 Y-22.599
X16.785 Y-22.436
X16.672 Y-22.28
X16.55 Y-22.132
X16.418 Y-21.992
X16.278 Y-21.861
X16.13 Y-21.739
X15.974 Y-21.626
X15.811 Y-21.523
X15.641 Y-21.431
X15.465 Y-21.349
X15.283 Y-21.279
X15.095 Y-21.221
X14.902 Y-21.174
X14.704 Y-21.141
X14.502 Y-21.12
X14.297 Y-21.113
X2.127
Z5
G0 Y-25.113
G1 Z0 F381
Z5
G0 Z15
M9
G28 G91 Z0
G90
G28 G91 X0 Y0
G90
M5
M30
