%
(1001)
(T1  D=1.587 CR=0.381 - ZMIN=0 - bullnose end mill)
G90 G94
G17
G21
G28 G91 Z0
G90

(2D Pocket3)
M9
T1 M6
S10000 M3
G54
M8
G0 X46.77 Y-20.031
Z16
Z6
G1 Z3.5 F381
Z0 F762
X46.871 F381
G3 X45.986 I-0.443
X47.655 I0.835
X45.201 I-1.227
X48.44 I1.619
X44.417 I-2.011
X49.224 I2.403
X43.633 I-2.796
X50.008 I3.188
X42.849 I-3.58
X50.792 I3.972
X42.064 I-4.364
X51.577 I4.756
X41.28 I-5.148
X52.361 I5.54
X40.496 I-5.932
X53.145 I6.325
X39.712 I-6.717
X53.929 I7.109
X38.928 I-7.501
X54.714 I7.893
X38.143 I-8.285
X55.498 I8.677
X37.359 I-9.069
X56.282 I9.461
X36.575 I-9.854
X57.066 I10.246
X35.791 I-10.638
X57.85 I11.03
X35.006 I-11.422
X58.635 I11.814
X34.222 I-12.206
X58.635 I12.206
G0 Z16

(Trace9)
X16.327 Y-17.007
Z16
Z5
G1 Z0 F381
X23.477
Z5
G0 Z6
Y-18.507
Z5
G1 Z0 F381
Y-15.507
Z5
G0 Z6
X26.977
Z5
G1 Z0 F381
Y-18.507
Z5
G0 Z6
Y-17.007
Z5
G1 Z0 F381
X34.3
Z5
G0 Z6
X34.086 Y-22.007
Z5
G1 Z0 F381
X16.327
Z5
G0 Z16
M9
G28 G91 Z0
G90
G28 G91 X0 Y0
G90
M30
%
