%
(1001)
(T1  D=1.587 CR=0.381 - ZMIN=0 - bullnose end mill)
G90 G94
G17
G21
G28 G91 Z0
G90

(2D Pocket1)
M9
T1 M6
S10000 M3
G54
M8
G0 X56.246 Y-26.688
Z16
Z6
G1 Z3.5 F381
Z0 F762
X17.408 F381
X17.354 Y-26.694
X17.303 Y-26.713
X17.028 Y-26.851
G3 Y-27.149 I0.075 J-0.149
G1 X17.303 Y-27.287
X17.354 Y-27.306
X17.408 Y-27.312
X56.264
X56.318 Y-27.306
X56.369 Y-27.287
X56.645 Y-27.149
G3 Y-26.851 I-0.075 J0.149
G1 X56.369 Y-26.713
X56.318 Y-26.694
X56.264 Y-26.688
X56.246
G2 X55.873 Y-26.439 J0.404
G3 X55.5 Y-26.191 I-0.373 J-0.155
G1 X17.414
G3 X17.076 Y-26.27 J-0.754
G1 X15.915 Y-26.851
G3 Y-27.149 I0.075 J-0.149
G1 X17.076 Y-27.73
G3 X17.414 Y-27.809 I0.337 J0.675
G1 X56.259
G3 X56.596 Y-27.73 J0.754
G1 X57.757 Y-27.149
G3 Y-26.851 I-0.075 J0.149
G1 X56.596 Y-26.27
G3 X56.259 Y-26.191 I-0.337 J-0.675
G1 X55.5
G2 X55.127 Y-25.942 J0.404
G3 X54.754 Y-25.693 I-0.373 J-0.155
G1 X17.356
G3 X16.905 Y-25.8 J-1.007
G1 X14.803 Y-26.851
G3 Y-27.149 I0.075 J-0.149
G1 X16.905 Y-28.2
G3 X17.356 Y-28.307 I0.451 J0.901
G1 X56.317
G3 X56.767 Y-28.2 J1.007
G1 X58.869 Y-27.149
G3 Y-26.851 I-0.075 J0.149
G1 X56.767 Y-25.8
G3 X56.317 Y-25.693 I-0.451 J-0.901
G1 X54.754
G2 X54.381 Y-25.445 J0.404
G3 X54.008 Y-25.196 I-0.373 J-0.155
G1 X17.424
G3 X16.622 Y-25.386 J-1.795
G1 X13.691 Y-26.851
G3 Y-27.149 I0.075 J-0.149
G1 X16.622 Y-28.614
G3 X17.424 Y-28.804 I0.803 J1.605
G1 X56.248
G3 X57.051 Y-28.614 J1.795
G1 X59.981 Y-27.149
G3 Y-26.851 I-0.075 J0.149
G1 X57.051 Y-25.386
G3 X56.248 Y-25.196 I-0.803 J-1.605
G1 X54.008
G2 X53.631 Y-24.945 J0.408
G3 X53.255 Y-24.694 I-0.377 J-0.157
G1 X16.882
X12.27 Y-27
X16.882 Y-29.306
X56.791
X61.403 Y-27
X56.791 Y-24.694
X53.255
G0 Z16

(2D Pocket2)
X56.354 Y-12.312
Z16
Z6
G1 Z3.5 F381
Z0 F762
X56.372 F381
X56.426 Y-12.306
X56.478 Y-12.287
X56.753 Y-12.149
G3 Y-11.851 I-0.075 J0.149
G1 X56.478 Y-11.713
X56.426 Y-11.694
X56.372 Y-11.688
X17.517
X17.463 Y-11.694
X17.411 Y-11.713
X17.136 Y-11.851
G3 Y-12.149 I0.075 J-0.149
G1 X17.411 Y-12.287
X17.463 Y-12.306
X17.517 Y-12.312
X56.354
G2 X56.687 Y-12.475 J-0.419
G3 X57.047 Y-12.558 I0.231 J0.178
G1 X57.865 Y-12.149
G3 Y-11.851 I-0.075 J0.149
G1 X56.705 Y-11.27
G3 X56.367 Y-11.191 I-0.337 J-0.675
G1 X17.522
G3 X17.184 Y-11.27 J-0.754
G1 X16.024 Y-11.851
G3 Y-12.149 I0.075 J-0.149
G1 X17.184 Y-12.73
G3 X17.522 Y-12.809 I0.337 J0.675
G1 X56.367
G3 X56.705 Y-12.73 J0.754
G1 X57.047 Y-12.558
G2 X57.492 Y-12.614 I0.181 J-0.361
G3 X57.937 Y-12.669 I0.264 J0.306
G1 X58.977 Y-12.149
G3 Y-11.851 I-0.075 J0.149
G1 X56.875 Y-10.8
G3 X56.425 Y-10.693 I-0.451 J-0.901
G1 X17.464
G3 X17.014 Y-10.8 J-1.007
G1 X14.912 Y-11.851
G3 Y-12.149 I0.075 J-0.149
G1 X17.014 Y-13.2
G3 X17.464 Y-13.307 I0.451 J0.901
G1 X56.425
G3 X56.875 Y-13.2 J1.007
G1 X57.937 Y-12.669
G2 X58.382 Y-12.725 I0.181 J-0.361
G3 X58.827 Y-12.781 I0.264 J0.306
G1 X60.09 Y-12.149
G3 Y-11.851 I-0.075 J0.149
G1 X57.159 Y-10.386
G3 X56.356 Y-10.196 I-0.803 J-1.605
G1 X17.533
G3 X16.73 Y-10.386 J-1.795
G1 X13.799 Y-11.851
G3 Y-12.149 I0.075 J-0.149
G1 X16.73 Y-13.614
G3 X17.533 Y-13.804 I0.803 J1.605
G1 X56.356
G3 X57.159 Y-13.614 J1.795
G1 X58.827 Y-12.781
G2 X59.276 Y-12.837 I0.183 J-0.365
G3 X59.725 Y-12.893 I0.267 J0.309
G1 X61.511 Y-12
X56.899 Y-9.694
X16.99
X12.378 Y-12
X16.99 Y-14.306
X56.899
X59.725 Y-12.893
G0 Z16
M9
G28 G91 Z0
G90
G28 G91 X0 Y0
G90
M30
%
