%
(1001)
(T1  D=1.587 CR=0.381 - ZMIN=0 - bullnose end mill)
G90 G94
G17
G21
G28 G91 Z0
G90

(2D Pocket4)
M9
T1 M6
S10000 M3
G54
M8
G0 X44.747 Y-18.902
Z16
Z6
G1 Z3.5 F381
Z0 F762
X44.755 Y-18.886 F381
X44.769 Y-18.846
Y-18.803
X44.755 Y-18.763
X44.658 Y-18.582
X44.437 Y-18.641
G2 Y-19.007 I-5.933 J-0.183
G1 X44.658 Y-19.066
X44.747 Y-18.902
X44.781 Y-18.854
X44.826 Y-18.816
X44.879 Y-18.79
X44.936 Y-18.778
X44.98 Y-18.767
X45.017 Y-18.743
X45.044 Y-18.708
X45.059 Y-18.666
Y-18.621
X45.045 Y-18.579
X44.459 Y-17.491
X44.43 Y-17.449
X44.394 Y-17.414
X44.35 Y-17.389
X44.302 Y-17.372
X44.252 Y-17.367
G3 X43.977 Y-17.665 I-0.033 J-0.245
G2 Y-19.983 I-5.473 J-1.159
G3 X44.219 Y-20.281 I0.242 J-0.051
X44.459 Y-20.158 I0.031 J0.234
G1 X45.069 Y-19.024
G3 Y-18.624 I-0.372 J0.2
G1 X45.045 Y-18.579
G2 X45.092 Y-18.074 I0.402 J0.217
G3 X45.14 Y-17.57 I-0.355 J0.288
G1 X44.917 Y-17.155
G3 X44.331 Y-16.805 I-0.587 J-0.316
G1 X43.429
G3 X43.229 Y-17.092 J-0.214
G2 Y-20.557 I-4.724 J-1.733
G3 X43.429 Y-20.844 I0.201 J-0.074
G1 X44.331
G3 X44.917 Y-20.493 J0.666
G1 X45.614 Y-19.199
G3 Y-18.449 I-0.697 J0.375
G1 X45.14 Y-17.57
G2 X45.188 Y-17.088 I0.382 J0.205
G3 X45.231 Y-16.605 I-0.328 J0.272
X44.652 Y-16.267 I-0.58 J-0.328
G1 X42.551
G3 X42.383 Y-16.547 J-0.19
G1 X42.469 Y-16.696
G2 X42.467 Y-20.956 I-3.964 J-2.128
G1 X42.383 Y-21.101
G3 X42.551 Y-21.381 I0.167 J-0.09
G1 X44.652
G3 X45.238 Y-21.031 J0.666
G1 X46.224 Y-19.199
G3 Y-18.449 I-0.697 J0.375
G1 X45.238 Y-16.618
X45.231 Y-16.605
G2 X45.282 Y-16.187 I0.309 J0.175
G3 X45.18 Y-15.778 I-0.183 J0.172
G1 X45.11 Y-15.759
X45.038 Y-15.747
X44.965 Y-15.743
X41.674
G3 X41.507 Y-16.023 J-0.19
X41.769 Y-16.477 I7.396 J3.97
G2 X42.031 Y-16.931 I-7.134 J-4.424
X42.029 Y-20.721 I-3.527 J-1.893
X41.767 Y-21.173 I-7.371 J3.966
G3 X41.505 Y-21.626 I7.109 J-4.418
X41.673 Y-21.906 I0.167 J-0.09
G1 X44.965
G3 X45.552 Y-21.555 J0.666
G1 X46.819 Y-19.199
G3 Y-18.449 I-0.697 J0.375
G1 X45.552 Y-16.093
G3 X45.18 Y-15.778 I-0.587 J-0.316
G2 X44.858 Y-15.47 I0.17 J0.499
G3 X44.491 Y-15.218 I-0.367 J-0.142
G1 X40.797
G3 X40.63 Y-15.498 J-0.19
X41.105 Y-16.336 I18.151 J9.743
G2 X41.58 Y-17.173 I-17.675 J-10.581
X41.578 Y-20.478 I-3.075 J-1.651
X41.103 Y-21.314 I-18.101 J9.738
G3 X40.628 Y-22.15 I17.625 J-10.574
X40.795 Y-22.43 I0.167 J-0.09
G1 X45.278
G3 X45.865 Y-22.08 J0.666
G1 X47.415 Y-19.199
G3 Y-18.449 I-0.697 J0.375
G1 X45.865 Y-15.569
G3 X45.278 Y-15.218 I-0.587 J-0.316
G1 X44.491
G2 X44.098 Y-14.956 J0.426
G3 X43.704 Y-14.694 I-0.393 J-0.164
G1 X39.921
G3 X39.753 Y-14.974 J-0.19
X41.096 Y-17.43 I158.987 J85.343
G2 X41.117 Y-20.229 I-2.547 J-1.418
X40.433 Y-21.452 I-38.385 J20.651
G3 X39.75 Y-22.675 I37.701 J-21.873
X39.917 Y-22.955 I0.167 J-0.09
G1 X45.592
G3 X46.178 Y-22.604 J0.666
G1 X48.01 Y-19.199
G3 Y-18.449 I-0.697 J0.375
G1 X46.178 Y-15.044
G3 X45.592 Y-14.694 I-0.587 J-0.316
G1 X43.704
G2 X43.311 Y-14.432 J0.426
G3 X42.918 Y-14.169 I-0.393 J-0.164
G1 X39.044
G3 X38.876 Y-14.449 J-0.19
G1 X40.656 Y-17.669
G2 X40.655 Y-19.981 I-2.151 J-1.155
X39.763 Y-21.59 I-66.206 J35.619
G3 X38.872 Y-23.199 I65.315 J-37.228
X39.04 Y-23.479 I0.167 J-0.09
G1 X45.905
G3 X46.492 Y-23.129 J0.666
G1 X48.606 Y-19.199
G3 Y-18.449 I-0.697 J0.375
G1 X46.492 Y-14.52
G3 X45.905 Y-14.169 I-0.587 J-0.316
G1 X42.918
G2 X42.524 Y-13.907 J0.426
G3 X42.131 Y-13.645 I-0.393 J-0.164
G1 X38.167
G3 X37.999 Y-13.925 J-0.19
X39.097 Y-15.921 I101.59 J54.533
G2 X40.194 Y-17.917 I-100.492 J-56.529
X40.193 Y-19.733 I-1.689 J-0.907
G1 X37.995 Y-23.723
G3 X38.162 Y-24.004 I0.167 J-0.09
G1 X46.219
G3 X46.805 Y-23.653 J0.666
G1 X49.201 Y-19.199
G3 Y-18.449 I-0.697 J0.375
G1 X46.805 Y-13.995
G3 X46.219 Y-13.645 I-0.587 J-0.316
G1 X42.131
G2 X41.738 Y-13.383 J0.426
G3 X41.344 Y-13.12 I-0.393 J-0.164
G1 X37.29
G3 X37.123 Y-13.401 J-0.19
G1 X39.732 Y-18.166
G2 X39.731 Y-19.484 I-1.227 J-0.659
G1 X37.117 Y-24.248
G3 X37.284 Y-24.528 I0.167 J-0.09
G1 X46.532
G3 X47.118 Y-24.178 J0.666
G1 X49.797 Y-19.199
G3 Y-18.449 I-0.697 J0.375
G1 X47.118 Y-13.471
G3 X46.532 Y-13.12 I-0.587 J-0.316
G1 X41.344
G2 X40.951 Y-12.858 J0.426
G3 X40.558 Y-12.596 I-0.393 J-0.164
G1 X36.414
G3 X36.246 Y-12.876 J-0.19
G1 X39.269 Y-18.414
G2 Y-19.236 I-0.765 J-0.411
G1 X36.239 Y-24.772
G3 X36.407 Y-25.052 I0.167 J-0.09
G1 X46.845
G3 X47.432 Y-24.702 J0.666
G1 X50.393 Y-19.199
G3 Y-18.449 I-0.697 J0.375
G1 X47.432 Y-12.946
G3 X46.845 Y-12.596 I-0.587 J-0.316
G1 X40.558
G2 X40.16 Y-12.331 J0.43
G3 X39.763 Y-12.066 I-0.397 J-0.165
G1 X35.21
X38.763 Y-18.685
G2 Y-18.963 I-0.259 J-0.139
G1 X35.202 Y-25.582
X47.56
X51.195 Y-18.824
X47.56 Y-12.066
X39.763
G0 Z6
X26.574 Y-18.747
G1 Z3.5 F762
Z0
X26.485 Y-18.582 F381
X26.264 Y-18.641
G2 Y-19.007 I-5.933 J-0.183
G1 X26.485 Y-19.066
X26.582 Y-18.886
X26.596 Y-18.846
Y-18.803
X26.582 Y-18.763
X26.574 Y-18.747
G2 X26.603 Y-18.441 I0.244 J0.131
G3 X26.632 Y-18.134 I-0.215 J0.175
G1 X26.286 Y-17.491
X26.257 Y-17.449
X26.22 Y-17.414
X26.177 Y-17.389
X26.129 Y-17.372
X26.078 Y-17.367
G3 X25.804 Y-17.665 I-0.032 J-0.246
G2 Y-19.983 I-5.473 J-1.159
G3 X26.046 Y-20.281 I0.242 J-0.051
X26.286 Y-20.158 I0.031 J0.234
G1 X26.895 Y-19.024
G3 Y-18.624 I-0.372 J0.2
G1 X26.632 Y-18.134
G2 X26.686 Y-17.63 I0.395 J0.213
G3 X26.726 Y-17.125 I-0.329 J0.281
X26.157 Y-16.805 I-0.569 J-0.345
G1 X25.256
G3 X25.055 Y-17.092 J-0.214
G2 Y-20.557 I-4.724 J-1.733
G3 X25.256 Y-20.844 I0.201 J-0.074
G1 X26.157
G3 X26.744 Y-20.493 J0.666
G1 X27.44 Y-19.199
G3 Y-18.449 I-0.696 J0.375
G1 X26.744 Y-17.155
X26.726 Y-17.125
G2 X26.767 Y-16.699 I0.306 J0.186
G3 X26.644 Y-16.288 I-0.185 J0.168
G1 X26.562 Y-16.272
X26.478 Y-16.267
X24.378
G3 X24.21 Y-16.547 J-0.19
G1 X24.296 Y-16.696
G2 X24.294 Y-20.956 I-3.964 J-2.128
G3 X24.123 Y-21.21 I0.042 J-0.213
X24.377 Y-21.381 I0.213 J0.042
G1 X26.478
G3 X27.065 Y-21.031 J0.666
G1 X28.05 Y-19.199
G3 Y-18.449 I-0.696 J0.375
G1 X27.065 Y-16.618
G3 X26.644 Y-16.288 I-0.587 J-0.316
G2 X26.309 Y-15.993 I0.123 J0.477
G3 X25.94 Y-15.743 I-0.369 J-0.147
G1 X23.501
G3 X23.333 Y-16.023 J-0.19
X23.596 Y-16.477 I7.396 J3.97
G2 X23.858 Y-16.931 I-7.134 J-4.424
X23.856 Y-20.721 I-3.527 J-1.893
X23.594 Y-21.173 I-7.371 J3.966
G3 X23.332 Y-21.626 I7.109 J-4.418
X23.499 Y-21.906 I0.167 J-0.09
G1 X26.792
G3 X27.378 Y-21.555 J0.666
G1 X28.646 Y-19.199
G3 Y-18.449 I-0.696 J0.375
G1 X27.378 Y-16.093
G3 X26.792 Y-15.743 I-0.587 J-0.316
G1 X25.94
G2 X25.546 Y-15.48 J0.426
G3 X25.153 Y-15.218 I-0.393 J-0.164
G1 X22.624
G3 X22.456 Y-15.498 J-0.19
X22.931 Y-16.336 I18.151 J9.743
G2 X23.407 Y-17.173 I-17.675 J-10.581
X23.405 Y-20.478 I-3.075 J-1.651
X22.93 Y-21.314 I-18.101 J9.738
G3 X22.454 Y-22.15 I17.625 J-10.574
X22.622 Y-22.43 I0.167 J-0.09
G1 X27.105
G3 X27.691 Y-22.08 J0.666
G1 X29.241 Y-19.199
G3 Y-18.449 I-0.696 J0.375
G1 X27.691 Y-15.569
G3 X27.105 Y-15.218 I-0.587 J-0.316
G1 X25.153
G2 X24.76 Y-14.956 J0.426
G3 X24.366 Y-14.694 I-0.393 J-0.164
G1 X21.747
G3 X21.58 Y-14.974 J-0.19
X22.923 Y-17.43 I158.987 J85.343
G2 X22.943 Y-20.229 I-2.547 J-1.418
X22.26 Y-21.452 I-38.385 J20.651
G3 X21.577 Y-22.675 I37.701 J-21.873
X21.744 Y-22.955 I0.167 J-0.09
G1 X27.418
G3 X28.005 Y-22.604 J0.666
G1 X29.837 Y-19.199
G3 Y-18.449 I-0.696 J0.375
G1 X28.005 Y-15.044
G3 X27.418 Y-14.694 I-0.587 J-0.316
G1 X24.366
G2 X23.973 Y-14.432 J0.426
G3 X23.58 Y-14.169 I-0.393 J-0.164
G1 X20.87
G3 X20.703 Y-14.449 J-0.19
G1 X22.482 Y-17.669
G2 X22.481 Y-19.981 I-2.151 J-1.155
G1 X20.699 Y-23.199
G3 X20.866 Y-23.479 I0.167 J-0.09
G1 X27.732
G3 X28.318 Y-23.129 J0.666
G1 X30.432 Y-19.199
G3 Y-18.449 I-0.696 J0.375
G1 X28.318 Y-14.52
G3 X27.732 Y-14.169 I-0.587 J-0.316
G1 X23.58
G2 X23.186 Y-13.907 J0.426
G3 X22.793 Y-13.645 I-0.393 J-0.164
G1 X19.994
G3 X19.826 Y-13.925 J-0.19
G1 X22.02 Y-17.917
G2 X22.019 Y-19.733 I-1.689 J-0.907
X20.92 Y-21.728 I-101.567 J54.643
G3 X19.821 Y-23.723 I100.467 J-56.638
X19.989 Y-24.004 I0.167 J-0.09
G1 X28.045
G3 X28.632 Y-23.653 J0.666
G1 X31.028 Y-19.199
G3 Y-18.449 I-0.696 J0.375
G1 X28.632 Y-13.995
G3 X28.045 Y-13.645 I-0.587 J-0.316
G1 X22.793
G2 X22.399 Y-13.383 J0.426
G3 X22.006 Y-13.12 I-0.393 J-0.164
G1 X19.117
G3 X18.949 Y-13.401 J-0.19
G1 X21.558 Y-18.166
G2 Y-19.484 I-1.227 J-0.659
X20.251 Y-21.866 I-144.465 J77.722
G3 X18.943 Y-24.248 I143.158 J-80.104
X19.111 Y-24.528 I0.167 J-0.09
G1 X28.358
G3 X28.945 Y-24.178 J0.666
G1 X31.624 Y-19.199
G3 Y-18.449 I-0.696 J0.375
G1 X28.945 Y-13.471
G3 X28.358 Y-13.12 I-0.587 J-0.316
G1 X22.006
G2 X21.613 Y-12.858 J0.426
G3 X21.219 Y-12.596 I-0.393 J-0.164
G1 X18.24
G3 X18.073 Y-12.876 J-0.19
G1 X21.096 Y-18.414
G2 Y-19.236 I-0.765 J-0.411
X19.581 Y-22.004 I-194.901 J104.856
G3 X18.066 Y-24.772 I193.386 J-107.625
X18.233 Y-25.052 I0.167 J-0.09
G1 X28.672
G3 X29.258 Y-24.702 J0.666
G1 X32.219 Y-19.199
G3 Y-18.449 I-0.696 J0.375
G1 X29.258 Y-12.946
G3 X28.672 Y-12.596 I-0.587 J-0.316
G1 X21.219
G2 X20.822 Y-12.331 J0.43
G3 X20.425 Y-12.066 I-0.397 J-0.165
G1 X17.037
X20.59 Y-18.685
G2 Y-18.963 I-0.259 J-0.139
G1 X17.029 Y-25.582
X29.386
X33.022 Y-18.824
X29.386 Y-12.066
X20.425
G0 Z6
X62.419 Y-18.824
G1 Z3.5 F762
Z0
X62.416 Y-19.007 F381
X62.637 Y-19.066
X62.734 Y-18.886
X62.748 Y-18.846
Y-18.803
X62.734 Y-18.763
X62.637 Y-18.582
X62.416 Y-18.641
X62.419 Y-18.824
G2 X62.242 Y-19.084 I-0.28
G3 X62.054 Y-19.336 I0.111 J-0.279
G2 X61.956 Y-19.983 I-5.571 J0.511
G3 X62.198 Y-20.281 I0.242 J-0.051
X62.437 Y-20.158 I0.032 J0.233
G1 X63.047 Y-19.024
G3 Y-18.624 I-0.372 J0.2
G1 X62.437 Y-17.491
X62.409 Y-17.449
X62.372 Y-17.414
X62.329 Y-17.389
X62.281 Y-17.372
X62.23 Y-17.367
G3 X61.956 Y-17.665 I-0.032 J-0.246
G2 X62.054 Y-19.336 I-5.473 J-1.159
X61.717 Y-19.74 I-0.461 J0.042
G3 X61.347 Y-20.114 I0.142 J-0.51
G2 X61.207 Y-20.557 I-4.864 J1.29
G3 X61.408 Y-20.844 I0.201 J-0.074
G1 X62.309
G3 X62.896 Y-20.493 J0.666
G1 X63.592 Y-19.199
G3 Y-18.449 I-0.697 J0.375
G1 X62.896 Y-17.155
G3 X62.309 Y-16.805 I-0.587 J-0.316
G1 X61.408
G3 X61.207 Y-17.092 J-0.214
G2 X61.347 Y-20.114 I-4.724 J-1.733
X60.967 Y-20.438 I-0.424 J0.112
G3 X60.561 Y-20.727 I0.051 J-0.503
G2 X60.446 Y-20.956 I-4.078 J1.903
G1 X60.362 Y-21.101
G3 X60.529 Y-21.381 I0.167 J-0.09
G1 X62.63
G3 X63.217 Y-21.031 J0.666
G1 X64.202 Y-19.199
G3 Y-18.449 I-0.697 J0.375
G1 X63.217 Y-16.618
G3 X62.63 Y-16.267 I-0.587 J-0.316
G1 X60.529
G3 X60.362 Y-16.547 J-0.19
G1 X60.446 Y-16.692
G2 X60.561 Y-20.727 I-3.963 J-2.132
X60.161 Y-20.96 I-0.368 J0.171
G3 X59.749 Y-21.168 I-0.035 J-0.443
G1 X59.746 Y-21.173
G3 X59.484 Y-21.626 I7.109 J-4.418
X59.651 Y-21.906 I0.167 J-0.09
G1 X62.943
G3 X63.53 Y-21.555 J0.666
G1 X64.798 Y-19.199
G3 Y-18.449 I-0.697 J0.375
G1 X63.53 Y-16.093
G3 X62.943 Y-15.743 I-0.587 J-0.316
G1 X59.651
G3 X59.484 Y-16.023 J-0.19
X59.746 Y-16.475 I7.371 J3.966
G2 X60.008 Y-16.928 I-7.109 J-4.418
Y-20.721 I-3.525 J-1.896
X59.749 Y-21.168 I-7.371 J3.966
X59.343 Y-21.358 I-0.348 J0.216
G3 X58.94 Y-21.554 I-0.056 J-0.397
X58.606 Y-22.15 I17.767 J-10.334
X58.774 Y-22.43 I0.167 J-0.09
G1 X63.257
G3 X63.843 Y-22.08 J0.666
G1 X65.393 Y-19.199
G3 Y-18.449 I-0.697 J0.375
G1 X63.843 Y-15.569
G3 X63.257 Y-15.218 I-0.587 J-0.316
G1 X58.774
G3 X58.606 Y-15.498 J-0.19
X59.082 Y-16.334 I18.101 J9.738
G2 X59.557 Y-17.17 I-17.625 J-10.574
Y-20.478 I-3.074 J-1.654
X59.082 Y-21.314 I-18.101 J9.738
G3 X58.94 Y-21.554 I17.625 J-10.574
G2 X58.53 Y-21.755 I-0.356 J0.207
G3 X58.122 Y-21.96 I-0.053 J-0.404
X57.729 Y-22.675 I37.991 J-21.365
X57.896 Y-22.955 I0.167 J-0.09
G1 X63.57
G3 X64.157 Y-22.604 J0.666
G1 X65.989 Y-19.199
G3 Y-18.449 I-0.697 J0.375
G1 X64.157 Y-15.044
G3 X63.57 Y-14.694 I-0.587 J-0.316
G1 X57.896
G3 X57.729 Y-14.974 J-0.19
X59.074 Y-17.43 I162.445 J87.395
G2 X59.095 Y-20.229 I-2.545 J-1.419
X58.412 Y-21.452 I-38.385 J20.651
G3 X58.122 Y-21.96 I37.701 J-21.873
G2 X57.71 Y-22.17 I-0.363 J0.204
G3 X57.298 Y-22.38 I-0.05 J-0.41
X56.851 Y-23.199 I65.759 J-36.439
X57.018 Y-23.479 I0.167 J-0.09
G1 X63.884
G3 X64.47 Y-23.129 J0.666
G1 X66.584 Y-19.199
G3 Y-18.449 I-0.697 J0.375
G1 X64.47 Y-14.52
G3 X63.884 Y-14.169 I-0.587 J-0.316
G1 X57.018
G3 X56.851 Y-14.449 J-0.19
G1 X58.633 Y-17.667
G2 Y-19.981 I-2.15 J-1.157
X57.742 Y-21.59 I-66.206 J35.619
G3 X57.298 Y-22.38 I65.315 J-37.228
G2 X56.885 Y-22.593 I-0.367 J0.203
G3 X56.472 Y-22.806 I-0.048 J-0.414
X55.973 Y-23.723 I101.068 J-55.56
X56.14 Y-24.004 I0.167 J-0.09
G1 X64.197
G3 X64.784 Y-23.653 J0.666
G1 X67.18 Y-19.199
G3 Y-18.449 I-0.697 J0.375
G1 X64.784 Y-13.995
G3 X64.197 Y-13.645 I-0.587 J-0.316
G1 X56.14
G3 X55.973 Y-13.925 J-0.19
G1 X58.171 Y-17.916
G2 Y-19.733 I-1.688 J-0.908
X57.072 Y-21.728 I-101.567 J54.643
G3 X56.472 Y-22.806 I100.467 J-56.638
G2 X56.058 Y-23.022 I-0.369 J0.203
G3 X55.644 Y-23.238 I-0.046 J-0.417
X55.095 Y-24.248 I143.917 J-78.732
X55.263 Y-24.528 I0.167 J-0.09
G1 X64.51
G3 X65.097 Y-24.178 J0.666
G1 X67.775 Y-19.199
G3 Y-18.449 I-0.697 J0.375
G1 X65.097 Y-13.471
G3 X64.51 Y-13.12 I-0.587 J-0.316
G1 X55.263
G3 X55.095 Y-13.4 J-0.19
G1 X57.709 Y-18.164
G2 Y-19.484 I-1.226 J-0.66
X56.402 Y-21.866 I-144.465 J77.722
G3 X55.644 Y-23.238 I143.158 J-80.104
G2 X55.233 Y-23.452 I-0.366 J0.2
G3 X54.822 Y-23.667 I-0.044 J-0.415
G1 X54.218 Y-24.772
G3 X54.385 Y-25.052 I0.167 J-0.09
G1 X64.824
G3 X65.41 Y-24.702 J0.666
G1 X68.371 Y-19.199
G3 Y-18.449 I-0.697 J0.375
G1 X65.41 Y-12.946
G3 X64.824 Y-12.596 I-0.587 J-0.316
G1 X54.385
G3 X54.218 Y-12.876 J-0.19
X55.733 Y-15.644 I194.901 J104.856
G2 X57.248 Y-18.413 I-193.386 J-107.625
Y-19.236 I-0.765 J-0.411
G1 X54.822 Y-23.667
G2 X54.395 Y-23.894 I-0.385 J0.211
G3 X53.967 Y-24.12 I-0.045 J-0.432
G1 X53.181 Y-25.582
X65.538
X69.174 Y-18.824
X65.538 Y-12.066
X53.181
X56.742 Y-18.685
G2 Y-18.963 I-0.259 J-0.139
G1 X53.967 Y-24.12
G0 Z16

(Trace10)
X5.104 Y-3.773
Z16
Z5
G1 Z0 F381
X48.023
X52.689 Y-11.773
X56.483 Y-18.824
X52.689 Y-25.876
X65.714
X69.507 Y-18.824
X65.714 Y-11.773
X52.689
Z5
G0 Z16

(Trace11)
X34.719 Y-11.773
Z16
Z5
G1 Z0 F381
X38.505 Y-18.824
X34.711 Y-25.876
Z5
G0 Z6
X34.719
Z5
G1 Z0 F381
X47.735
X51.529 Y-18.824
X47.735 Y-11.773
X34.719
X32.545 Y-7.773
X5.104
Z5
G0 Z16

(Trace14)
X47.788 Y-34.214
Z16
Z5
G1 Z0 F381
X48.585 Y-32.778
X47.456 Y-32.127
Z5
G0 Z6
X29.914 Y-34.214
Z5
G1 Z0 F381
X30.724 Y-32.811
X29.54 Y-32.127
Z5
G0 Z6
X11.569 Y-34.214
Z5
G1 Z0 F381
X12.394 Y-32.785
X11.254 Y-32.127
Z5
G0 Z16
M9
G28 G91 Z0
G90
G28 G91 X0 Y0
G90
M30
%
