%
(1001)
(T1  D=1.587 CR=0.381 - ZMIN=0 - bullnose end mill)
G90 G94
G17
G21
G28 G91 Z0
G90

(2D Pocket1)
M9
T1 M6
S10000 M3
G54
M8
G0 X43.664 Y-18.395
Z16
Z6
G1 Z3.659 F381
X43.655 Y-18.376 Z3.581
X43.626 Y-18.329 Z3.523
X43.575 Y-18.271 Z3.5
G3 X43.04 Y-18.844 Z3.457 I-0.268 J-0.287
X43.575 Y-18.271 Z3.414 I0.268 J0.287
X43.04 Y-18.844 Z3.371 I-0.268 J-0.287
X43.575 Y-18.271 Z3.328 I0.268 J0.287
X43.04 Y-18.844 Z3.285 I-0.268 J-0.287
X43.575 Y-18.271 Z3.242 I0.268 J0.287
X43.04 Y-18.844 Z3.199 I-0.268 J-0.287
X43.575 Y-18.271 Z3.156 I0.268 J0.287
X43.04 Y-18.844 Z3.113 I-0.268 J-0.287
X43.575 Y-18.271 Z3.07 I0.268 J0.287
X43.04 Y-18.844 Z3.027 I-0.268 J-0.287
X43.575 Y-18.271 Z2.984 I0.268 J0.287
X43.04 Y-18.844 Z2.941 I-0.268 J-0.287
X43.575 Y-18.271 Z2.898 I0.268 J0.287
X43.04 Y-18.844 Z2.855 I-0.268 J-0.287
X43.575 Y-18.271 Z2.812 I0.268 J0.287
X43.04 Y-18.844 Z2.769 I-0.268 J-0.287
X43.575 Y-18.271 Z2.726 I0.268 J0.287
X43.04 Y-18.844 Z2.683 I-0.268 J-0.287
X43.575 Y-18.271 Z2.64 I0.268 J0.287
X43.04 Y-18.844 Z2.597 I-0.268 J-0.287
X43.575 Y-18.271 Z2.554 I0.268 J0.287
X43.04 Y-18.844 Z2.511 I-0.268 J-0.287
X43.575 Y-18.271 Z2.468 I0.268 J0.287
X43.04 Y-18.844 Z2.425 I-0.268 J-0.287
X43.575 Y-18.271 Z2.382 I0.268 J0.287
X43.04 Y-18.844 Z2.339 I-0.268 J-0.287
X43.575 Y-18.271 Z2.296 I0.268 J0.287
X43.04 Y-18.844 Z2.252 I-0.268 J-0.287
X43.575 Y-18.271 Z2.209 I0.268 J0.287
X43.04 Y-18.844 Z2.166 I-0.268 J-0.287
X43.575 Y-18.271 Z2.123 I0.268 J0.287
X43.04 Y-18.844 Z2.08 I-0.268 J-0.287
X43.575 Y-18.271 Z2.037 I0.268 J0.287
X43.04 Y-18.844 Z1.994 I-0.268 J-0.287
X43.575 Y-18.271 Z1.951 I0.268 J0.287
X43.04 Y-18.844 Z1.908 I-0.268 J-0.287
X43.575 Y-18.271 Z1.865 I0.268 J0.287
X43.04 Y-18.844 Z1.822 I-0.268 J-0.287
X43.575 Y-18.271 Z1.779 I0.268 J0.287
X43.04 Y-18.844 Z1.736 I-0.268 J-0.287
X43.575 Y-18.271 Z1.693 I0.268 J0.287
X43.04 Y-18.844 Z1.65 I-0.268 J-0.287
X43.575 Y-18.271 Z1.607 I0.268 J0.287
X43.04 Y-18.844 Z1.564 I-0.268 J-0.287
X43.575 Y-18.271 Z1.521 I0.268 J0.287
X43.04 Y-18.844 Z1.478 I-0.268 J-0.287
X43.575 Y-18.271 Z1.435 I0.268 J0.287
X43.04 Y-18.844 Z1.392 I-0.268 J-0.287
X43.575 Y-18.271 Z1.349 I0.268 J0.287
X43.04 Y-18.844 Z1.306 I-0.268 J-0.287
X43.575 Y-18.271 Z1.263 I0.268 J0.287
X43.04 Y-18.844 Z1.22 I-0.268 J-0.287
X43.575 Y-18.271 Z1.177 I0.268 J0.287
X43.04 Y-18.844 Z1.134 I-0.268 J-0.287
X43.575 Y-18.271 Z1.091 I0.268 J0.287
X43.04 Y-18.844 Z1.048 I-0.268 J-0.287
X43.575 Y-18.271 Z1.005 I0.268 J0.287
X43.04 Y-18.844 Z0.962 I-0.268 J-0.287
X43.575 Y-18.271 Z0.919 I0.268 J0.287
X43.04 Y-18.844 Z0.876 I-0.268 J-0.287
X43.575 Y-18.271 Z0.833 I0.268 J0.287
X43.04 Y-18.844 Z0.79 I-0.268 J-0.287
X43.575 Y-18.271 Z0.747 I0.268 J0.287
X43.04 Y-18.844 Z0.704 I-0.268 J-0.287
X43.575 Y-18.271 Z0.661 I0.268 J0.287
X43.04 Y-18.844 Z0.618 I-0.268 J-0.287
X43.575 Y-18.271 Z0.575 I0.268 J0.287
X43.04 Y-18.844 Z0.532 I-0.268 J-0.287
X43.699 Y-18.558 Z0.5 I0.268 J0.287
G1 X43.682
G3 X44.484 I0.401
X42.898 I-0.793
X45.268 I1.185
X42.114 I-1.577
X46.052 I1.969
X41.33 I-2.361
X46.836 I2.753
X40.545 I-3.145
X47.62 I3.538
X39.761 I-3.93
X48.405 I4.322
X38.977 I-4.714
X49.189 I5.106
X38.193 I-5.498
X49.973 I5.89
X37.408 I-6.282
X50.757 I6.674
X36.624 I-7.067
X51.542 I7.459
X35.84 I-7.851
X52.326 I8.243
X35.056 I-8.635
X53.11 I9.027
X34.272 I-9.419
X53.894 I9.811
X33.487 I-10.203
X53.894 I10.203
G1 X53.889 Y-18.518 Z0.511
X53.875 Y-18.481 Z0.521
X53.859 Y-18.457 Z0.55
X53.838 Y-18.437 Z0.579
X53.821 Y-18.424 Z0.659
G0 Z16

(2D Contour1)
X31.432 Y-17.67
Z16
Z6
G1 Z2 F762
Z0
G2 X55.95 Y-19.446 I12.259 J-0.888 F381
X43.691 Y-30.849 I-12.259 J0.888
X31.42 Y-19.257 J12.291
G1 X11.368
G0 Z16
M9
G28 G91 Z0
G90
G28 G91 X0 Y0
G90
M30
%
