%
(1001)
(T1  D=1.587 CR=0.381 - ZMIN=0 - bullnose end mill)
G90 G94
G17
G21
G28 G91 Z0
G90

(2D Pocket1)
M9
T1 M6
S10000 M3
G54
M8
G0 X43.966 Y-18.558
Z16
Z6
G1 Z3.5 F381
Z0 F762
X44.199 F381
G3 X43.182 I-0.509
X44.984 I0.901
X42.398 I-1.293
X45.768 I1.685
X41.614 I-2.077
X46.552 I2.469
X40.83 I-2.861
X47.336 I3.253
X40.045 I-3.645
X48.12 I4.038
X39.261 I-4.43
X48.905 I4.822
X38.477 I-5.214
X49.689 I5.606
X37.693 I-5.998
X50.473 I6.39
X36.908 I-6.782
X51.257 I7.174
X36.124 I-7.567
X52.042 I7.959
X35.34 I-8.351
X52.826 I8.743
X34.556 I-9.135
X53.61 I9.527
X33.772 I-9.919
X54.394 I10.311
X32.987 I-10.703
X54.394 I10.703
G0 Z16

(Trace1)
X11.368 Y-18.463
Z16
Z5
G1 Z0 F381
X32.194
Z5
G0 Z6
X32.199 Y-18.22
Z5
G1 Z0 F381
Y-18.895
X32.238 Y-19.569
X32.317 Y-20.239
X32.436 Y-20.904
X32.593 Y-21.56
X32.788 Y-22.207
X33.021 Y-22.84
X33.291 Y-23.459
X33.596 Y-24.061
X33.937 Y-24.644
X34.311 Y-25.206
X34.717 Y-25.745
X35.154 Y-26.259
X35.621 Y-26.747
X36.115 Y-27.206
X36.636 Y-27.636
X37.181 Y-28.034
X37.748 Y-28.4
X38.336 Y-28.732
X38.943 Y-29.029
X39.565 Y-29.289
X40.202 Y-29.513
X40.851 Y-29.699
X41.51 Y-29.846
X42.176 Y-29.955
X42.848 Y-30.024
X43.522 Y-30.054
X44.197 Y-30.044
X44.87 Y-29.994
X45.539 Y-29.905
X46.202 Y-29.777
X46.856 Y-29.611
X47.5 Y-29.406
X48.13 Y-29.163
X48.744 Y-28.885
X49.342 Y-28.57
X49.92 Y-28.221
X50.476 Y-27.839
X51.009 Y-27.425
X51.517 Y-26.98
X51.998 Y-26.506
X52.45 Y-26.005
X52.872 Y-25.478
X53.262 Y-24.928
X53.619 Y-24.355
X53.943 Y-23.762
X54.23 Y-23.152
X54.482 Y-22.525
X54.696 Y-21.885
X54.872 Y-21.233
X55.01 Y-20.573
X55.109 Y-19.905
X55.168 Y-19.232
X55.188 Y-18.558
X55.168 Y-17.883
X55.109 Y-17.211
X55.01 Y-16.543
X54.872 Y-15.882
X54.696 Y-15.23
X54.482 Y-14.59
X54.23 Y-13.964
X53.943 Y-13.353
X53.619 Y-12.76
X53.262 Y-12.188
X52.872 Y-11.637
X52.45 Y-11.11
X51.998 Y-10.609
X51.517 Y-10.135
X51.009 Y-9.69
X50.476 Y-9.276
X49.92 Y-8.894
X49.342 Y-8.545
X48.744 Y-8.231
X48.13 Y-7.952
X47.5 Y-7.71
X46.856 Y-7.505
X46.202 Y-7.338
X45.539 Y-7.21
X44.87 Y-7.121
X44.197 Y-7.072
X43.522 Y-7.062
X42.848 Y-7.091
X42.176 Y-7.161
X41.51 Y-7.269
X40.851 Y-7.417
X40.202 Y-7.602
X39.565 Y-7.826
X38.943 Y-8.087
X38.336 Y-8.383
X37.748 Y-8.715
X37.181 Y-9.081
X36.636 Y-9.479
X36.115 Y-9.909
X35.621 Y-10.368
X35.154 Y-10.856
X34.717 Y-11.37
X34.311 Y-11.909
X33.937 Y-12.471
X33.596 Y-13.054
X33.291 Y-13.656
X33.021 Y-14.275
X32.788 Y-14.909
X32.593 Y-15.555
X32.436 Y-16.211
X32.317 Y-16.876
X32.238 Y-17.546
X32.199 Y-18.22
Z5
G0 Z16
M9
G28 G91 Z0
G90
G28 G91 X0 Y0
G90
M30
%
