%
(1001)
(T1  D=1.587 CR=0.381 - ZMIN=0 - bullnose end mill)
G90 G94
G17
G21
G28 G91 Z0
G90

(Face2)
M9
T1 M6
S10000 M3
G54
M8
G0 X48.697 Y-29.865
Z16
Z6
G1 Z0 F381
X48.338
X39.043
X37.278
G2 Y-28.891 J0.487
G1 X50.104
X51.353
G3 Y-27.917 J0.487
G1 X36.028
X35.062
G2 Y-26.943 J0.487
G1 X52.319
X53.087
G3 Y-25.969 J0.487
G1 X34.295
X33.677
G2 Y-24.995 J0.487
G1 X53.705
X54.194
G3 Y-24.021 J0.487
G1 X33.188
X32.808
G2 Y-23.047 J0.487
G1 X54.573
X54.859
G3 Y-22.073 J0.487
G1 X32.522
X32.332
G2 Y-21.099 J0.487
G1 X55.05
X55.159
G3 Y-20.125 J0.487
G1 X32.222
X32.194
G2 Y-19.151 J0.487
G1 X55.188
G3 Y-18.177 J0.487
G1 X32.194
G2 Y-17.203 J0.487
G1 X32.21
X55.172
G3 Y-16.229 J0.487
G1 X55.081
X32.301
G2 Y-15.255 J0.487
G1 X32.474
X54.907
G3 Y-14.281 J0.487
G1 X54.643
X32.738
G2 Y-13.307 J0.487
G1 X33.096
X54.286
G3 Y-12.333 J0.487
G1 X53.819
X33.563
G2 Y-11.359 J0.487
G1 X34.146
X53.235
G3 Y-10.385 J0.487
G1 X52.507
X34.875
G2 Y-9.411 J0.487
G1 X35.792
X51.59
G3 Y-8.437 J0.487
G1 X50.406
X36.975
G2 Y-7.463 J0.487
G1 X38.589
X48.793
G0 Z16

(2D Contour1)
X31.432 Y-17.67
Z16
Z6
G1 Z2 F762
Z0
G2 X55.95 Y-19.446 I12.259 J-0.888 F381
X43.691 Y-30.849 I-12.259 J0.888
X31.42 Y-19.257 J12.291
G1 X11.368
G0 Z16
M9
G28 G91 Z0
G90
G28 G91 X0 Y0
G90
M30
%
